; generated by PrusaSlicer 2.0.0+win64 on 2019-09-04 at 14:03:30

; 

; external perimeters extrusion width = 0.45mm
; perimeters extrusion width = 0.45mm
; infill extrusion width = 0.45mm
; solid infill extrusion width = 0.45mm
; top infill extrusion width = 0.40mm
; support material extrusion width = 0.35mm
; first layer extrusion width = 0.42mm

M73 P0 R79
M73 Q0 S79
M201 X1000 Y1000 Z1000 E5000 ; sets maximum accelerations, mm/sec^2
M203 X200 Y200 Z12 E120 ; sets maximum feedrates, mm/sec
M204 P1250 R1250 T1250 ; sets acceleration (P, T) and retract acceleration (R), mm/sec^2
M205 X8.00 Y8.00 Z0.40 E1.50 ; sets the jerk limits, mm/sec
M205 S0 T0 ; sets the minimum extruding and travel feed rate, mm/sec
M107
M115 U3.7.2 ; tell printer latest fw version
G90 ; use absolute coordinates
M83 ; extruder relative mode
M104 S215 ; set extruder temp
M140 S60 ; set bed temp
M190 S60 ; wait for bed temp
M109 S215 ; wait for extruder temp
G28 W ; home all without mesh bed level
G80 ; mesh bed leveling
G1 Y-3.0 F1000.0 ; go outside print area
G92 E0.0
G1 X60.0 E9.0 F1000.0 ; intro line
M73 Q0 S79
M73 P0 R79
G1 X100.0 E12.5 F1000.0 ; intro line
G92 E0.0
M221 S95
M900 K30 ; Filament gcode
G21 ; set units to millimeters
G90 ; use absolute coordinates
M83 ; use relative distances for extrusion
;BEFORE_LAYER_CHANGE
G92 E0.0
;0.2


G1 E-0.80000 F2100.00000
G1 Z0.600 F10800.000
;AFTER_LAYER_CHANGE
;0.2
G1 X114.631 Y90.962
G1 Z0.200
G1 E0.80000 F2100.00000
M204 S1000
G1 F1200
G1 X115.405 Y90.188 E0.03431
G1 X116.008 Y89.757 E0.02325
G1 X116.731 Y89.379 E0.02556
G1 X117.395 Y89.142 E0.02210
G1 X118.160 Y88.979 E0.02453
G1 X123.441 Y88.270 E0.16708
G1 X126.179 Y88.389 E0.08591
G1 X131.894 Y88.987 E0.18017
G1 X133.234 Y89.363 E0.04364
G1 X134.499 Y90.108 E0.04603
G1 X135.425 Y91.028 E0.04094
G1 X138.463 Y94.951 E0.15557
G1 X140.088 Y97.970 E0.10749
G1 X142.260 Y102.827 E0.16683
G1 X142.504 Y103.532 E0.02337
G1 X142.701 Y105.001 E0.04649
G1 X142.505 Y106.464 E0.04628
G1 X139.993 Y112.608 E0.20810
G1 X138.585 Y114.633 E0.07734
G1 X135.105 Y119.338 E0.18348
G1 X134.491 Y119.898 E0.02609
G1 X133.884 Y120.310 E0.02300
G1 X132.531 Y120.880 E0.04603
G1 X126.368 Y121.739 E0.19508
G1 X123.817 Y121.611 E0.08010
G1 X118.192 Y121.026 E0.17731
G1 X116.970 Y120.715 E0.03954
G1 X116.148 Y120.329 E0.02847
G1 X115.440 Y119.842 E0.02696
G1 X114.626 Y119.032 E0.03600
G1 X111.458 Y114.953 E0.16196
G1 X109.802 Y111.800 E0.11164
G1 X107.739 Y107.170 E0.15894
G1 X107.496 Y106.468 E0.02328
G1 X107.299 Y105.003 E0.04637
G1 X107.487 Y103.562 E0.04555
G1 X109.795 Y97.820 E0.19405
G1 X111.393 Y95.399 E0.09096
G1 X114.596 Y91.010 E0.17034
G1 F8640
G1 X115.405 Y90.188 E-0.26639
G1 X116.008 Y89.757 E-0.17121
G1 X116.731 Y89.379 E-0.18824
G1 X117.278 Y89.184 E-0.13416
G1 E-0.04000 F2100.00000
G1 Z0.800 F10800.000
G1 X117.576 Y89.482
G1 Z0.200
G1 E0.80000 F2100.00000
G1 F1200
G1 X123.444 Y88.648 E0.18585
G1 X126.147 Y88.764 E0.08483
G1 X131.824 Y89.358 E0.17898
G1 X133.075 Y89.705 E0.04069
G1 X134.269 Y90.408 E0.04345
G1 X135.135 Y91.269 E0.03829
G1 X138.139 Y95.145 E0.15376
G1 X139.748 Y98.131 E0.10634
G1 X141.913 Y102.976 E0.16639
G1 X142.139 Y103.627 E0.02161
G1 X142.324 Y104.997 E0.04335
G1 X142.140 Y106.372 E0.04349
G1 X139.665 Y112.421 E0.20493
G1 X134.834 Y119.076 E0.25786
G1 X134.260 Y119.600 E0.02435
G1 X133.696 Y119.983 E0.02138
G1 X132.435 Y120.515 E0.04292
G1 X126.387 Y121.362 E0.19149
G1 X123.850 Y121.235 E0.07963
G1 X118.252 Y120.654 E0.17646
G1 X117.439 Y120.476 E0.02610
G1 X116.344 Y120.007 E0.03737
G1 X115.677 Y119.548 E0.02536
G1 X114.908 Y118.781 E0.03407
G1 X111.777 Y114.752 E0.15996
G1 X110.145 Y111.643 E0.11012
G1 X108.086 Y107.022 E0.15862
G1 X107.861 Y106.373 E0.02153
G1 X107.676 Y105.002 E0.04338
G1 X107.855 Y103.646 E0.04289
G1 X110.147 Y97.957 E0.19229
G1 X111.710 Y95.604 E0.08856
G1 X115.156 Y90.936 E0.18194
G1 X115.734 Y90.405 E0.02461
G1 X116.304 Y90.017 E0.02161
G1 X117.520 Y89.505 E0.04138
G1 F8640
G1 X120.778 Y89.034 E-0.76000
G1 E-0.04000 F2100.00000
G1 Z0.800 F10800.000
G1 X123.439 Y90.836
G1 Z0.200
G1 E0.80000 F2100.00000
G1 F1200
G1 X123.439 Y91.076 E0.00754
G1 X124.193 Y91.076 E0.02365
G1 X124.193 Y90.940 E0.00429
G1 X124.947 Y90.914 E0.02366
G1 X124.947 Y91.076 E0.00510
G1 X125.701 Y91.076 E0.02365
G1 X125.701 Y90.936 E0.00440
G1 X126.456 Y90.996 E0.02372
G1 X126.456 Y91.246 E0.00785
G1 F8640
G1 X126.456 Y90.996 E-0.05781
G1 X125.701 Y90.936 E-0.17468
G1 X125.701 Y91.076 E-0.03241
G1 X124.947 Y91.076 E-0.17414
G1 X124.947 Y90.914 E-0.03753
G1 X124.193 Y90.940 E-0.17424
G1 X124.193 Y91.076 E-0.03158
G1 X123.857 Y91.076 E-0.07761
G1 E-0.04000 F2100.00000
G1 Z0.800 F10800.000
G1 X136.260 Y96.266
G1 Z0.200
G1 E0.80000 F2100.00000
G1 F1200
G1 X136.260 Y96.655 E0.01221
G1 X137.014 Y97.961 E0.04729
G1 X137.014 Y97.645 E0.00993
G1 X137.037 Y97.680 E0.00132
G1 X137.508 Y98.519 E0.03016
G1 X137.768 Y99.064 E0.01895
G1 X137.768 Y99.607 E0.01701
G1 F8640
G1 X137.768 Y99.064 E-0.12529
G1 X137.508 Y98.519 E-0.13956
G1 X137.037 Y97.680 E-0.22211
G1 X137.014 Y97.645 E-0.00973
G1 X137.014 Y97.961 E-0.07310
G1 X136.602 Y97.248 E-0.19020
G1 E-0.04000 F2100.00000
G1 Z0.800 F10800.000
G1 X135.506 Y109.024
G1 Z0.200
G1 E0.80000 F2100.00000
G1 F1200
G1 X135.506 Y101.475 E0.23672
G1 X135.168 Y100.583 E0.02988
G1 X134.751 Y99.736 E0.02961
G1 X134.751 Y110.264 E0.33009
G1 X134.472 Y110.760 E0.01785
G1 X133.997 Y111.472 E0.02684
G1 X133.997 Y98.528 E0.40586
G1 X133.600 Y98.004 E0.02063
G1 X133.243 Y97.595 E0.01702
G1 X133.243 Y112.405 E0.46438
G1 X133.102 Y112.567 E0.00672
G1 X132.489 Y113.170 E0.02698
G1 X132.489 Y96.830 E0.51235
G1 X131.996 Y96.400 E0.02049
G1 X131.735 Y96.202 E0.01030
G1 X131.735 Y113.798 E0.55172
G1 X131.393 Y114.057 E0.01344
G1 X130.981 Y114.328 E0.01547
G1 X130.981 Y95.672 E0.58493
G1 X130.760 Y95.528 E0.00826
G1 X130.226 Y95.228 E0.01920
G1 X130.226 Y114.772 E0.61282
G1 X129.472 Y115.142 E0.02633
G1 X129.472 Y94.858 E0.63599
G1 X128.718 Y94.556 E0.02547
G1 X128.718 Y115.444 E0.65492
G1 X127.964 Y115.682 E0.02479
G1 X127.964 Y94.318 E0.66984
G1 X127.210 Y94.138 E0.02431
G1 X127.210 Y115.862 E0.68116
G1 X126.456 Y115.989 E0.02398
G1 X126.456 Y94.011 E0.68907
G1 X125.701 Y93.938 E0.02376
G1 X125.701 Y116.062 E0.69370
G1 X124.947 Y116.084 E0.02366
G1 X124.947 Y93.916 E0.69509
G1 X124.193 Y93.945 E0.02366
G1 X124.193 Y116.055 E0.69326
G1 X123.439 Y115.974 E0.02378
G1 X123.439 Y94.026 E0.68817
G1 X122.685 Y94.160 E0.02402
G1 X122.685 Y115.840 E0.67975
G1 X121.931 Y115.650 E0.02438
G1 X121.931 Y94.350 E0.66786
G1 X121.176 Y94.598 E0.02489
G1 X121.176 Y115.402 E0.65232
G1 X120.422 Y115.092 E0.02557
G1 X120.422 Y94.908 E0.63285
G1 X119.668 Y95.287 E0.02646
G1 X119.668 Y114.713 E0.60910
G1 X119.240 Y114.472 E0.01541
G1 X118.914 Y114.259 E0.01222
G1 X118.914 Y95.741 E0.58059
G1 X118.607 Y95.943 E0.01152
G1 X118.160 Y96.282 E0.01759
G1 X118.160 Y113.718 E0.54670
G1 X117.406 Y113.075 E0.03108
G1 X117.406 Y96.925 E0.50636
G1 X116.898 Y97.433 E0.02252
G1 X116.652 Y97.715 E0.01175
G1 X116.652 Y112.285 E0.45680
G1 X116.400 Y111.996 E0.01199
G1 X115.897 Y111.324 E0.02633
G1 X115.897 Y98.676 E0.39656
G1 X115.528 Y99.240 E0.02113
G1 X115.143 Y99.928 E0.02472
G1 X115.143 Y110.072 E0.31806
G1 X114.832 Y109.417 E0.02275
G1 X114.554 Y108.713 E0.02373
G1 X114.389 Y108.193 E0.01708
G1 X114.389 Y101.246 E0.21783
G1 F8640
G1 X114.389 Y104.537 E-0.76000
G1 E-0.04000 F2100.00000
G1 Z0.800 F10800.000
G1 X112.127 Y98.891
G1 Z0.200
G1 E0.80000 F2100.00000
G1 F1200
G1 X112.127 Y99.450 E0.01754
G1 X112.881 Y98.144 E0.04729
G1 X112.881 Y97.827 E0.00996
G1 X113.491 Y96.876 E0.03542
G1 X113.635 Y96.686 E0.00749
G1 X113.635 Y97.177 E0.01542
G1 F8640
G1 X113.635 Y96.686 E-0.11353
G1 X113.491 Y96.876 E-0.05513
G1 X112.881 Y97.827 E-0.26082
G1 X112.881 Y98.144 E-0.07332
G1 X112.324 Y99.109 E-0.25720
G1 E-0.04000 F2100.00000
G1 Z0.800 F10800.000
G1 X112.127 Y110.210
G1 Z0.200
G1 E0.80000 F2100.00000
G1 F1200
G1 X112.127 Y110.714 E0.01579
G1 X112.492 Y111.481 E0.02665
G1 X112.881 Y112.173 E0.02490
G1 X112.881 Y111.856 E0.00996
G1 X113.635 Y113.162 E0.04729
G1 X113.635 Y113.595 E0.01358
G1 F8640
G1 X113.635 Y113.162 E-0.10001
G1 X112.881 Y111.856 E-0.34827
G1 X112.881 Y112.173 E-0.07332
G1 X112.492 Y111.481 E-0.18334
G1 X112.389 Y111.266 E-0.05506
G1 E-0.04000 F2100.00000
G1 Z0.800 F10800.000
G1 X123.439 Y118.754
G1 Z0.200
G1 E0.80000 F2100.00000
G1 F1200
G1 X123.439 Y118.993 E0.00751
G1 X124.039 Y119.055 E0.01890
G1 X124.193 Y119.060 E0.00485
G1 X124.193 Y118.924 E0.00429
G1 X124.947 Y118.924 E0.02365
G1 X124.947 Y119.086 E0.00510
G1 X125.000 Y119.088 E0.00166
G1 X125.701 Y119.064 E0.02200
G1 X125.701 Y118.924 E0.00440
G1 X126.456 Y118.924 E0.02365
G1 X126.456 Y119.175 E0.00788
G1 F8640
G1 X126.456 Y118.924 E-0.05802
G1 X125.701 Y118.924 E-0.17414
G1 X125.701 Y119.064 E-0.03241
G1 X125.000 Y119.088 E-0.16205
G1 X124.947 Y119.086 E-0.01219
G1 X124.947 Y118.924 E-0.03753
G1 X124.193 Y118.924 E-0.17414
G1 X124.193 Y119.060 E-0.03158
G1 X124.039 Y119.055 E-0.03569
G1 X123.857 Y119.036 E-0.04225
G1 E-0.04000 F2100.00000
G1 Z0.800 F10800.000
G1 X136.260 Y113.005
G1 Z0.200
G1 E0.80000 F2100.00000
G1 F1200
G1 X136.260 Y113.453 E0.01405
G1 X136.509 Y113.124 E0.01296
G1 X137.014 Y112.355 E0.02884
G1 X137.014 Y112.039 E0.00993
G1 X137.768 Y110.732 E0.04729
G1 X137.768 Y111.331 E0.01876
G1 F8640
G1 X137.768 Y110.732 E-0.13816
G1 X137.014 Y112.039 E-0.34827
G1 X137.014 Y112.355 E-0.07310
G1 X136.538 Y113.081 E-0.20047
G1 E-0.04000 F2100.00000
G1 Z0.800 F10800.000
G1 X135.809 Y110.399
G1 Z0.200
G1 E0.80000 F2100.00000
G1 F1200
G1 X135.328 Y111.280 E0.03147
G1 X134.875 Y111.971 E0.02590
G1 X134.393 Y112.607 E0.02504
G1 X133.834 Y113.250 E0.02670
G1 X133.250 Y113.834 E0.02590
G1 X132.628 Y114.376 E0.02588
G1 X131.971 Y114.875 E0.02588
G1 X131.280 Y115.328 E0.02588
G1 X130.561 Y115.732 E0.02588
G1 X129.816 Y116.087 E0.02588
G1 X129.048 Y116.390 E0.02588
G1 X128.287 Y116.631 E0.02504
G1 X127.460 Y116.834 E0.02670
G1 X126.646 Y116.975 E0.02590
G1 X125.825 Y117.059 E0.02588
G1 X125.000 Y117.087 E0.02588
G1 X124.175 Y117.059 E0.02588
G1 X123.381 Y116.978 E0.02504
G1 X122.541 Y116.835 E0.02670
G1 X121.739 Y116.639 E0.02590
G1 X120.952 Y116.390 E0.02588
G1 X120.184 Y116.087 E0.02588
G1 X119.439 Y115.732 E0.02588
G1 X118.743 Y115.341 E0.02504
G1 X118.030 Y114.875 E0.02670
G1 X117.372 Y114.376 E0.02590
G1 X116.770 Y113.852 E0.02504
G1 X116.167 Y113.251 E0.02670
G1 X115.624 Y112.628 E0.02590
G1 X115.141 Y111.992 E0.02504
G1 X114.673 Y111.281 E0.02670
G1 X114.268 Y110.561 E0.02590
G1 X113.913 Y109.816 E0.02588
G1 X113.620 Y109.073 E0.02504
G1 X113.361 Y108.262 E0.02670
G1 X113.165 Y107.459 E0.02590
G1 X113.025 Y106.646 E0.02588
G1 X112.943 Y105.852 E0.02504
G1 X112.913 Y105.001 E0.02670
G1 X112.941 Y104.175 E0.02590
G1 X113.025 Y103.354 E0.02588
G1 X113.161 Y102.567 E0.02504
G1 X113.361 Y101.739 E0.02670
G1 X113.610 Y100.952 E0.02590
G1 X113.913 Y100.184 E0.02588
G1 X114.256 Y99.463 E0.02504
G1 X114.672 Y98.720 E0.02670
G1 X115.125 Y98.029 E0.02590
G1 X115.624 Y97.372 E0.02588
G1 X116.166 Y96.750 E0.02588
G1 X116.750 Y96.166 E0.02588
G1 X117.352 Y95.641 E0.02504
G1 X118.029 Y95.125 E0.02670
G1 X118.720 Y94.672 E0.02590
G1 X119.416 Y94.281 E0.02504
G1 X120.184 Y93.914 E0.02670
G1 X120.952 Y93.610 E0.02590
G1 X121.739 Y93.361 E0.02588
G1 X122.541 Y93.165 E0.02588
G1 X123.354 Y93.025 E0.02588
G1 X124.175 Y92.941 E0.02588
G1 X124.973 Y92.913 E0.02504
G1 X125.824 Y92.941 E0.02670
G1 X126.646 Y93.025 E0.02590
G1 X127.459 Y93.165 E0.02588
G1 X128.261 Y93.361 E0.02588
G1 X129.048 Y93.610 E0.02588
G1 X129.816 Y93.913 E0.02588
G1 X130.537 Y94.256 E0.02504
G1 X131.280 Y94.672 E0.02670
G1 X131.971 Y95.125 E0.02590
G1 X132.607 Y95.607 E0.02504
G1 X133.250 Y96.166 E0.02670
G1 X133.834 Y96.750 E0.02590
G1 X134.376 Y97.372 E0.02588
G1 X134.875 Y98.029 E0.02588
G1 X135.328 Y98.720 E0.02588
G1 X135.732 Y99.439 E0.02588
G1 X136.087 Y100.184 E0.02588
G1 X136.390 Y100.952 E0.02588
G1 X136.639 Y101.739 E0.02588
G1 X136.835 Y102.541 E0.02588
G1 X136.975 Y103.354 E0.02588
G1 X137.059 Y104.175 E0.02588
G1 X137.087 Y105.000 E0.02588
G1 X137.059 Y105.825 E0.02588
G1 X136.975 Y106.646 E0.02588
G1 X136.835 Y107.459 E0.02588
G1 X136.639 Y108.261 E0.02588
G1 X136.390 Y109.048 E0.02588
G1 X136.087 Y109.816 E0.02588
G1 X135.835 Y110.345 E0.01838
G1 X135.494 Y110.183 F10800.000
G1 F1200
G1 X135.005 Y111.084 E0.03215
G1 X134.567 Y111.753 E0.02508
G1 X134.100 Y112.369 E0.02424
G1 X133.558 Y112.993 E0.02589
G1 X132.993 Y113.558 E0.02508
G1 X132.390 Y114.084 E0.02507
G1 X131.753 Y114.567 E0.02507
G1 X131.084 Y115.005 E0.02507
G1 X130.387 Y115.397 E0.02507
G1 X129.665 Y115.741 E0.02507
G1 X128.921 Y116.034 E0.02507
G1 X128.185 Y116.268 E0.02424
G1 X127.383 Y116.465 E0.02589
G1 X126.595 Y116.601 E0.02508
G1 X125.799 Y116.683 E0.02507
G1 X125.000 Y116.710 E0.02507
G1 X124.201 Y116.683 E0.02507
G1 X123.432 Y116.604 E0.02424
G1 X122.618 Y116.465 E0.02589
G1 X121.841 Y116.276 E0.02508
G1 X121.079 Y116.034 E0.02507
G1 X120.335 Y115.741 E0.02507
G1 X119.613 Y115.397 E0.02507
G1 X118.939 Y115.018 E0.02424
G1 X118.247 Y114.567 E0.02589
G1 X117.610 Y114.084 E0.02508
G1 X117.027 Y113.576 E0.02424
G1 X116.442 Y112.993 E0.02589
G1 X115.916 Y112.390 E0.02508
G1 X115.449 Y111.774 E0.02424
G1 X114.995 Y111.085 E0.02589
G1 X114.603 Y110.387 E0.02508
G1 X114.259 Y109.665 E0.02507
G1 X113.976 Y108.946 E0.02424
G1 X113.724 Y108.160 E0.02589
G1 X113.535 Y107.382 E0.02508
G1 X113.399 Y106.595 E0.02507
G1 X113.320 Y105.825 E0.02424
G1 X113.290 Y105.000 E0.02589
G1 X113.317 Y104.201 E0.02508
G1 X113.399 Y103.405 E0.02507
G1 X113.530 Y102.644 E0.02424
G1 X113.724 Y101.841 E0.02589
G1 X113.966 Y101.079 E0.02508
G1 X114.259 Y100.335 E0.02507
G1 X114.591 Y99.636 E0.02424
G1 X114.995 Y98.916 E0.02589
G1 X115.433 Y98.247 E0.02508
G1 X115.916 Y97.610 E0.02507
G1 X116.442 Y97.007 E0.02507
G1 X117.007 Y96.442 E0.02507
G1 X117.590 Y95.934 E0.02424
G1 X118.247 Y95.433 E0.02589
G1 X118.916 Y94.995 E0.02508
G1 X119.590 Y94.616 E0.02424
G1 X120.334 Y94.259 E0.02589
G1 X121.079 Y93.966 E0.02508
G1 X121.841 Y93.724 E0.02507
G1 X122.618 Y93.535 E0.02507
G1 X123.405 Y93.399 E0.02507
G1 X124.201 Y93.317 E0.02507
G1 X124.974 Y93.291 E0.02424
G1 X125.799 Y93.317 E0.02589
G1 X126.595 Y93.399 E0.02508
G1 X127.382 Y93.535 E0.02507
G1 X128.159 Y93.724 E0.02507
G1 X128.921 Y93.966 E0.02507
G1 X129.665 Y94.259 E0.02507
G1 X130.364 Y94.591 E0.02424
G1 X131.084 Y94.995 E0.02589
G1 X131.753 Y95.433 E0.02508
G1 X132.369 Y95.900 E0.02424
G1 X132.993 Y96.442 E0.02589
G1 X133.558 Y97.007 E0.02508
G1 X134.084 Y97.610 E0.02507
G1 X134.567 Y98.247 E0.02507
G1 X135.005 Y98.916 E0.02507
G1 X135.397 Y99.613 E0.02507
G1 X135.741 Y100.335 E0.02507
G1 X136.034 Y101.079 E0.02507
G1 X136.276 Y101.841 E0.02507
G1 X136.465 Y102.618 E0.02507
G1 X136.601 Y103.405 E0.02507
G1 X136.683 Y104.201 E0.02507
G1 X136.710 Y105.000 E0.02507
G1 X136.683 Y105.799 E0.02507
G1 X136.601 Y106.595 E0.02507
G1 X136.465 Y107.382 E0.02507
G1 X136.276 Y108.159 E0.02507
G1 X136.034 Y108.921 E0.02507
G1 X135.741 Y109.665 E0.02507
G1 X135.520 Y110.129 E0.01609
G1 X135.714 Y110.517 F10800.000
G1 F8640
G1 X135.005 Y111.084 E-0.25059
G1 X134.567 Y111.753 E-0.18468
G1 X134.100 Y112.369 E-0.17853
G1 X133.685 Y112.847 E-0.14619
G1 E-0.04000 F2100.00000
G1 Z0.800 F10800.000
G1 X136.601 Y110.753
G1 Z0.200
G1 E0.80000 F2100.00000
G1 F1200
G1 X133.166 Y116.702 E0.21539
G1 X132.980 Y116.980 E0.01049
G1 X132.772 Y117.217 E0.00989
G1 X132.534 Y117.425 E0.00989
G1 X132.271 Y117.600 E0.00990
G1 X131.993 Y117.737 E0.00973
G1 X131.694 Y117.839 E0.00990
G1 X131.385 Y117.901 E0.00989
G1 X131.049 Y117.923 E0.01057
G1 X118.949 Y117.923 E0.37937
G1 X118.615 Y117.901 E0.01049
G1 X118.306 Y117.839 E0.00989
G1 X118.007 Y117.737 E0.00990
G1 X117.729 Y117.600 E0.00973
G1 X117.466 Y117.425 E0.00990
G1 X117.228 Y117.217 E0.00989
G1 X117.020 Y116.980 E0.00989
G1 X116.833 Y116.700 E0.01057
G1 X110.784 Y106.223 E0.37930
G1 X110.637 Y105.926 E0.01039
G1 X110.534 Y105.622 E0.01007
G1 X110.473 Y105.313 E0.00988
G1 X110.453 Y104.997 E0.00990
