; generated by PrusaSlicer 2.0.0+win64 on 2019-09-02 at 14:14:13

; 

; external perimeters extrusion width = 0.45mm
; perimeters extrusion width = 0.45mm
; infill extrusion width = 0.45mm
; solid infill extrusion width = 0.45mm
; top infill extrusion width = 0.40mm
; first layer extrusion width = 0.42mm

M73 P0 R40
M73 Q0 S41
M201 X1000 Y1000 Z1000 E5000 ; sets maximum accelerations, mm/sec^2
M203 X200 Y200 Z12 E120 ; sets maximum feedrates, mm/sec
M204 P1250 R1250 T1250 ; sets acceleration (P, T) and retract acceleration (R), mm/sec^2
M205 X8.00 Y8.00 Z0.40 E1.50 ; sets the jerk limits, mm/sec
M205 S0 T0 ; sets the minimum extruding and travel feed rate, mm/sec
M107
M115 U3.7.1 ; tell printer latest fw version
G90 ; use absolute coordinates
M83 ; extruder relative mode
M104 S215 ; set extruder temp
M140 S60 ; set bed temp
M190 S60 ; wait for bed temp
M109 S215 ; wait for extruder temp
G28 W ; home all without mesh bed level
G80 ; mesh bed leveling
G1 Y-3.0 F1000.0 ; go outside print area
G92 E0.0
G1 X60.0 E9.0 F1000.0 ; intro line
M73 Q0 S41
M73 P0 R40
G1 X100.0 E12.5 F1000.0 ; intro line
G92 E0.0
M221 S95
M900 K30 ; Filament gcode
G21 ; set units to millimeters
G90 ; use absolute coordinates
M83 ; use relative distances for extrusion
;BEFORE_LAYER_CHANGE
G92 E0.0
;0.2


G1 E-0.80000 F2100.00000
G1 Z0.600 F10800.000
;AFTER_LAYER_CHANGE
;0.2
G1 X114.540 Y88.171
G1 Z0.200
G1 E0.80000 F2100.00000
M204 S1000
G1 F1200
G1 X115.055 Y87.779 E0.02029
G1 X115.652 Y87.528 E0.02029
G1 X116.292 Y87.435 E0.02029
G1 X133.664 Y87.434 E0.54468
G1 X134.325 Y87.522 E0.02091
G1 X134.941 Y87.777 E0.02091
G1 X135.471 Y88.182 E0.02091
G1 X135.878 Y88.711 E0.02091
G1 X144.617 Y103.857 E0.54827
G1 X144.822 Y104.429 E0.01906
G1 X144.886 Y105.034 E0.01906
G1 X144.806 Y105.636 E0.01906
G1 X144.586 Y106.203 E0.01906
G1 X135.856 Y121.327 E0.54753
G1 X135.434 Y121.854 E0.02116
G1 X134.889 Y122.252 E0.02116
G1 X134.294 Y122.486 E0.02005
G1 X133.660 Y122.566 E0.02004
G1 X116.296 Y122.565 E0.54444
G1 X115.698 Y122.484 E0.01894
G1 X115.135 Y122.265 E0.01894
G1 X114.574 Y121.862 E0.02165
G1 X114.144 Y121.327 E0.02152
G1 X105.410 Y106.196 E0.54778
G1 X105.188 Y105.613 E0.01956
G1 X105.114 Y104.994 E0.01956
G1 X105.190 Y104.379 E0.01943
G1 X105.414 Y103.797 E0.01956
G1 X114.142 Y88.676 E0.54741
G1 X114.503 Y88.218 E0.01829
G1 X114.797 Y88.449 F10800.000
G1 F1200
G1 X115.244 Y88.106 E0.01767
G1 X115.755 Y87.891 E0.01737
G1 X116.303 Y87.812 E0.01737
G1 X133.664 Y87.811 E0.54434
G1 X134.231 Y87.887 E0.01794
G1 X134.756 Y88.106 E0.01783
G1 X135.207 Y88.452 E0.01783
G1 X135.554 Y88.902 E0.01783
G1 X144.272 Y104.009 E0.54686
G1 X144.452 Y104.502 E0.01646
G1 X144.509 Y105.027 E0.01658
G1 X144.439 Y105.548 E0.01646
G1 X144.248 Y106.037 E0.01646
G1 X135.537 Y121.126 E0.54629
G1 X135.176 Y121.579 E0.01817
G1 X134.712 Y121.919 E0.01805
G1 X134.203 Y122.120 E0.01714
G1 X133.660 Y122.189 E0.01715
G1 X116.307 Y122.188 E0.54410
G1 X115.790 Y122.118 E0.01635
G1 X115.301 Y121.927 E0.01646
G1 X114.830 Y121.584 E0.01828
G1 X114.463 Y121.126 E0.01839
G1 X105.747 Y106.027 E0.54663
G1 X105.555 Y105.527 E0.01680
G1 X105.491 Y104.995 E0.01680
G1 X105.558 Y104.463 E0.01680
G1 X105.752 Y103.963 E0.01680
G1 X114.463 Y88.874 E0.54629
G1 X114.760 Y88.497 E0.01507
G1 F8640
G1 X115.244 Y88.106 E-0.14362
G1 X115.755 Y87.891 E-0.12793
G1 X116.303 Y87.812 E-0.12793
G1 X117.864 Y87.812 E-0.36052
G1 E-0.04000 F2100.00000
G1 Z0.800 F10800.000
G1 X120.917 Y97.699
G1 Z0.200
G1 E0.80000 F2100.00000
G1 F1200
G1 X121.468 Y97.359 E0.02028
G1 X122.191 Y96.995 E0.02539
G1 X123.014 Y96.680 E0.02764
G1 X123.895 Y96.443 E0.02859
G1 X124.479 Y96.340 E0.01859
G1 X125.057 Y96.279 E0.01824
G1 X125.460 Y96.262 E0.01264
G1 X126.208 Y96.272 E0.02344
G1 X126.636 Y96.309 E0.01346
G1 X127.215 Y96.390 E0.01835
G1 X127.904 Y96.543 E0.02211
G1 X128.342 Y96.666 E0.01428
G1 X128.888 Y96.857 E0.01813
G1 X129.418 Y97.082 E0.01806
G1 X129.929 Y97.339 E0.01794
G1 X130.339 Y97.574 E0.01482
G1 X130.897 Y97.946 E0.02101
G1 X131.283 Y98.235 E0.01512
G1 X131.722 Y98.609 E0.01808
G1 X132.135 Y99.007 E0.01799
G1 X132.467 Y99.368 E0.01537
G1 X132.881 Y99.875 E0.02054
G1 X133.172 Y100.278 E0.01556
G1 X133.480 Y100.763 E0.01801
G1 X133.757 Y101.264 E0.01797
G1 X133.975 Y101.718 E0.01578
G1 X134.261 Y102.425 E0.02392
G1 X134.471 Y103.091 E0.02189
G1 X134.635 Y103.775 E0.02206
G1 X134.717 Y104.443 E0.02108
G1 X134.731 Y105.113 E0.02101
G1 X134.698 Y105.812 E0.02197
G1 X134.661 Y106.167 E0.01117
G1 X134.463 Y107.279 E0.03542
G1 X134.258 Y108.006 E0.02368
G1 X133.993 Y108.725 E0.02402
G1 X133.670 Y109.425 E0.02419
G1 X133.290 Y110.102 E0.02432
G1 X132.853 Y110.750 E0.02450
G1 X132.259 Y111.483 E0.02959
G1 X131.720 Y112.041 E0.02432
G1 X131.138 Y112.554 E0.02431
G1 X130.626 Y112.940 E0.02013
G1 X129.857 Y113.436 E0.02868
G1 X129.160 Y113.800 E0.02465
G1 X128.427 Y114.108 E0.02492
G1 X127.825 Y114.315 E0.01997
G1 X127.120 Y114.501 E0.02288
G1 X126.389 Y114.603 E0.02312
G1 X125.708 Y114.629 E0.02137
G1 X125.064 Y114.608 E0.02022
G1 X124.160 Y114.506 E0.02852
G1 X123.273 Y114.314 E0.02846
G1 X122.921 Y114.220 E0.01142
G1 X122.329 Y114.019 E0.01959
G1 X121.418 Y113.617 E0.03122
G1 X120.713 Y113.220 E0.02535
G1 X120.354 Y112.988 E0.01342
G1 X119.865 Y112.629 E0.01900
G1 X119.404 Y112.240 E0.01892
G1 X119.081 Y111.931 E0.01403
G1 X118.569 Y111.382 E0.02352
G1 X118.197 Y110.914 E0.01872
G1 X117.928 Y110.532 E0.01468
G1 X117.557 Y109.921 E0.02240
G1 X117.335 Y109.498 E0.01500
G1 X117.092 Y108.954 E0.01867
G1 X116.887 Y108.395 E0.01867
G1 X116.750 Y107.927 E0.01529
G1 X116.593 Y107.248 E0.02184
G1 X116.506 Y106.659 E0.01867
G1 X116.459 Y106.071 E0.01850
G1 X116.452 Y105.569 E0.01574
G1 X116.488 Y104.892 E0.02127
G1 X116.567 Y104.286 E0.01916
G1 X116.681 Y103.722 E0.01803
G1 X117.004 Y102.608 E0.03639
G1 X117.195 Y102.043 E0.01869
G1 X117.446 Y101.449 E0.02023
G1 X117.754 Y100.858 E0.02089
G1 X118.120 Y100.275 E0.02159
G1 X118.536 Y99.721 E0.02170
G1 X119.002 Y99.198 E0.02198
G1 X119.579 Y98.653 E0.02487
G1 X120.051 Y98.279 E0.01890
G1 X120.868 Y97.732 E0.03079
G1 X121.077 Y98.046 F10800.000
G1 F1200
G1 X121.651 Y97.689 E0.02118
G1 X122.343 Y97.340 E0.02431
G1 X123.131 Y97.039 E0.02644
G1 X123.977 Y96.811 E0.02746
G1 X124.531 Y96.714 E0.01766
G1 X125.085 Y96.655 E0.01748
G1 X125.466 Y96.639 E0.01193
G1 X126.189 Y96.649 E0.02269
G1 X126.593 Y96.683 E0.01272
G1 X127.148 Y96.762 E0.01756
G1 X127.812 Y96.908 E0.02133
G1 X128.229 Y97.025 E0.01357
G1 X128.752 Y97.209 E0.01737
G1 X129.260 Y97.425 E0.01730
G1 X129.751 Y97.671 E0.01723
G1 X130.141 Y97.895 E0.01410
G1 X130.679 Y98.254 E0.02029
G1 X131.047 Y98.530 E0.01442
G1 X131.468 Y98.888 E0.01734
G1 X131.865 Y99.271 E0.01728
G1 X132.182 Y99.615 E0.01466
G1 X132.582 Y100.105 E0.01983
G1 X132.859 Y100.490 E0.01487
G1 X133.155 Y100.955 E0.01730
G1 X133.422 Y101.437 E0.01727
G1 X133.630 Y101.870 E0.01506
G1 X133.905 Y102.553 E0.02308
G1 X134.108 Y103.192 E0.02101
G1 X134.263 Y103.842 E0.02097
G1 X134.340 Y104.470 E0.01983
G1 X134.354 Y105.108 E0.02001
G1 X134.322 Y105.784 E0.02121
G1 X134.287 Y106.116 E0.01049
G1 X134.096 Y107.189 E0.03416
G1 X133.899 Y107.890 E0.02282
G1 X133.644 Y108.580 E0.02309
G1 X133.334 Y109.254 E0.02325
G1 X132.968 Y109.904 E0.02338
G1 X132.550 Y110.526 E0.02350
G1 X131.976 Y111.233 E0.02855
G1 X131.459 Y111.768 E0.02334
G1 X130.900 Y112.261 E0.02338
G1 X130.410 Y112.631 E0.01924
G1 X129.667 Y113.109 E0.02771
G1 X129.000 Y113.459 E0.02361
G1 X128.293 Y113.755 E0.02403
G1 X127.716 Y113.954 E0.01915
G1 X127.045 Y114.130 E0.02174
G1 X126.356 Y114.227 E0.02181
G1 X125.707 Y114.251 E0.02035
G1 X125.091 Y114.231 E0.01934
G1 X124.221 Y114.134 E0.02745
G1 X123.030 Y113.859 E0.03830
G1 X122.466 Y113.667 E0.01869
G1 X121.587 Y113.279 E0.03013
G1 X120.908 Y112.897 E0.02442
G1 X120.568 Y112.677 E0.01271
G1 X120.099 Y112.333 E0.01825
G1 X119.656 Y111.960 E0.01815
G1 X119.349 Y111.666 E0.01332
G1 X118.855 Y111.136 E0.02272
G1 X118.499 Y110.688 E0.01791
G1 X118.243 Y110.325 E0.01393
G1 X117.885 Y109.735 E0.02163
G1 X117.674 Y109.333 E0.01426
G1 X117.441 Y108.812 E0.01790
G1 X117.245 Y108.277 E0.01787
G1 X117.115 Y107.832 E0.01454
G1 X116.964 Y107.178 E0.02103
G1 X116.881 Y106.617 E0.01780
G1 X116.836 Y106.053 E0.01771
G1 X116.829 Y105.576 E0.01496
G1 X116.864 Y104.926 E0.02042
G1 X116.939 Y104.347 E0.01830
G1 X117.047 Y103.812 E0.01712
G1 X117.364 Y102.721 E0.03565
G1 X117.548 Y102.177 E0.01799
G1 X117.788 Y101.609 E0.01932
G1 X118.082 Y101.044 E0.02000
G1 X118.430 Y100.489 E0.02052
G1 X118.828 Y99.960 E0.02075
G1 X119.273 Y99.461 E0.02098
G1 X119.826 Y98.939 E0.02385
G1 X120.274 Y98.584 E0.01792
G1 X121.027 Y98.079 E0.02843
G1 X121.056 Y97.646 F10800.000
G1 F8640
G1 X121.651 Y97.689 E-0.16986
G1 X122.343 Y97.340 E-0.17900
G1 X123.131 Y97.039 E-0.19473
G1 X123.977 Y96.811 E-0.20219
G1 X124.037 Y96.800 E-0.01422
G1 E-0.04000 F2100.00000
G1 Z0.800 F10800.000
G1 X116.679 Y90.587
G1 Z0.200
G1 E0.80000 F2100.00000
G1 F1200
G1 X133.321 Y90.587 E0.52182
G1 X141.643 Y105.000 E0.52182
G1 X133.321 Y119.413 E0.52182
G1 X116.679 Y119.413 E0.52182
G1 X108.357 Y105.000 E0.52182
G1 X116.649 Y90.639 E0.51994
G1 X116.461 Y90.210 F10800.000
G1 F1200
G1 X133.539 Y90.210 E0.53547
G1 X142.078 Y105.000 E0.53547
G1 X133.539 Y119.790 E0.53547
G1 X116.461 Y119.790 E0.53547
G1 X107.922 Y105.000 E0.53547
G1 X116.431 Y90.262 E0.53359
G1 X116.807 Y90.410 F10800.000
G1 F8640
G1 X119.722 Y90.252 E-0.76000
G1 E-0.04000 F2100.00000
G1 Z0.800 F10800.000
G1 X131.226 Y98.051
G1 Z0.200
G1 E0.80000 F2100.00000
G1 F1200
G1 X124.045 Y90.870 E0.32110
G1 X123.507 Y90.870 E0.01700
G1 X129.407 Y96.770 E0.26384
G1 X128.990 Y96.593 E0.01434
G1 X128.532 Y96.432 E0.01535
G1 X122.969 Y90.870 E0.24873
G1 X122.431 Y90.870 E0.01700
G1 X127.789 Y96.228 E0.23957
G1 X127.114 Y96.091 E0.02177
G1 X121.894 Y90.870 E0.23344
G1 X121.356 Y90.870 E0.01700
G1 X126.499 Y96.013 E0.22998
G1 X125.934 Y95.986 E0.01790
G1 X120.818 Y90.870 E0.22874
G1 X120.280 Y90.870 E0.01700
G1 X125.392 Y95.981 E0.22856
G1 X124.886 Y96.013 E0.01604
G1 X119.743 Y90.870 E0.22996
G1 X119.205 Y90.870 E0.01700
G1 X124.402 Y96.067 E0.23237
G1 X123.944 Y96.147 E0.01469
G1 X118.667 Y90.870 E0.23595
G1 X118.129 Y90.870 E0.01700
G1 X123.512 Y96.253 E0.24070
G1 X123.089 Y96.367 E0.01387
G1 X117.592 Y90.870 E0.24581
G1 X117.054 Y90.870 E0.01700
G1 X122.687 Y96.503 E0.25187
G1 X122.298 Y96.651 E0.01317
G1 X116.723 Y91.076 E0.24928
G1 X116.526 Y91.417 E0.01245
G1 X121.922 Y96.813 E0.24129
G1 X121.564 Y96.994 E0.01266
G1 X116.329 Y91.758 E0.23410
G1 X116.132 Y92.099 E0.01245
G1 X121.215 Y97.182 E0.22727
G1 X120.881 Y97.386 E0.01237
G1 X115.935 Y92.440 E0.22114
G1 X115.739 Y92.781 E0.01245
G1 X120.557 Y97.600 E0.21547
G1 X120.235 Y97.815 E0.01226
G1 X115.542 Y93.122 E0.20986
G1 X115.345 Y93.463 E0.01245
G1 X119.913 Y98.031 E0.20426
G1 X119.611 Y98.267 E0.01211
G1 X115.148 Y93.804 E0.19957
G1 X114.951 Y94.145 E0.01245
G1 X119.318 Y98.511 E0.19525
G1 X119.041 Y98.772 E0.01203
G1 X114.754 Y94.486 E0.19168
G1 X114.558 Y94.827 E0.01245
G1 X118.767 Y99.036 E0.18824
G1 X118.514 Y99.321 E0.01204
G1 X114.361 Y95.167 E0.18571
G1 X114.164 Y95.508 E0.01245
G1 X118.266 Y99.610 E0.18340
G1 X118.035 Y99.917 E0.01214
G1 X113.967 Y95.849 E0.18189
G1 X113.770 Y96.190 E0.01245
G1 X117.813 Y100.232 E0.18075
G1 X117.605 Y100.563 E0.01233
G1 X113.573 Y96.531 E0.18027
G1 X113.377 Y96.872 E0.01245
G1 X117.410 Y100.905 E0.18035
G1 X117.226 Y101.259 E0.01261
G1 X113.180 Y97.213 E0.18093
G1 X112.983 Y97.554 E0.01245
G1 X117.061 Y101.632 E0.18237
G1 X116.906 Y102.015 E0.01305
G1 X112.786 Y97.895 E0.18421
G1 X112.589 Y98.236 E0.01245
G1 X116.770 Y102.417 E0.18695
G1 X116.645 Y102.830 E0.01364
G1 X112.392 Y98.577 E0.19016
G1 X112.196 Y98.918 E0.01245
G1 X116.524 Y103.246 E0.19355
G1 X116.404 Y103.664 E0.01373
G1 X111.999 Y99.258 E0.19697
G1 X111.802 Y99.599 E0.01245
G1 X116.314 Y104.111 E0.20173
G1 X116.243 Y104.579 E0.01495
G1 X111.605 Y99.940 E0.20740
G1 X111.408 Y100.281 E0.01245
G1 X116.195 Y105.068 E0.21405
G1 X116.169 Y105.580 E0.01620
G1 X111.211 Y100.622 E0.22168
G1 X111.015 Y100.963 E0.01245
G1 X116.180 Y106.129 E0.23097
G1 X116.228 Y106.714 E0.01858
G1 X110.818 Y101.304 E0.24191
G1 X110.621 Y101.645 E0.01245
G1 X116.327 Y107.351 E0.25513
G1 X116.492 Y108.054 E0.02283
G1 X110.424 Y101.986 E0.27132
G1 X110.227 Y102.327 E0.01245
G1 X116.754 Y108.853 E0.29182
G1 X116.830 Y109.060 E0.00698
G1 X117.186 Y109.824 E0.02664
G1 X110.030 Y102.668 E0.31997
G1 X109.834 Y103.009 E0.01245
G1 X125.955 Y119.130 E0.72086
G1 X126.493 Y119.130 E0.01700
G1 X121.158 Y113.795 E0.23855
G1 X121.291 Y113.870 E0.00483
G1 X122.149 Y114.248 E0.02963
G1 X127.031 Y119.130 E0.21830
G1 X127.568 Y119.130 E0.01700
G1 X122.962 Y114.524 E0.20597
G1 X123.665 Y114.688 E0.02281
G1 X128.106 Y119.130 E0.19861
G1 X128.644 Y119.130 E0.01700
G1 X124.323 Y114.809 E0.19321
G1 X124.929 Y114.877 E0.01928
G1 X129.182 Y119.130 E0.19016
G1 X129.719 Y119.130 E0.01700
G1 X125.494 Y114.905 E0.18894
G1 X126.027 Y114.900 E0.01685
G1 X130.257 Y119.130 E0.18916
G1 X130.795 Y119.130 E0.01700
G1 X126.534 Y114.869 E0.19054
G1 X127.005 Y114.802 E0.01505
G1 X131.333 Y119.130 E0.19351
G1 X131.870 Y119.130 E0.01700
G1 X127.447 Y114.707 E0.19778
G1 X127.873 Y114.595 E0.01392
G1 X132.408 Y119.130 E0.20280
G1 X132.946 Y119.130 E0.01700
G1 X128.275 Y114.459 E0.20886
G1 X128.667 Y114.314 E0.01323
G1 X133.277 Y118.924 E0.20613
G1 X133.474 Y118.583 E0.01245
G1 X129.046 Y114.155 E0.19800
G1 X129.415 Y113.986 E0.01283
G1 X133.671 Y118.242 E0.19030
G1 X133.868 Y117.901 E0.01245
G1 X129.768 Y113.801 E0.18331
G1 X130.112 Y113.608 E0.01248
G1 X134.065 Y117.560 E0.17673
G1 X134.261 Y117.219 E0.01245
G1 X130.439 Y113.397 E0.17090
G1 X130.766 Y113.186 E0.01230
G1 X134.458 Y116.878 E0.16508
G1 X134.655 Y116.537 E0.01245
G1 X131.074 Y112.956 E0.16012
M73 Q2 S40
G1 X131.376 Y112.721 E0.01211
G1 X134.852 Y116.196 E0.15540
M73 P2 R39
G1 X135.049 Y115.855 E0.01245
G1 X131.662 Y112.469 E0.15143
G1 X131.946 Y112.214 E0.01204
G1 X135.246 Y115.514 E0.14756
G1 X135.442 Y115.174 E0.01245
G1 X132.210 Y111.941 E0.14454
G1 X132.474 Y111.667 E0.01202
G1 X135.639 Y114.833 E0.14154
G1 X135.836 Y114.492 E0.01245
G1 X132.715 Y111.370 E0.13957
G1 X132.955 Y111.073 E0.01209
G1 X136.033 Y114.151 E0.13761
G1 X136.230 Y113.810 E0.01245
G1 X133.184 Y110.765 E0.13617
G1 X133.401 Y110.443 E0.01225
G1 X136.427 Y113.469 E0.13530
G1 X136.623 Y113.128 E0.01245
G1 X133.608 Y110.112 E0.13484
G1 X133.801 Y109.768 E0.01249
G1 X136.820 Y112.787 E0.13499
G1 X137.017 Y112.446 E0.01245
G1 X133.986 Y109.415 E0.13554
G1 X134.156 Y109.047 E0.01281
G1 X137.214 Y112.105 E0.13674
G1 X137.411 Y111.764 E0.01245
G1 X134.315 Y108.669 E0.13842
G1 X134.460 Y108.276 E0.01324
G1 X137.608 Y111.423 E0.14074
G1 X137.804 Y111.082 E0.01245
G1 X134.590 Y107.869 E0.14371
G1 X134.709 Y107.449 E0.01378
G1 X138.001 Y110.742 E0.14722
G1 X138.198 Y110.401 E0.01245
G1 X134.799 Y107.002 E0.15197
G1 X134.881 Y106.545 E0.01466
G1 X138.395 Y110.060 E0.15714
G1 X138.592 Y109.719 E0.01245
G1 X134.954 Y106.081 E0.16265
G1 X134.992 Y105.582 E0.01584
G1 X138.788 Y109.378 E0.16974
G1 X138.985 Y109.037 E0.01245
G1 X135.013 Y105.065 E0.17761
G1 X135.001 Y104.515 E0.01739
G1 X139.182 Y108.696 E0.18695
G1 X139.379 Y108.355 E0.01245
G1 X134.936 Y103.913 E0.19864
G1 X134.913 Y103.725 E0.00598
G1 X134.796 Y103.235 E0.01594
G1 X139.576 Y108.014 E0.21371
G1 X139.773 Y107.673 E0.01245
G1 X134.572 Y102.473 E0.23253
G1 X134.228 Y101.591 E0.02992
G1 X140.094 Y107.457 E0.26226
G1 F8640
G1 X137.766 Y105.129 E-0.76000
G1 E-0.04000 F2100.00000
G1 Z0.800 F10800.000
G1 X141.472 Y105.070
G1 Z0.200
G1 E0.80000 F2100.00000
G1 F1200
G1 X127.271 Y90.870 E0.63495
G1 X126.733 Y90.870 E0.01700
G1 X141.150 Y105.287 E0.64464
G1 X140.954 Y105.628 E0.01245
G1 X126.196 Y90.870 E0.65989
G1 X125.658 Y90.870 E0.01700
G1 X140.757 Y105.969 E0.67513
G1 X140.560 Y106.310 E0.01245
G1 X125.120 Y90.870 E0.69037
G1 X124.582 Y90.870 E0.01700
G1 X140.363 Y106.651 E0.70562
G1 X140.166 Y106.991 E0.01245
G1 X132.923 Y99.748 E0.32389
G1 F8640
G1 X135.250 Y102.075 E-0.76000
