;FLAVOR:Marlin
;TIME:8340
;Filament used: 6.58758m
;Layer height: 0.2
;MINX:14.305
;MINY:21.822
;MINZ:0.3
;MAXX:73.107
;MAXY:69.163
;MAXZ:64.9
;Generated with Cura_SteamEngine 4.1.0
M104 S210
M105
M109 S210
M82 ;absolute extrusion mode
;Start GCode
G21 ;metric values
G90 ;absolute positioning
M82 ;set extruder to absolute mode
M107 ;start with the fan off
G28 X0 Y0 ;move X/Y to min endstops
G28 Z0 ;move Z to min endstops
G1 Z15.0 ;move the platform down 15mm
G92 E0 ;zero the extruded length
G1 F200 E3 ;extrude 3mm of feed stock
G92 E0 ;zero the extruded length again
;Put printing message on LCD screen
M117 Printing...
G92 E0
G92 E0
G1 F2400 E-2
;LAYER_COUNT:324
;LAYER:0
M107
G0 F900 X20.182 Y38.496 Z0.3
;TYPE:SKIRT
G1 F2400 E0
G1 F900 X20.323 Y38.431 E0.00852
G1 X21.12 Y38.1 E0.05588
G1 X21.269 Y38.045 E0.0646
G1 X22.101 Y37.783 E0.11247
G1 X22.249 Y37.743 E0.12088
G1 X23.102 Y37.552 E0.16885
G1 X23.26 Y37.524 E0.17766
G1 X24.125 Y37.41 E0.22554
G1 X24.28 Y37.397 E0.23408
G1 X25.152 Y37.358 E0.28198
G1 X25.232 Y37.356 E0.28637
G1 X40.933 Y37.355 E1.14803
G1 X41.36 Y37.333 E1.17149
G1 X41.61 Y37.283 E1.18548
G1 X41.844 Y37.204 E1.19904
G1 X42.075 Y37.089 E1.2132
G1 X42.287 Y36.947 E1.2272
G1 X42.58 Y36.685 E1.24877
G1 X53.954 Y25.311 E2.13152
G1 X54.008 Y25.259 E2.13563
G1 X54.685 Y24.636 E2.18612
G1 X54.808 Y24.533 E2.19493
G1 X55.504 Y23.999 E2.24307
G1 X55.633 Y23.909 E2.2517
G1 X56.371 Y23.439 E2.29972
G1 X56.51 Y23.359 E2.30852
G1 X57.29 Y22.955 E2.35673
G1 X57.43 Y22.89 E2.3652
G1 X58.23 Y22.559 E2.41271
G1 X58.38 Y22.504 E2.42148
G1 X59.216 Y22.242 E2.46956
G1 X59.366 Y22.202 E2.47808
G1 X60.223 Y22.013 E2.52624
G1 X60.379 Y21.986 E2.53493
G1 X61.248 Y21.873 E2.58302
G1 X61.406 Y21.86 E2.59172
G1 X62.281 Y21.824 E2.63978
G1 X62.359 Y21.822 E2.64406
G1 X65.243 Y21.828 E2.80234
G1 X65.62 Y21.869 E2.82315
G1 X65.979 Y21.987 E2.84389
G1 X66.306 Y22.179 E2.8647
G1 X66.586 Y22.434 E2.88548
G1 X66.806 Y22.743 E2.9063
G1 X66.957 Y23.091 E2.92711
G1 X67.031 Y23.462 E2.94788
G1 X67.026 Y23.841 E2.96868
G1 X66.942 Y24.21 E2.98944
G1 X66.782 Y24.554 E3.01027
G1 X66.512 Y24.9 E3.03435
G1 X49.838 Y41.588 E4.32898
G1 X52.085 Y43.835 E4.50337
G1 X52.323 Y44.13 E4.52417
G1 X52.494 Y44.468 E4.54496
G1 X52.591 Y44.834 E4.56574
G1 X52.609 Y45.213 E4.58656
G1 X52.547 Y45.587 E4.60737
G1 X52.409 Y45.939 E4.62812
G1 X52.199 Y46.255 E4.64894
G1 X52.069 Y46.396 E4.65946
G1 X51.37 Y47.078 E4.71306
G1 X51.241 Y47.193 E4.72254
G1 X50.474 Y47.81 E4.77656
G1 X50.375 Y47.884 E4.78335
G1 X49.57 Y48.445 E4.83719
G1 X49.46 Y48.516 E4.84438
G1 X48.614 Y49.018 E4.89836
G1 X48.5 Y49.08 E4.90549
G1 X47.62 Y49.52 E4.95948
G1 X47.504 Y49.573 E4.96648
G1 X46.597 Y49.949 E5.02036
G1 X46.477 Y49.994 E5.0274
G1 X45.552 Y50.302 E5.0809
G1 X45.432 Y50.337 E5.08776
G1 X44.48 Y50.582 E5.14171
G1 X44.349 Y50.611 E5.14907
G1 X43.38 Y50.785 E5.2031
G1 X43.254 Y50.803 E5.21008
G1 X42.276 Y50.908 E5.26406
G1 X42.15 Y50.917 E5.271
G1 X41.17 Y50.953 E5.32481
G1 X40.792 Y50.927 E5.34561
G1 X40.428 Y50.822 E5.3664
G1 X40.094 Y50.644 E5.38717
G1 X39.804 Y50.399 E5.408
G1 X39.572 Y50.099 E5.42881
G1 X39.408 Y49.758 E5.44958
G1 X39.319 Y49.389 E5.47041
G1 X39.304 Y49.157 E5.48317
G1 X39.3 Y45.975 E5.6578
G1 X16.095 Y45.955 E6.93127
G1 X15.719 Y45.915 E6.95202
G1 X15.359 Y45.797 E6.97281
G1 X15.031 Y45.606 E6.99364
G1 X14.751 Y45.35 E7.01446
G1 X14.531 Y45.042 E7.03523
G1 X14.38 Y44.695 E7.056
G1 X14.305 Y44.323 E7.07683
G1 X14.309 Y43.944 E7.09763
G1 X14.393 Y43.575 E7.11839
G1 X14.552 Y43.231 E7.13919
G1 X14.824 Y42.882 E7.16348
G1 X16.885 Y40.821 E7.32343
G1 X16.942 Y40.767 E7.32774
G1 X17.592 Y40.171 E7.37614
G1 X17.712 Y40.07 E7.38474
G1 X18.405 Y39.538 E7.43269
G1 X18.534 Y39.448 E7.44132
G1 X19.27 Y38.979 E7.48922
G1 X19.406 Y38.9 E7.49785
G1 X20.182 Y38.496 E7.54586
G0 X20.367 Y38.851
G1 X20.476 Y38.8 E7.55246
G1 X21.273 Y38.469 E7.59983
G1 X21.389 Y38.427 E7.6066
G1 X22.221 Y38.165 E7.65447
G1 X22.336 Y38.134 E7.661
G1 X23.189 Y37.943 E7.70897
G1 X23.312 Y37.921 E7.71583
G1 X24.177 Y37.807 E7.76371
G1 X24.297 Y37.796 E7.77032
G1 X25.169 Y37.757 E7.81823
G1 X25.232 Y37.756 E7.82169
G1 X40.953 Y37.755 E8.68444
G1 X41.413 Y37.731 E8.70972
G1 X41.707 Y37.672 E8.72618
G1 X41.999 Y37.573 E8.7431
G1 X42.27 Y37.439 E8.75969
G1 X42.533 Y37.263 E8.77706
G1 X42.865 Y36.966 E8.8015
G1 X54.237 Y25.594 E9.68409
G1 X54.279 Y25.554 E9.68728
G1 X54.956 Y24.931 E9.73777
G1 X55.052 Y24.85 E9.74466
G1 X55.748 Y24.316 E9.7928
G1 X55.848 Y24.246 E9.7995
G1 X56.586 Y23.776 E9.84752
G1 X56.694 Y23.714 E9.85435
G1 X57.474 Y23.31 E9.90256
G1 X57.583 Y23.259 E9.90916
G1 X58.383 Y22.928 E9.95668
G1 X58.499 Y22.886 E9.96345
G1 X59.335 Y22.624 E10.01153
G1 X59.452 Y22.593 E10.01817
G1 X60.309 Y22.404 E10.06633
G1 X60.43 Y22.383 E10.07307
G1 X61.299 Y22.27 E10.12116
G1 X61.422 Y22.259 E10.12794
G1 X62.297 Y22.223 E10.176
G1 X62.358 Y22.222 E10.17935
G1 X65.242 Y22.228 E10.33762
G1 X65.574 Y22.269 E10.35598
G1 X65.886 Y22.387 E10.37428
G1 X66.162 Y22.575 E10.39261
G1 X66.385 Y22.824 E10.41095
G1 X66.543 Y23.118 E10.42927
G1 X66.627 Y23.442 E10.44764
G1 X66.631 Y23.776 E10.46597
G1 X66.557 Y24.101 E10.48426
G1 X66.407 Y24.4 E10.50262
G1 X66.229 Y24.618 E10.51807
G1 X49.273 Y41.589 E11.83462
G1 X51.802 Y44.118 E12.0309
G1 X52.008 Y44.381 E12.04923
G1 X52.147 Y44.685 E12.06758
G1 X52.209 Y45.013 E12.08589
G1 X52.191 Y45.347 E12.10425
G1 X52.096 Y45.667 E12.12257
G1 X51.927 Y45.955 E12.1409
G1 X51.79 Y46.11 E12.15225
G1 X51.091 Y46.792 E12.20584
G1 X50.991 Y46.881 E12.21319
G1 X50.224 Y47.498 E12.26721
G1 X50.146 Y47.556 E12.27254
G1 X49.341 Y48.117 E12.32639
G1 X49.255 Y48.172 E12.33199
G1 X48.409 Y48.674 E12.38598
G1 X48.321 Y48.722 E12.39148
G1 X47.441 Y49.162 E12.44548
G1 X47.351 Y49.203 E12.4509
G1 X46.444 Y49.579 E12.50479
G1 X46.35 Y49.614 E12.51029
G1 X45.425 Y49.922 E12.56379
G1 X45.332 Y49.95 E12.56912
G1 X44.38 Y50.195 E12.62307
G1 X44.278 Y50.217 E12.6288
G1 X43.309 Y50.391 E12.68283
G1 X43.211 Y50.405 E12.68826
G1 X42.233 Y50.51 E12.74224
G1 X42.135 Y50.517 E12.74763
G1 X41.155 Y50.553 E12.80145
G1 X40.822 Y50.525 E12.81979
G1 X40.506 Y50.42 E12.83806
G1 X40.223 Y50.242 E12.85641
G1 X39.99 Y50.002 E12.87477
G1 X39.821 Y49.714 E12.89309
G1 X39.725 Y49.394 E12.91143
G1 X39.704 Y49.156 E12.92454
G1 X39.699 Y45.576 E13.12101
G1 X16.096 Y45.555 E14.41632
G1 X15.764 Y45.515 E14.43467
G1 X15.451 Y45.397 E14.45303
G1 X15.175 Y45.209 E14.47136
G1 X14.952 Y44.961 E14.48966
G1 X14.794 Y44.666 E14.50803
G1 X14.71 Y44.343 E14.52634
G1 X14.705 Y44.009 E14.54467
G1 X14.779 Y43.683 E14.56302
G1 X14.928 Y43.385 E14.5813
G1 X15.107 Y43.165 E14.59687
G1 X17.168 Y41.104 E14.75682
G1 X17.212 Y41.062 E14.76016
G1 X17.862 Y40.466 E14.80856
G1 X17.955 Y40.387 E14.81526
G1 X18.648 Y39.855 E14.8632
G1 X18.749 Y39.785 E14.86995
G1 X19.485 Y39.316 E14.91784
G1 X19.591 Y39.255 E14.92455
G1 X20.367 Y38.851 E14.97256
G0 X20.551 Y39.206
G1 X20.629 Y39.169 E14.9773
G1 X21.426 Y38.838 E15.02466
G1 X21.51 Y38.808 E15.02956
G1 X22.342 Y38.546 E15.07743
G1 X22.423 Y38.524 E15.08203
G1 X23.276 Y38.333 E15.13
G1 X23.364 Y38.318 E15.1349
G1 X24.229 Y38.204 E15.18278
G1 X24.315 Y38.196 E15.18752
G1 X25.187 Y38.157 E15.23543
G1 X25.232 Y38.156 E15.2379
G1 X40.955 Y38.155 E16.10076
G1 X41.465 Y38.129 E16.12879
G1 X41.812 Y38.059 E16.14821
G1 X42.151 Y37.944 E16.16786
G1 X42.478 Y37.782 E16.18789
G1 X42.775 Y37.583 E16.20751
G1 X43.141 Y37.256 E16.23444
G1 X54.52 Y25.877 E17.11758
G1 X54.55 Y25.848 E17.11987
G1 X55.227 Y25.225 E17.17036
G1 X55.295 Y25.168 E17.17523
G1 X55.991 Y24.634 E17.22337
G1 X56.063 Y24.584 E17.22818
G1 X56.801 Y24.114 E17.2762
G1 X56.878 Y24.069 E17.28109
G1 X57.658 Y23.665 E17.3293
G1 X57.736 Y23.629 E17.33401
G1 X58.536 Y23.298 E17.38153
G1 X58.619 Y23.268 E17.38637
G1 X59.455 Y23.006 E17.43445
G1 X59.539 Y22.983 E17.43923
G1 X60.396 Y22.794 E17.48739
G1 X60.482 Y22.779 E17.49218
G1 X61.351 Y22.666 E17.54027
G1 X61.439 Y22.659 E17.54512
G1 X62.314 Y22.623 E17.59318
G1 X62.357 Y22.622 E17.59554
G1 X65.241 Y22.628 E17.75381
G1 X65.52 Y22.668 E17.76928
G1 X65.777 Y22.785 E17.78477
G1 X65.991 Y22.969 E17.80026
G1 X66.145 Y23.205 E17.81573
G1 X66.227 Y23.475 E17.83121
G1 X66.231 Y23.757 E17.84669
G1 X66.155 Y24.029 E17.86219
G1 X65.946 Y24.335 E17.88253
G1 X48.707 Y41.589 E19.22104
G1 X51.519 Y44.401 E19.43928
G1 X51.688 Y44.627 E19.45477
G1 X51.788 Y44.891 E19.47026
G1 X51.81 Y45.172 E19.48573
G1 X51.752 Y45.448 E19.50121
G1 X51.62 Y45.697 E19.51668
G1 X51.51 Y45.824 E19.5259
G1 X50.811 Y46.506 E19.57949
G1 X50.74 Y46.569 E19.5847
G1 X49.973 Y47.186 E19.63872
G1 X49.918 Y47.227 E19.64249
G1 X49.113 Y47.788 E19.69633
G1 X49.051 Y47.828 E19.70038
G1 X48.205 Y48.33 E19.75437
G1 X48.142 Y48.364 E19.7583
G1 X47.262 Y48.804 E19.81229
G1 X47.198 Y48.834 E19.81617
G1 X46.291 Y49.21 E19.87005
G1 X46.224 Y49.235 E19.87398
G1 X45.299 Y49.543 E19.92748
G1 X45.232 Y49.562 E19.9313
G1 X44.28 Y49.807 E19.98525
G1 X44.208 Y49.823 E19.9893
G1 X43.239 Y49.997 E20.04333
G1 X43.169 Y50.007 E20.04721
G1 X42.191 Y50.112 E20.10119
G1 X42.121 Y50.117 E20.10504
G1 X41.141 Y50.153 E20.15886
G1 X40.86 Y50.124 E20.17436
G1 X40.599 Y50.017 E20.18984
G1 X40.378 Y49.842 E20.20531
G1 X40.215 Y49.612 E20.22078
G1 X40.122 Y49.345 E20.2363
G1 X40.104 Y49.155 E20.24677
G1 X40.098 Y45.176 E20.46514
G1 X16.096 Y45.155 E21.78235
G1 X15.817 Y45.115 E21.79782
G1 X15.56 Y44.998 E21.81331
G1 X15.346 Y44.815 E21.82876
G1 X15.191 Y44.579 E21.84426
G1 X15.109 Y44.309 E21.85975
G1 X15.105 Y44.027 E21.87522
G1 X15.181 Y43.755 E21.89072
G1 X15.39 Y43.448 E21.9111
G1 X17.451 Y41.387 E22.07106
G1 X17.482 Y41.357 E22.07343
G1 X18.132 Y40.761 E22.12182
G1 X18.199 Y40.705 E22.12662
G1 X18.892 Y40.173 E22.17456
G1 X18.964 Y40.123 E22.17937
G1 X19.7 Y39.654 E22.22727
G1 X19.775 Y39.61 E22.23204
G1 X20.551 Y39.206 E22.28005
G0 X20.736 Y39.561
G1 X20.783 Y39.539 E22.2829
G1 X21.58 Y39.208 E22.33026
G1 X21.63 Y39.19 E22.33318
G1 X22.462 Y38.928 E22.38105
G1 X22.511 Y38.914 E22.38384
G1 X23.364 Y38.723 E22.43181
G1 X23.417 Y38.714 E22.43476
G1 X24.282 Y38.6 E22.48265
G1 X24.333 Y38.596 E22.48545
G1 X25.205 Y38.557 E22.53336
G1 X25.232 Y38.556 E22.53484
G1 X40.976 Y38.555 E23.39886
G1 X41.51 Y38.527 E23.4282
G1 X41.917 Y38.445 E23.45099
G1 X42.303 Y38.315 E23.47334
G1 X42.676 Y38.131 E23.49616
G1 X43.025 Y37.897 E23.51922
G1 X43.417 Y37.546 E23.5481
G1 X54.821 Y26.142 E24.43318
G1 X55.498 Y25.519 E24.48367
G1 X55.539 Y25.485 E24.48659
G1 X56.235 Y24.951 E24.53473
G1 X56.278 Y24.921 E24.53761
G1 X57.016 Y24.451 E24.58563
G1 X57.062 Y24.424 E24.58855
G1 X57.842 Y24.02 E24.63676
G1 X57.889 Y23.999 E24.63959
G1 X58.689 Y23.668 E24.6871
G1 X58.739 Y23.649 E24.69003
G1 X59.575 Y23.387 E24.73811
G1 X59.625 Y23.374 E24.74095
G1 X60.482 Y23.185 E24.78911
G1 X60.534 Y23.176 E24.79201
G1 X61.403 Y23.063 E24.8401
G1 X61.455 Y23.059 E24.84296
G1 X62.33 Y23.023 E24.89102
G1 X62.356 Y23.022 E24.89245
G1 X65.24 Y23.028 E25.05072
G1 X65.455 Y23.068 E25.06272
G1 X65.641 Y23.182 E25.07469
G1 X65.773 Y23.355 E25.08664
G1 X65.836 Y23.564 E25.09861
G1 X65.819 Y23.782 E25.11061
G1 X65.663 Y24.052 E25.12773
G1 X48.141 Y41.589 E26.48821
G1 X51.236 Y44.684 E26.72841
G1 X51.36 Y44.863 E26.74036
G1 X51.411 Y45.076 E26.75238
G1 X51.383 Y45.292 E26.76434
G1 X51.231 Y45.537 E26.78016
G1 X50.532 Y46.219 E26.83375
G1 X50.489 Y46.258 E26.83694
G1 X49.722 Y46.875 E26.89096
G1 X49.689 Y46.899 E26.8932
G1 X48.884 Y47.46 E26.94705
G1 X48.847 Y47.484 E26.94947
G1 X48.001 Y47.986 E27.00345
G1 X47.963 Y48.007 E27.00584
G1 X47.083 Y48.447 E27.05983
G1 X47.045 Y48.464 E27.06212
G1 X46.138 Y48.84 E27.116
G1 X46.098 Y48.855 E27.11834
G1 X45.173 Y49.163 E27.17185
G1 X45.133 Y49.175 E27.17414
G1 X44.181 Y49.42 E27.22809
G1 X44.137 Y49.43 E27.23056
G1 X43.168 Y49.604 E27.28459
G1 X43.126 Y49.61 E27.28692
G1 X42.148 Y49.715 E27.3409
G1 X42.106 Y49.718 E27.34321
G1 X41.126 Y49.754 E27.39703
G1 X40.91 Y49.722 E27.40901
G1 X40.72 Y49.615 E27.42098
G1 X40.581 Y49.447 E27.43294
G1 X40.504 Y49.155 E27.44952
G1 X40.498 Y44.776 E27.68983
G1 X16.096 Y44.755 E29.029
G1 X15.882 Y44.715 E29.04094
G1 X15.696 Y44.601 E29.05292
G1 X15.563 Y44.428 E29.06489
G1 X15.5 Y44.219 E29.07687
G1 X15.517 Y44.002 E29.08882
G1 X15.673 Y43.731 E29.10598
G1 X17.734 Y41.67 E29.26593
G1 X17.753 Y41.652 E29.26737
G1 X18.403 Y41.056 E29.31577
G1 X18.443 Y41.022 E29.31865
G1 X19.136 Y40.49 E29.36659
G1 X19.179 Y40.46 E29.36947
G1 X19.915 Y39.991 E29.41737
G1 X19.96 Y39.965 E29.42022
G1 X20.736 Y39.561 E29.46823
G0 X20.936 Y39.908
G1 X21.733 Y39.577 E29.51559
G1 X21.75 Y39.571 E29.51658
G1 X22.582 Y39.309 E29.56445
G1 X22.598 Y39.305 E29.56535
G1 X23.451 Y39.114 E29.61333
G1 X23.469 Y39.111 E29.61433
G1 X24.334 Y38.997 E29.66221
G1 X24.351 Y38.995 E29.66315
G1 X25.223 Y38.956 E29.71105
G1 X25.232 Y38.956 E29.71154
G1 X40.978 Y38.955 E30.57567
G1 X41.563 Y38.925 E30.60782
G1 X42.022 Y38.832 E30.63352
G1 X42.458 Y38.685 E30.65877
G1 X42.88 Y38.476 E30.68461
G1 X43.267 Y38.217 E30.71017
G1 X43.694 Y37.835 E30.74161
G1 X55.092 Y26.437 E31.62622
G1 X55.769 Y25.814 E31.67671
G1 X55.782 Y25.802 E31.67768
G1 X56.478 Y25.268 E31.72583
G1 X56.493 Y25.258 E31.72682
G1 X57.231 Y24.788 E31.77483
G1 X57.246 Y24.779 E31.77579
G1 X58.026 Y24.375 E31.824
G1 X58.042 Y24.368 E31.82496
G1 X58.842 Y24.037 E31.87247
G1 X58.858 Y24.031 E31.87341
G1 X59.694 Y23.769 E31.92149
G1 X59.711 Y23.765 E31.92245
G1 X60.568 Y23.576 E31.97061
G1 X60.585 Y23.573 E31.97156
G1 X61.454 Y23.46 E32.01965
G1 X61.472 Y23.458 E32.02064
G1 X62.347 Y23.422 E32.0687
G1 X62.355 Y23.422 E32.06914
G1 X65.239 Y23.428 E32.22741
G1 X65.358 Y23.467 E32.23428
G1 X65.43 Y23.569 E32.24114
G1 X65.428 Y23.694 E32.248
G1 X65.38 Y23.769 E32.25288
G1 X47.575 Y41.589 E33.63533
G1 X50.953 Y44.967 E33.8975
G1 X51.01 Y45.078 E33.90435
G1 X50.952 Y45.251 E33.91436
G1 X50.253 Y45.933 E33.96795
G1 X50.238 Y45.946 E33.96904
G1 X49.471 Y46.563 E34.02306
G1 X49.46 Y46.571 E34.02381
G1 X48.655 Y47.132 E34.07766
G1 X48.643 Y47.14 E34.07845
G1 X47.797 Y47.642 E34.13244
G1 X47.784 Y47.649 E34.13325
G1 X46.892 Y48.095 E34.18798
G1 X45.985 Y48.471 E34.24186
G1 X45.971 Y48.476 E34.24268
G1 X45.046 Y48.784 E34.29618
G1 X45.033 Y48.788 E34.29693
G1 X44.081 Y49.033 E34.35087
G1 X44.066 Y49.036 E34.35171
G1 X43.097 Y49.21 E34.40574
G1 X43.083 Y49.212 E34.40652
G1 X42.105 Y49.317 E34.4605
G1 X42.091 Y49.318 E34.46127
G1 X41.111 Y49.354 E34.51509
G1 X40.991 Y49.319 E34.52195
G1 X40.915 Y49.22 E34.52879
G1 X40.904 Y49.154 E34.53247
G1 X40.897 Y44.377 E34.79463
G1 X16.097 Y44.355 E36.15563
G1 X15.978 Y44.316 E36.1625
G1 X15.906 Y44.214 E36.16935
G1 X15.908 Y44.089 E36.17622
G1 X15.956 Y44.014 E36.1811
G1 X18.023 Y41.947 E36.34152
G1 X18.673 Y41.351 E36.38992
G1 X18.686 Y41.339 E36.39089
G1 X19.379 Y40.807 E36.43884
G1 X19.394 Y40.797 E36.43983
G1 X20.13 Y40.328 E36.48772
G1 X20.145 Y40.32 E36.48865
G1 X20.921 Y39.916 E36.53667
G1 X20.936 Y39.908 E36.5376
G1 F2400 E34.5376
G1 F17987547480000 Z1.3
G0 F900 X26.858 Y56.441 Z1.3
G1 F17987547480000 Z0.3
G1 F2400 E36.5376
G1 F900 X27.785 Y56.108 E36.59166
G1 X27.954 Y56.057 E36.60134
G1 X28.905 Y55.817 E36.65517
G1 X29.078 Y55.782 E36.66486
G1 X30.051 Y55.636 E36.71885
G1 X30.228 Y55.618 E36.72861
G1 X31.209 Y55.569 E36.78252
G1 X31.299 Y55.567 E36.78746
G1 X46.986 Y55.566 E37.64835
G1 X47.466 Y55.536 E37.67474
G1 X47.767 Y55.467 E37.69169
G1 X48.032 Y55.358 E37.70741
G1 X48.31 Y55.192 E37.72518
G1 X48.595 Y54.951 E37.74567
G1 X60.02 Y43.527 E38.63233
G1 X60.08 Y43.47 E38.63687
G1 X60.832 Y42.784 E38.69274
G1 X60.969 Y42.671 E38.70248
G1 X61.762 Y42.08 E38.75676
G1 X61.912 Y41.98 E38.76665
G1 X62.757 Y41.473 E38.82073
G1 X62.913 Y41.389 E38.83045
G1 X63.804 Y40.967 E38.88456
G1 X63.969 Y40.899 E38.89435
G1 X64.9 Y40.567 E38.9486
G1 X65.068 Y40.516 E38.95823
G1 X66.023 Y40.277 E39.01226
G1 X66.198 Y40.242 E39.02205
G1 X67.175 Y40.098 E39.07625
G1 X67.353 Y40.081 E39.08606
G1 X68.337 Y40.035 E39.14012
G1 X68.425 Y40.033 E39.14495
G1 X71.319 Y40.039 E39.30377
G1 X71.695 Y40.08 E39.32453
G1 X72.055 Y40.198 E39.34532
G1 X72.382 Y40.39 E39.36613
