; generated by PrusaSlicer 2.0.0+win64 on 2019-09-03 at 11:38:25

; 

; external perimeters extrusion width = 0.45mm
; perimeters extrusion width = 0.45mm
; infill extrusion width = 0.45mm
; solid infill extrusion width = 0.45mm
; top infill extrusion width = 0.40mm
; first layer extrusion width = 0.42mm

M73 P0 R40
M73 Q0 S40
M201 X1000 Y1000 Z1000 E5000 ; sets maximum accelerations, mm/sec^2
M203 X200 Y200 Z12 E120 ; sets maximum feedrates, mm/sec
M204 P1250 R1250 T1250 ; sets acceleration (P, T) and retract acceleration (R), mm/sec^2
M205 X8.00 Y8.00 Z0.40 E1.50 ; sets the jerk limits, mm/sec
M205 S0 T0 ; sets the minimum extruding and travel feed rate, mm/sec
M107
M115 U3.7.2 ; tell printer latest fw version
G90 ; use absolute coordinates
M83 ; extruder relative mode
M104 S215 ; set extruder temp
M140 S60 ; set bed temp
M190 S60 ; wait for bed temp
M109 S215 ; wait for extruder temp
G28 W ; home all without mesh bed level
G80 ; mesh bed leveling
G1 Y-3.0 F1000.0 ; go outside print area
G92 E0.0
G1 X60.0 E9.0 F1000.0 ; intro line
M73 Q0 S40
M73 P0 R40
G1 X100.0 E12.5 F1000.0 ; intro line
G92 E0.0
M221 S95
M900 K30 ; Filament gcode
G21 ; set units to millimeters
G90 ; use absolute coordinates
M83 ; use relative distances for extrusion
;BEFORE_LAYER_CHANGE
G92 E0.0
;0.2


G1 E-0.80000 F2100.00000
G1 Z0.600 F10800.000
;AFTER_LAYER_CHANGE
;0.2
G1 X108.127 Y94.586
G1 Z0.200
G1 E0.80000 F2100.00000
M204 S1000
G1 F1200
G1 X108.619 Y94.177 E0.02005
G1 X123.759 Y85.434 E0.54815
G1 X124.360 Y85.195 E0.02029
G1 X125.002 Y85.114 E0.02029
G1 X125.663 Y85.201 E0.02091
G1 X126.280 Y85.456 E0.02091
G1 X141.320 Y94.140 E0.54455
G1 X141.804 Y94.515 E0.01919
G1 X142.184 Y94.994 E0.01919
G1 X142.461 Y95.614 E0.02128
G1 X142.565 Y96.289 E0.02140
G1 X142.566 Y113.660 E0.54468
G1 X142.485 Y114.299 E0.02017
G1 X142.250 Y114.893 E0.02005
G1 X141.873 Y115.414 E0.02017
G1 X141.381 Y115.823 E0.02005
G1 X126.241 Y124.566 E0.54815
G1 X125.640 Y124.805 E0.02029
G1 X124.998 Y124.886 E0.02029
G1 X124.337 Y124.799 E0.02091
G1 X123.720 Y124.544 E0.02091
G1 X108.680 Y115.860 E0.54455
G1 X108.196 Y115.485 E0.01919
G1 X107.816 Y115.006 E0.01919
G1 X107.539 Y114.386 E0.02128
G1 X107.435 Y113.711 E0.02140
G1 X107.434 Y96.340 E0.54468
G1 X107.515 Y95.701 E0.02017
G1 X107.750 Y95.107 E0.02005
G1 X108.092 Y94.634 E0.01829
G1 X108.395 Y94.856 F10800.000
G1 F1200
G1 X108.834 Y94.488 E0.01794
G1 X123.938 Y85.766 E0.54686
G1 X124.456 Y85.560 E0.01749
G1 X125.005 Y85.491 E0.01737
G1 X125.569 Y85.566 E0.01783
G1 X126.091 Y85.782 E0.01771
G1 X141.123 Y94.461 E0.54423
G1 X141.540 Y94.785 E0.01658
G1 X141.868 Y95.200 E0.01658
G1 X142.102 Y95.730 E0.01817
G1 X142.188 Y96.303 E0.01817
G1 X142.189 Y113.660 E0.54423
G1 X142.119 Y114.206 E0.01726
G1 X141.916 Y114.718 E0.01726
G1 X141.592 Y115.162 E0.01726
G1 X141.166 Y115.512 E0.01726
G1 X126.066 Y124.232 E0.54675
G1 X125.551 Y124.438 E0.01737
G1 X124.998 Y124.509 E0.01749
G1 X124.435 Y124.435 E0.01783
G1 X123.909 Y124.218 E0.01783
G1 X108.877 Y115.539 E0.54423
G1 X108.460 Y115.215 E0.01658
G1 X108.132 Y114.800 E0.01658
G1 X107.898 Y114.270 E0.01817
G1 X107.812 Y113.697 E0.01817
G1 X107.811 Y96.340 E0.54423
G1 X107.881 Y95.794 E0.01726
G1 X108.084 Y95.282 E0.01726
G1 X108.360 Y94.904 E0.01468
G1 F8640
G1 X108.834 Y94.488 E-0.14557
G1 X111.138 Y93.157 E-0.61443
G1 E-0.04000 F2100.00000
G1 Z0.800 F10800.000
G1 X115.597 Y99.536
G1 Z0.200
G1 E0.80000 F2100.00000
G1 F1200
G1 X116.239 Y99.100 E0.02433
G1 X116.816 Y98.764 E0.02093
G1 X117.590 Y98.392 E0.02693
G1 X118.019 Y98.228 E0.01440
G1 X119.064 Y97.437 E0.04108
G1 X119.734 Y96.981 E0.02541
G1 X120.366 Y96.607 E0.02304
G1 X120.999 Y96.288 E0.02220
G1 X121.480 Y96.083 E0.01639
G1 X122.016 Y95.891 E0.01784
G1 X122.764 Y95.679 E0.02439
G1 X123.628 Y95.511 E0.02762
G1 X124.439 Y95.432 E0.02554
G1 X124.987 Y95.413 E0.01719
G1 X125.747 Y95.442 E0.02384
G1 X126.409 Y95.517 E0.02088
G1 X127.069 Y95.640 E0.02105
G1 X127.869 Y95.852 E0.02594
G1 X128.507 Y96.077 E0.02123
G1 X129.131 Y96.348 E0.02132
G1 X129.837 Y96.723 E0.02508
G1 X130.414 Y97.088 E0.02140
G1 X130.965 Y97.494 E0.02146
G1 X131.523 Y97.974 E0.02308
G1 X131.975 Y98.425 E0.02001
G1 X132.490 Y99.015 E0.02456
G1 X132.925 Y99.605 E0.02300
G1 X133.293 Y100.190 E0.02164
G1 X133.619 Y100.801 E0.02172
G1 X133.926 Y101.504 E0.02404
G1 X134.146 Y102.123 E0.02061
G1 X134.338 Y102.828 E0.02290
G1 X134.476 Y103.543 E0.02285
G1 X134.557 Y104.233 E0.02177
G1 X134.608 Y105.316 E0.03401
G1 X134.580 Y106.679 E0.04274
G1 X134.745 Y107.336 E0.02123
G1 X134.820 Y107.754 E0.01331
G1 X134.911 Y108.508 E0.02381
G1 X134.941 Y109.091 E0.01831
G1 X134.938 Y109.404 E0.00982
G1 X134.884 Y109.679 E0.00880
G1 X134.691 Y110.200 E0.01740
G1 X134.431 Y110.727 E0.01843
G1 X134.138 Y111.226 E0.01813
G1 X133.814 Y111.701 E0.01803
G1 X133.474 Y112.142 E0.01747
G1 X133.135 Y112.530 E0.01615
G1 X132.683 Y112.994 E0.02032
G1 X132.109 Y113.504 E0.02407
G1 X131.431 Y114.028 E0.02686
G1 X130.700 Y114.500 E0.02730
G1 X130.046 Y114.864 E0.02346
G1 X129.208 Y115.246 E0.02888
G1 X128.555 Y115.493 E0.02189
G1 X127.529 Y115.789 E0.03348
G1 X126.994 Y115.902 E0.01714
G1 X126.461 Y115.987 E0.01693
G1 X125.924 Y116.047 E0.01693
G1 X125.384 Y116.080 E0.01695
G1 X124.844 Y116.086 E0.01696
G1 X124.302 Y116.065 E0.01700
G1 X123.764 Y116.017 E0.01692
G1 X123.223 Y115.941 E0.01713
G1 X122.176 Y115.716 E0.03356
G1 X121.150 Y115.389 E0.03379
G1 X120.159 Y114.966 E0.03376
G1 X119.300 Y114.501 E0.03063
G1 X118.812 Y114.193 E0.01811
G1 X118.352 Y113.869 E0.01764
G1 X117.914 Y113.525 E0.01745
G1 X117.497 Y113.162 E0.01734
G1 X117.100 Y112.780 E0.01728
G1 X116.732 Y112.386 E0.01689
G1 X116.067 Y111.563 E0.03317
G1 X115.480 Y110.672 E0.03347
G1 X114.980 Y109.726 E0.03354
G1 X114.567 Y108.727 E0.03389
G1 X114.251 Y107.693 E0.03392
G1 X114.129 Y107.155 E0.01728
G1 X114.035 Y106.620 E0.01705
G1 X113.967 Y106.080 E0.01704
G1 X113.926 Y105.533 E0.01723
G1 X113.921 Y104.565 E0.03035
G1 X113.977 Y103.824 E0.02330
G1 X114.089 Y103.055 E0.02437
G1 X114.291 Y102.174 E0.02833
G1 X114.528 Y101.442 E0.02413
G1 X114.810 Y100.766 E0.02294
G1 X115.157 Y100.118 E0.02307
G1 X115.409 Y99.740 E0.01423
G1 X115.556 Y99.580 E0.00683
G1 X115.834 Y99.835 F10800.000
G1 F1200
G1 X116.440 Y99.419 E0.02306
G1 X116.993 Y99.098 E0.02005
G1 X117.740 Y98.739 E0.02598
G1 X118.189 Y98.567 E0.01508
G1 X118.330 Y98.478 E0.00522
G1 X119.285 Y97.742 E0.03780
G1 X119.936 Y97.300 E0.02469
G1 X120.548 Y96.938 E0.02227
G1 X121.158 Y96.630 E0.02143
G1 X121.617 Y96.434 E0.01566
G1 X122.131 Y96.251 E0.01709
G1 X122.851 Y96.046 E0.02350
G1 X123.683 Y95.885 E0.02655
G1 X124.464 Y95.808 E0.02462
G1 X124.986 Y95.790 E0.01639
G1 X125.718 Y95.818 E0.02297
G1 X126.353 Y95.890 E0.02002
G1 X126.986 Y96.008 E0.02019
G1 X127.757 Y96.213 E0.02503
G1 X128.369 Y96.428 E0.02034
G1 X128.967 Y96.688 E0.02044
G1 X129.648 Y97.050 E0.02418
G1 X130.201 Y97.399 E0.02053
G1 X130.730 Y97.789 E0.02059
G1 X131.267 Y98.251 E0.02220
G1 X131.700 Y98.682 E0.01916
G1 X132.196 Y99.251 E0.02366
G1 X132.614 Y99.818 E0.02208
G1 X132.967 Y100.379 E0.02078
G1 X133.279 Y100.965 E0.02083
G1 X133.575 Y101.642 E0.02316
G1 X133.785 Y102.236 E0.01975
G1 X133.971 Y102.913 E0.02201
G1 X134.103 Y103.601 E0.02196
G1 X134.181 Y104.264 E0.02092
G1 X134.231 Y105.320 E0.03315
G1 X134.195 Y106.568 E0.03915
G1 X134.206 Y106.738 E0.00534
G1 X134.376 Y107.415 E0.02190
G1 X134.447 Y107.810 E0.01257
G1 X134.535 Y108.540 E0.02306
G1 X134.564 Y109.099 E0.01754
G1 X134.562 Y109.366 E0.00837
G1 X134.520 Y109.577 E0.00675
G1 X134.345 Y110.050 E0.01583
G1 X134.099 Y110.548 E0.01740
G1 X133.820 Y111.024 E0.01731
G1 X133.509 Y111.479 E0.01728
G1 X133.182 Y111.903 E0.01676
G1 X132.858 Y112.274 E0.01547
G1 X132.422 Y112.721 E0.01956
G1 X131.868 Y113.213 E0.02325
G1 X131.213 Y113.720 E0.02596
G1 X130.506 Y114.177 E0.02641
G1 X129.876 Y114.527 E0.02260
G1 X129.063 Y114.898 E0.02802
G1 X128.436 Y115.135 E0.02102
G1 X127.438 Y115.423 E0.03257
G1 X126.925 Y115.531 E0.01643
G1 X126.410 Y115.614 E0.01635
G1 X125.892 Y115.671 E0.01635
G1 X125.371 Y115.703 E0.01636
G1 X124.849 Y115.709 E0.01637
G1 X124.326 Y115.688 E0.01641
G1 X123.807 Y115.642 E0.01634
G1 X123.289 Y115.569 E0.01641
G1 X122.274 Y115.351 E0.03256
G1 X121.281 Y115.035 E0.03265
G1 X120.324 Y114.626 E0.03265
G1 X119.491 Y114.176 E0.02968
G1 X119.021 Y113.879 E0.01741
G1 X118.577 Y113.566 E0.01704
G1 X118.154 Y113.234 E0.01685
G1 X117.752 Y112.884 E0.01673
G1 X117.369 Y112.515 E0.01667
G1 X117.017 Y112.139 E0.01615
G1 X116.372 Y111.341 E0.03217
G1 X115.805 Y110.479 E0.03234
G1 X115.321 Y109.566 E0.03241
G1 X114.922 Y108.600 E0.03276
G1 X114.616 Y107.596 E0.03292
G1 X114.499 Y107.081 E0.01656
G1 X114.408 Y106.563 E0.01647
G1 X114.342 Y106.043 E0.01645
G1 X114.303 Y105.517 E0.01651
G1 X114.298 Y104.578 E0.02946
G1 X114.352 Y103.865 E0.02242
G1 X114.460 Y103.124 E0.02348
G1 X114.655 Y102.274 E0.02733
G1 X114.882 Y101.573 E0.02313
G1 X115.151 Y100.928 E0.02189
G1 X115.481 Y100.312 E0.02193
G1 X115.706 Y99.974 E0.01273
G1 X115.793 Y99.880 E0.00402
G1 X115.759 Y99.442 F10800.000
G1 F8640
G1 X116.440 Y99.419 E-0.18337
G1 X116.993 Y99.098 E-0.14767
G1 X117.740 Y98.739 E-0.19130
G1 X118.189 Y98.567 E-0.11105
G1 X118.330 Y98.478 E-0.03846
G1 X118.632 Y98.245 E-0.08816
G1 E-0.04000 F2100.00000
G1 Z0.800 F10800.000
G1 X110.587 Y96.679
G1 Z0.200
G1 E0.80000 F2100.00000
G1 F1200
G1 X125.000 Y88.357 E0.52182
G1 X139.413 Y96.679 E0.52182
G1 X139.413 Y113.321 E0.52182
G1 X125.000 Y121.643 E0.52182
G1 X110.587 Y113.321 E0.52182
G1 X110.587 Y96.739 E0.51994
G1 X110.210 Y96.461 F10800.000
G1 F1200
G1 X125.000 Y87.922 E0.53547
G1 X139.788 Y96.460 E0.53539
G1 X139.790 Y113.539 E0.53551
G1 X125.000 Y122.078 E0.53547
G1 X110.210 Y113.539 E0.53547
G1 X110.210 Y96.521 E0.53359
G1 X110.610 Y96.461 F10800.000
G1 F8640
G1 X113.055 Y94.867 E-0.76000
G1 E-0.04000 F2100.00000
G1 Z0.800 F10800.000
G1 X122.884 Y89.709
G1 Z0.200
G1 E0.80000 F2100.00000
G1 F1200
G1 X129.285 Y96.110 E0.28620
G1 X128.611 Y95.814 E0.02329
G1 X128.364 Y95.727 E0.00828
G1 X122.668 Y90.031 E0.25470
G1 X122.327 Y90.227 E0.01245
G1 X127.583 Y95.484 E0.23504
G1 X126.878 Y95.317 E0.02290
G1 X121.986 Y90.424 E0.21877
G1 X121.645 Y90.621 E0.01245
G1 X126.237 Y95.213 E0.20532
G1 X125.641 Y95.155 E0.01893
G1 X121.304 Y90.818 E0.19392
G1 X120.963 Y91.015 E0.01245
G1 X125.082 Y95.133 E0.18417
G1 X124.555 Y95.145 E0.01665
G1 X120.622 Y91.212 E0.17587
G1 X120.281 Y91.408 E0.01245
G1 X124.058 Y95.185 E0.16887
G1 X123.570 Y95.234 E0.01552
G1 X119.940 Y91.605 E0.16228
G1 X119.599 Y91.802 E0.01245
G1 X123.119 Y95.322 E0.15738
G1 X122.671 Y95.411 E0.01446
G1 X119.258 Y91.999 E0.15257
G1 X118.918 Y92.196 E0.01245
G1 X122.252 Y95.530 E0.14910
G1 X121.838 Y95.654 E0.01365
G1 X118.577 Y92.392 E0.14585
G1 X118.236 Y92.589 E0.01245
G1 X121.442 Y95.796 E0.14337
G1 X121.062 Y95.954 E0.01301
G1 X117.895 Y92.786 E0.14163
G1 X117.554 Y92.983 E0.01245
G1 X120.695 Y96.124 E0.14047
G1 X120.338 Y96.305 E0.01266
G1 X117.213 Y93.180 E0.13973
G1 X116.872 Y93.377 E0.01245
G1 X119.994 Y96.499 E0.13961
G1 X119.656 Y96.699 E0.01241
G1 X116.531 Y93.573 E0.13975
G1 X116.190 Y93.770 E0.01245
G1 X119.332 Y96.912 E0.14050
G1 X119.012 Y97.130 E0.01224
G1 X115.849 Y93.967 E0.14142
G1 X115.508 Y94.164 E0.01245
G1 X118.701 Y97.357 E0.14275
G1 X118.395 Y97.588 E0.01214
G1 X115.167 Y94.361 E0.14432
G1 X114.826 Y94.558 E0.01245
G1 X118.089 Y97.820 E0.14588
G1 X117.881 Y97.978 E0.00827
G1 X117.757 Y98.025 E0.00420
G1 X114.486 Y94.754 E0.14626
G1 X114.145 Y94.951 E0.01245
G1 X117.375 Y98.182 E0.14445
G1 X117.012 Y98.356 E0.01274
G1 X113.804 Y95.148 E0.14345
G1 X113.463 Y95.345 E0.01245
G1 X116.651 Y98.533 E0.14256
G1 X116.311 Y98.731 E0.01243
G1 X113.122 Y95.542 E0.14261
G1 X112.781 Y95.739 E0.01245
G1 X115.978 Y98.936 E0.14296
G1 X115.658 Y99.153 E0.01224
G1 X112.440 Y95.935 E0.14387
G1 X112.099 Y96.132 E0.01245
G1 X115.352 Y99.385 E0.14544
G1 X115.186 Y99.565 E0.00773
G1 X115.109 Y99.680 E0.00438
G1 X111.758 Y96.329 E0.14983
G1 X111.417 Y96.526 E0.01245
G1 X114.897 Y100.005 E0.15557
G1 X114.709 Y100.356 E0.01256
G1 X111.076 Y96.723 E0.16244
G1 X110.870 Y96.842 E0.00754
G1 X110.870 Y97.054 E0.00670
G1 X114.527 Y100.711 E0.16352
G1 X114.369 Y101.090 E0.01300
G1 X110.870 Y97.592 E0.15644
G1 X110.870 Y98.130 E0.01700
G1 X114.219 Y101.479 E0.14976
G1 X114.087 Y101.885 E0.01350
G1 X110.870 Y98.667 E0.14387
G1 X110.870 Y99.205 E0.01700
G1 X113.971 Y102.306 E0.13865
G1 X113.870 Y102.743 E0.01419
G1 X110.870 Y99.743 E0.13415
G1 X110.870 Y100.281 E0.01700
G1 X113.783 Y103.193 E0.13025
G1 X113.715 Y103.663 E0.01500
G1 X110.870 Y100.818 E0.12720
G1 X110.870 Y101.356 E0.01700
G1 X113.669 Y104.155 E0.12514
G1 X113.639 Y104.663 E0.01609
G1 X110.870 Y101.894 E0.12382
G1 X110.870 Y102.432 E0.01700
G1 X113.642 Y105.203 E0.12393
G1 X113.659 Y105.759 E0.01757
G1 X110.870 Y102.969 E0.12473
G1 X110.870 Y103.507 E0.01700
G1 X113.717 Y106.354 E0.12729
G1 X113.813 Y106.988 E0.02027
G1 X110.870 Y104.045 E0.13158
G1 X110.870 Y104.583 E0.01700
G1 X113.956 Y107.669 E0.13799
G1 X114.181 Y108.431 E0.02515
G1 X110.870 Y105.120 E0.14805
G1 X110.870 Y105.658 E0.01700
G1 X114.487 Y109.276 E0.16176
G1 X114.724 Y109.847 E0.01954
G1 X114.952 Y110.277 E0.01541
G1 X110.870 Y106.196 E0.18251
G1 X110.870 Y106.734 E0.01700
G1 X125.287 Y121.150 E0.64464
G1 X125.628 Y120.954 E0.01245
G1 X119.729 Y115.055 E0.26377
G1 X120.036 Y115.221 E0.01106
G1 X120.728 Y115.517 E0.02379
G1 X125.969 Y120.757 E0.23432
G1 X126.310 Y120.560 E0.01245
G1 X121.569 Y115.819 E0.21199
G1 X122.104 Y115.989 E0.01775
G1 X122.324 Y116.037 E0.00713
G1 X126.650 Y120.363 E0.19345
G1 X126.991 Y120.166 E0.01245
G1 X123.009 Y116.184 E0.17806
G1 X123.649 Y116.286 E0.02047
G1 X127.332 Y119.969 E0.16471
G1 X127.673 Y119.773 E0.01245
G1 X124.244 Y116.344 E0.15333
G1 X124.806 Y116.368 E0.01778
G1 X128.014 Y119.576 E0.14345
G1 X128.355 Y119.379 E0.01245
G1 X125.340 Y116.363 E0.13484
G1 X125.849 Y116.335 E0.01613
G1 X128.696 Y119.182 E0.12731
G1 X129.037 Y118.985 E0.01245
G1 X126.337 Y116.286 E0.12071
G1 X126.807 Y116.218 E0.01502
G1 X129.378 Y118.789 E0.11494
G1 X129.719 Y118.592 E0.01245
G1 X127.261 Y116.134 E0.10988
G1 X127.699 Y116.034 E0.01419
G1 X130.060 Y118.395 E0.10556
G1 X130.401 Y118.198 E0.01245
G1 X128.116 Y115.914 E0.10213
G1 X128.534 Y115.794 E0.01374
G1 X130.742 Y118.001 E0.09871
G1 X131.082 Y117.804 E0.01245
G1 X128.931 Y115.653 E0.09619
G1 X129.321 Y115.505 E0.01318
G1 X131.423 Y117.608 E0.09400
G1 X131.764 Y117.411 E0.01245
G1 X129.691 Y115.337 E0.09273
G1 X130.060 Y115.169 E0.01284
G1 X132.105 Y117.214 E0.09145
G1 X132.446 Y117.017 E0.01245
G1 X130.413 Y114.984 E0.09092
G1 X130.758 Y114.791 E0.01250
G1 X132.787 Y116.820 E0.09072
G1 X133.128 Y116.623 E0.01245
G1 X131.090 Y114.585 E0.09114
G1 X131.416 Y114.374 E0.01230
G1 X133.469 Y116.427 E0.09177
G1 X133.810 Y116.230 E0.01245
G1 X131.733 Y114.152 E0.09289
G1 X132.036 Y113.918 E0.01212
G1 X134.151 Y116.033 E0.09457
G1 X134.492 Y115.836 E0.01245
G1 X132.336 Y113.680 E0.09640
G1 X132.621 Y113.427 E0.01204
G1 X134.833 Y115.639 E0.09890
G1 X135.173 Y115.442 E0.01245
G1 X132.904 Y113.173 E0.10149
G1 X133.169 Y112.900 E0.01202
G1 X135.514 Y115.246 E0.10486
G1 X135.855 Y115.049 E0.01245
G1 X133.430 Y112.623 E0.10846
G1 X133.680 Y112.336 E0.01205
G1 X136.196 Y114.852 E0.11251
G1 X136.537 Y114.655 E0.01245
G1 X133.915 Y112.033 E0.11724
G1 X134.142 Y111.722 E0.01217
G1 X136.878 Y114.458 E0.12234
G1 X137.219 Y114.261 E0.01245
G1 X134.360 Y111.403 E0.12783
G1 X134.560 Y111.065 E0.01241
G1 X137.560 Y114.065 E0.13412
G1 X137.901 Y113.868 E0.01245
G1 X134.751 Y110.718 E0.14085
G1 X134.929 Y110.358 E0.01269
G1 X138.242 Y113.671 E0.14814
G1 X138.583 Y113.474 E0.01245
G1 X135.078 Y109.970 E0.15669
G1 X135.158 Y109.756 E0.00720
G1 X135.198 Y109.551 E0.00660
G1 X138.924 Y113.277 E0.16661
G1 X139.130 Y113.158 E0.00754
G1 X139.130 Y112.946 E0.00670
G1 X135.222 Y109.037 E0.17477
G1 X135.191 Y108.469 E0.01800
G1 X139.130 Y112.408 E0.17614
G1 X139.130 Y111.871 E0.01700
G1 X135.117 Y107.858 E0.17943
M73 Q2 S39
G1 X135.004 Y107.207 E0.02090
