; generated by PrusaSlicer 2.0.0+win64 on 2019-06-13 at 13:02:08

; 

; external perimeters extrusion width = 0.45mm
; perimeters extrusion width = 0.45mm
; infill extrusion width = 0.45mm
; solid infill extrusion width = 0.45mm
; top infill extrusion width = 0.40mm
; first layer extrusion width = 0.42mm

M73 P0 R15
M73 Q0 S15
M201 X1000 Y1000 Z1000 E5000 ; sets maximum accelerations, mm/sec^2
M203 X200 Y200 Z12 E120 ; sets maximum feedrates, mm/sec
M204 P1250 R1250 T1250 ; sets acceleration (P, T) and retract acceleration (R), mm/sec^2
M205 X8.00 Y8.00 Z0.40 E1.50 ; sets the jerk limits, mm/sec
M205 S0 T0 ; sets the minimum extruding and travel feed rate, mm/sec
M107
M115 U3.7.1 ; tell printer latest fw version
G90 ; use absolute coordinates
M83 ; extruder relative mode
M104 S200 ; set extruder temp
M140 S50 ; set bed temp
M190 S50 ; wait for bed temp
M109 S200 ; wait for extruder temp
G28 W ; home all without mesh bed level
G80 ; mesh bed leveling
G1 Y-3.0 F1000.0 ; go outside print area
G92 E0.0
G1 X60.0 E9.0 F1000.0 ; intro line
M73 Q0 S15
M73 P0 R15
G1 X100.0 E12.5 F1000.0 ; intro line
G92 E0.0
M221 S95
M900 K10; Filament gcode
G21 ; set units to millimeters
G90 ; use absolute coordinates
M83 ; use relative distances for extrusion
;BEFORE_LAYER_CHANGE
G92 E0.0
;0.2


G1 E-0.80000 F2100.00000
G1 Z0.600 F10800.000
;AFTER_LAYER_CHANGE
;0.2
G1 X113.474 Y84.309
G1 Z0.200
G1 E0.80000 F2100.00000
M204 S1000
G1 F1193.38
G1 X114.225 Y83.555 E0.04003
G1 X115.004 Y83.124 E0.03349
G1 X116.036 Y82.850 E0.04020
G1 X130.141 Y82.811 E0.53070
G1 X133.819 Y82.918 E0.13843
G1 X134.825 Y83.000 E0.03799
G1 X135.372 Y83.126 E0.02109
G1 X136.030 Y83.469 E0.02791
G1 X136.551 Y83.963 E0.02703
G1 X136.926 Y84.585 E0.02734
G1 X137.142 Y85.328 E0.02912
G1 X137.184 Y124.005 E1.45523
G1 X137.030 Y125.148 E0.04338
G1 X136.654 Y125.899 E0.03163
G1 X136.146 Y126.444 E0.02801
G1 X135.444 Y126.849 E0.03051
G1 X134.720 Y127.012 E0.02791
G1 X131.027 Y127.182 E0.13911
G1 X116.624 Y127.189 E0.54189
G1 X115.347 Y126.998 E0.04860
G1 X114.402 Y126.566 E0.03909
G1 X113.687 Y125.958 E0.03531
G1 X113.154 Y125.123 E0.03726
G1 X112.928 Y124.118 E0.03876
G1 X112.925 Y85.993 E1.43448
G1 X113.067 Y85.110 E0.03363
G1 X113.447 Y84.363 E0.03155
G1 F8640
G1 X114.225 Y83.555 E-0.25890
G1 X115.004 Y83.124 E-0.20553
G1 X116.036 Y82.850 E-0.24673
G1 X116.248 Y82.850 E-0.04884
G1 E-0.04000 F2100.00000
G1 Z0.800 F10800.000
G1 X122.507 Y112.969
G1 Z0.200
G1 E0.80000 F2100.00000
G1 F1193.38
G1 X122.881 Y112.915 E0.01420
G1 X123.294 Y112.931 E0.01557
G1 X123.683 Y113.025 E0.01507
G1 X124.045 Y113.190 E0.01495
G1 X124.368 Y113.421 E0.01495
G1 X124.643 Y113.708 E0.01495
G1 X124.857 Y114.042 E0.01495
G1 X125.005 Y114.411 E0.01495
G1 X125.080 Y114.801 E0.01495
G1 X125.080 Y115.199 E0.01495
G1 X125.005 Y115.589 E0.01495
G1 X124.857 Y115.958 E0.01495
G1 X124.643 Y116.292 E0.01495
G1 X124.368 Y116.579 E0.01495
G1 X124.045 Y116.810 E0.01495
G1 X123.683 Y116.975 E0.01495
G1 X123.297 Y117.068 E0.01495
G1 X122.901 Y117.087 E0.01495
G1 X122.507 Y117.031 E0.01495
G1 X122.132 Y116.901 E0.01495
G1 X121.788 Y116.702 E0.01495
G1 X121.488 Y116.442 E0.01495
G1 X121.242 Y116.130 E0.01495
G1 X121.060 Y115.777 E0.01495
G1 X120.948 Y115.395 E0.01495
G1 X120.910 Y115.000 E0.01495
G1 X120.948 Y114.605 E0.01495
G1 X121.060 Y114.223 E0.01495
G1 X121.242 Y113.870 E0.01495
G1 X121.488 Y113.558 E0.01495
G1 X121.788 Y113.298 E0.01495
G1 X122.132 Y113.099 E0.01495
G1 X122.451 Y112.989 E0.01269
G1 X122.574 Y113.345 F10800.000
G1 F1193.38
G1 X122.901 Y113.294 E0.01245
G1 X123.242 Y113.306 E0.01286
G1 X123.560 Y113.383 E0.01228
G1 X123.855 Y113.518 E0.01224
G1 X124.120 Y113.707 E0.01224
G1 X124.345 Y113.942 E0.01224
G1 X124.521 Y114.216 E0.01224
G1 X124.642 Y114.518 E0.01224
G1 X124.703 Y114.837 E0.01224
G1 X124.703 Y115.163 E0.01224
G1 X124.642 Y115.482 E0.01224
G1 X124.521 Y115.784 E0.01224
G1 X124.345 Y116.058 E0.01224
G1 X124.120 Y116.293 E0.01224
G1 X123.855 Y116.482 E0.01224
G1 X123.560 Y116.617 E0.01224
G1 X123.243 Y116.694 E0.01224
G1 X122.919 Y116.709 E0.01224
G1 X122.597 Y116.663 E0.01224
G1 X122.289 Y116.556 E0.01224
G1 X122.008 Y116.394 E0.01224
G1 X121.762 Y116.181 E0.01224
G1 X121.561 Y115.925 E0.01224
G1 X121.412 Y115.636 E0.01224
G1 X121.320 Y115.324 E0.01224
G1 X121.289 Y115.000 E0.01224
G1 X121.320 Y114.676 E0.01224
G1 X121.412 Y114.364 E0.01224
G1 X121.561 Y114.075 E0.01224
G1 X121.762 Y113.819 E0.01224
G1 X122.008 Y113.606 E0.01224
G1 X122.289 Y113.444 E0.01224
G1 X122.517 Y113.365 E0.00908
G1 X122.664 Y113.027 F10800.000
G1 F8640
G1 X122.901 Y113.294 E-0.09009
G1 X123.242 Y113.306 E-0.07891
G1 X123.560 Y113.383 E-0.07536
G1 X123.855 Y113.518 E-0.07511
G1 X124.120 Y113.707 E-0.07511
G1 X124.345 Y113.942 E-0.07511
G1 X124.521 Y114.216 E-0.07511
G1 X124.642 Y114.518 E-0.07511
G1 X124.703 Y114.837 E-0.07511
G1 X124.703 Y115.119 E-0.06499
G1 E-0.04000 F2100.00000
G1 Z0.800 F10800.000
G1 X122.901 Y97.087
G1 Z0.200
G1 E0.80000 F2100.00000
G1 F1193.38
G1 X122.507 Y97.031 E0.01495
G1 X122.132 Y96.901 E0.01495
G1 X121.788 Y96.702 E0.01495
G1 X121.488 Y96.442 E0.01495
G1 X121.242 Y96.130 E0.01495
G1 X121.060 Y95.777 E0.01495
G1 X120.948 Y95.395 E0.01495
G1 X120.910 Y95.000 E0.01495
G1 X120.948 Y94.605 E0.01495
G1 X121.060 Y94.223 E0.01495
G1 X121.242 Y93.870 E0.01495
G1 X121.488 Y93.558 E0.01495
G1 X121.788 Y93.298 E0.01495
G1 X122.132 Y93.099 E0.01495
G1 X122.507 Y92.969 E0.01495
G1 X122.881 Y92.915 E0.01420
G1 X123.294 Y92.931 E0.01557
G1 X123.683 Y93.025 E0.01507
G1 X124.045 Y93.190 E0.01495
G1 X124.368 Y93.421 E0.01495
G1 X124.643 Y93.708 E0.01495
G1 X124.857 Y94.042 E0.01495
G1 X125.005 Y94.411 E0.01495
G1 X125.080 Y94.801 E0.01495
G1 X125.080 Y95.199 E0.01495
G1 X125.005 Y95.589 E0.01495
G1 X124.857 Y95.958 E0.01495
G1 X124.643 Y96.292 E0.01495
G1 X124.368 Y96.579 E0.01495
G1 X124.045 Y96.810 E0.01495
G1 X123.683 Y96.975 E0.01495
G1 X123.297 Y97.068 E0.01495
G1 X122.960 Y97.085 E0.01269
G1 X122.943 Y96.708 F10800.000
G1 F1193.38
G1 X122.597 Y96.663 E0.01313
G1 X122.289 Y96.556 E0.01224
G1 X122.008 Y96.394 E0.01224
G1 X121.762 Y96.181 E0.01224
G1 X121.561 Y95.925 E0.01224
G1 X121.412 Y95.636 E0.01224
G1 X121.320 Y95.324 E0.01224
G1 X121.289 Y95.000 E0.01224
G1 X121.320 Y94.676 E0.01224
G1 X121.412 Y94.364 E0.01224
G1 X121.561 Y94.075 E0.01224
G1 X121.762 Y93.819 E0.01224
G1 X122.008 Y93.606 E0.01224
G1 X122.289 Y93.444 E0.01224
G1 X122.597 Y93.337 E0.01224
G1 X122.901 Y93.294 E0.01157
G1 X123.242 Y93.306 E0.01286
G1 X123.560 Y93.383 E0.01228
G1 X123.855 Y93.518 E0.01224
G1 X124.120 Y93.707 E0.01224
G1 X124.345 Y93.942 E0.01224
G1 X124.521 Y94.216 E0.01224
G1 X124.642 Y94.518 E0.01224
G1 X124.703 Y94.837 E0.01224
G1 X124.703 Y95.163 E0.01224
G1 X124.642 Y95.482 E0.01224
G1 X124.521 Y95.784 E0.01224
G1 X124.345 Y96.058 E0.01224
G1 X124.120 Y96.293 E0.01224
G1 X123.855 Y96.482 E0.01224
G1 X123.560 Y96.617 E0.01224
G1 X123.243 Y96.694 E0.01224
G1 X123.002 Y96.705 E0.00908
G1 X122.757 Y97.003 F10800.000
G1 F8640
G1 X122.597 Y96.663 E-0.09422
G1 X122.289 Y96.556 E-0.07511
G1 X122.008 Y96.394 E-0.07511
G1 X121.762 Y96.181 E-0.07511
G1 X121.561 Y95.925 E-0.07511
G1 X121.412 Y95.636 E-0.07511
G1 X121.320 Y95.324 E-0.07511
G1 X121.289 Y95.000 E-0.07511
G1 X121.320 Y94.676 E-0.07511
G1 X121.399 Y94.406 E-0.06493
G1 E-0.04000 F2100.00000
G1 Z0.800 F10800.000
G1 X115.732 Y85.928
G1 Z0.200
G1 E0.80000 F2100.00000
G1 F1193.38
G1 X115.878 Y85.787 E0.00766
G1 X116.019 Y85.710 E0.00603
G1 X116.218 Y85.640 E0.00794
G1 X116.404 Y85.603 E0.00715
G1 X116.644 Y85.587 E0.00903
G1 X130.353 Y85.590 E0.51584
G1 X131.881 Y85.611 E0.05748
G1 X132.985 Y85.653 E0.04158
G1 X134.393 Y85.748 E0.05310
G1 X134.397 Y124.247 E1.44854
G1 X132.986 Y124.347 E0.05322
G1 X131.337 Y124.401 E0.06208
G1 X116.643 Y124.413 E0.55284
G1 X116.405 Y124.397 E0.00900
G1 X116.198 Y124.355 E0.00792
G1 X116.035 Y124.298 E0.00651
G1 X115.878 Y124.213 E0.00671
G1 X115.722 Y124.060 E0.00824
G1 X115.700 Y123.975 E0.00328
G1 X115.709 Y85.984 E1.42944
G1 X115.346 Y85.864 F10800.000
G1 F1193.38
G1 X115.410 Y85.727 E0.00570
G1 X115.521 Y85.591 E0.00662
G1 X115.667 Y85.472 E0.00708
G1 X115.865 Y85.364 E0.00848
G1 X116.118 Y85.276 E0.01010
G1 X116.354 Y85.228 E0.00906
G1 X116.631 Y85.210 E0.01044
G1 X130.356 Y85.213 E0.51640
G1 X131.891 Y85.234 E0.05775
G1 X133.005 Y85.276 E0.04196
G1 X134.496 Y85.377 E0.05623
G1 X134.616 Y85.413 E0.00470
G1 X134.679 Y85.468 E0.00315
G1 X134.745 Y85.591 E0.00525
G1 X134.776 Y85.732 E0.00545
G1 X134.785 Y123.997 E1.43971
G1 X134.776 Y124.271 E0.01031
G1 X134.755 Y124.384 E0.00433
G1 X134.677 Y124.534 E0.00638
G1 X134.604 Y124.598 E0.00366
G1 X133.005 Y124.724 E0.06034
G1 X131.343 Y124.778 E0.06258
G1 X116.631 Y124.790 E0.55354
G1 X116.355 Y124.772 E0.01043
G1 X116.097 Y124.720 E0.00987
G1 X115.882 Y124.643 E0.00861
G1 X115.667 Y124.527 E0.00917
G1 X115.512 Y124.401 E0.00753
G1 X115.372 Y124.206 E0.00903
G1 X115.323 Y123.991 E0.00829
G1 X115.323 Y86.016 E1.42883
G1 X115.337 Y85.924 E0.00350
G1 X115.493 Y85.829 F10800.000
G1 F8640
G1 X115.410 Y85.727 E-0.04843
G1 X115.521 Y85.591 E-0.04064
G1 X115.667 Y85.472 E-0.04342
G1 X115.865 Y85.364 E-0.05203
G1 X116.118 Y85.276 E-0.06199
G1 X116.354 Y85.228 E-0.05561
G1 X116.631 Y85.210 E-0.06406
G1 X118.337 Y85.210 E-0.39380
G1 E-0.04000 F2100.00000
G1 Z0.800 F10800.000
G1 X134.286 Y86.620
G1 Z0.200
G1 E0.80000 F2100.00000
G1 F1190.02
G1 X133.647 Y85.981 E0.03408
G1 X133.074 Y85.942 E0.02169
G1 X134.116 Y86.985 E0.05563
G1 X134.116 Y87.520 E0.02018
G1 X132.515 Y85.918 E0.08546
G1 X131.959 Y85.897 E0.02099
G1 X134.116 Y88.054 E0.11512
G1 X134.116 Y88.589 E0.02018
G1 X131.414 Y85.887 E0.14416
G1 X130.872 Y85.880 E0.02046
G1 X134.116 Y89.124 E0.17310
G1 X134.116 Y89.659 E0.02018
G1 X130.330 Y85.873 E0.20202
G1 X129.795 Y85.873 E0.02018
G1 X134.116 Y90.193 E0.23056
G1 X134.116 Y90.728 E0.02018
G1 X129.260 Y85.872 E0.25910
G1 X128.725 Y85.872 E0.02018
G1 X134.116 Y91.263 E0.28764
G1 X134.116 Y91.798 E0.02018
G1 X128.190 Y85.872 E0.31618
G1 X127.656 Y85.872 E0.02018
G1 X134.116 Y92.332 E0.34472
G1 X134.116 Y92.867 E0.02018
G1 X127.121 Y85.872 E0.37326
G1 X126.586 Y85.872 E0.02018
G1 X134.116 Y93.402 E0.40180
G1 X134.116 Y93.937 E0.02018
G1 X126.051 Y85.872 E0.43034
G1 X125.516 Y85.872 E0.02018
G1 X134.116 Y94.471 E0.45888
G1 X134.116 Y95.006 E0.02018
G1 X124.981 Y85.872 E0.48742
G1 X124.446 Y85.871 E0.02018
G1 X134.116 Y95.541 E0.51596
G1 X134.116 Y96.076 E0.02018
G1 X123.911 Y85.871 E0.54450
G1 X123.376 Y85.871 E0.02018
G1 X134.116 Y96.610 E0.57304
G1 X134.116 Y97.145 E0.02018
G1 X122.842 Y85.871 E0.60158
G1 X122.307 Y85.871 E0.02018
G1 X134.116 Y97.680 E0.63012
G1 X134.115 Y98.215 E0.02018
G1 X121.772 Y85.871 E0.65866
G1 X121.237 Y85.871 E0.02018
G1 X134.115 Y98.749 E0.68720
G1 X134.115 Y99.284 E0.02018
G1 X120.702 Y85.871 E0.71574
G1 X120.167 Y85.871 E0.02018
G1 X134.115 Y99.819 E0.74428
G1 X134.115 Y100.354 E0.02018
G1 X119.632 Y85.870 E0.77282
G1 X119.097 Y85.870 E0.02018
G1 X134.115 Y100.888 E0.80136
G1 X134.115 Y101.423 E0.02018
G1 X118.562 Y85.870 E0.82990
G1 X118.028 Y85.870 E0.02018
G1 X134.115 Y101.958 E0.85844
G1 X134.115 Y102.493 E0.02018
G1 X117.493 Y85.870 E0.88698
G1 X116.958 Y85.870 E0.02018
G1 X123.902 Y92.814 E0.37054
G1 X123.776 Y92.757 E0.00521
G1 X123.333 Y92.649 E0.01720
G1 X123.197 Y92.644 E0.00514
G1 X116.438 Y85.885 E0.36070
G1 X116.144 Y85.965 E0.01150
G1 X116.047 Y86.028 E0.00437
G1 X122.677 Y92.659 E0.35381
G1 X122.440 Y92.693 E0.00903
G1 X122.244 Y92.761 E0.00782
G1 X115.994 Y86.510 E0.33355
G1 X115.993 Y87.045 E0.02017
G1 X121.872 Y92.923 E0.31366
G1 X121.623 Y93.066 E0.01083
G1 X121.547 Y93.133 E0.00382
G1 X115.993 Y87.579 E0.29633
G1 X115.993 Y88.114 E0.02017
G1 X121.264 Y93.385 E0.28126
G1 X121.029 Y93.684 E0.01437
G1 X115.993 Y88.648 E0.26870
G1 X115.993 Y89.183 E0.02017
G1 X120.841 Y94.031 E0.25869
G1 X120.796 Y94.118 E0.00367
G1 X120.705 Y94.430 E0.01227
G1 X115.993 Y89.718 E0.25143
G1 X115.992 Y90.252 E0.02017
G1 X120.636 Y94.896 E0.24779
G1 X120.626 Y95.000 E0.00394
G1 X120.675 Y95.470 E0.01782
G1 X115.992 Y90.787 E0.24987
G1 X115.992 Y91.322 E0.02017
G1 X134.115 Y109.444 E0.96703
G1 X134.115 Y108.910 E0.02018
G1 X122.524 Y97.319 E0.61848
G1 X122.887 Y97.371 E0.01383
G1 X123.101 Y97.361 E0.00808
G1 X134.115 Y108.375 E0.58770
G1 X134.115 Y107.840 E0.02018
G1 X123.569 Y97.294 E0.56276
G1 X123.776 Y97.243 E0.00807
G1 X123.966 Y97.157 E0.00787
G1 X134.115 Y107.305 E0.54154
G1 X134.115 Y106.771 E0.02018
G1 X124.312 Y96.967 E0.52312
G1 X124.612 Y96.733 E0.01438
G1 X134.115 Y106.236 E0.50706
G1 X134.115 Y105.701 E0.02018
G1 X124.872 Y96.458 E0.49321
G1 X125.081 Y96.132 E0.01460
G1 X134.115 Y105.166 E0.48205
G1 X134.115 Y104.632 E0.02018
G1 X125.242 Y95.758 E0.47348
M73 Q7 S14
G1 X125.278 Y95.669 E0.00364
G1 X125.344 Y95.325 E0.01319
G1 X134.115 Y104.097 E0.46804
M73 P7 R14
G1 X134.115 Y103.562 E0.02018
G1 X125.363 Y94.810 E0.46702
G1 X125.278 Y94.331 E0.01835
G1 X125.183 Y94.095 E0.00959
G1 X134.285 Y103.197 E0.48567
G1 F8640
G1 X131.958 Y100.870 E-0.76000
G1 E-0.04000 F2100.00000
G1 Z0.800 F10800.000
G1 X134.285 Y110.149
G1 Z0.200
G1 E0.80000 F2100.00000
G1 F1190.02
G1 X115.992 Y91.856 E0.97609
G1 X115.992 Y92.391 E0.02017
G1 X134.115 Y110.514 E0.96705
G1 X134.115 Y111.049 E0.02018
G1 X115.992 Y92.925 E0.96705
G1 X115.992 Y93.460 E0.02017
G1 X134.115 Y111.583 E0.96706
G1 X134.115 Y112.118 E0.02018
G1 X115.991 Y93.995 E0.96707
G1 X115.991 Y94.529 E0.02017
G1 X134.115 Y112.653 E0.96707
G1 X134.115 Y113.188 E0.02018
G1 X115.991 Y95.064 E0.96708
G1 X115.991 Y95.599 E0.02017
G1 X134.115 Y113.722 E0.96708
G1 X134.115 Y114.257 E0.02018
G1 X115.991 Y96.133 E0.96709
G1 X115.991 Y96.668 E0.02017
G1 X134.115 Y114.792 E0.96710
G1 X134.115 Y115.327 E0.02018
G1 X115.991 Y97.203 E0.96710
G1 X115.990 Y97.737 E0.02017
G1 X134.115 Y115.861 E0.96711
G1 X134.115 Y116.396 E0.02018
G1 X115.990 Y98.272 E0.96712
G1 X115.990 Y98.806 E0.02017
G1 X134.115 Y116.931 E0.96712
G1 X134.115 Y117.466 E0.02018
G1 X115.990 Y99.341 E0.96713
G1 X115.990 Y99.876 E0.02017
G1 X134.114 Y118.000 E0.96714
G1 X134.114 Y118.535 E0.02018
G1 X115.990 Y100.410 E0.96714
G1 X115.990 Y100.945 E0.02017
G1 X134.114 Y119.070 E0.96715
G1 X134.114 Y119.605 E0.02018
G1 X115.989 Y101.480 E0.96716
G1 X115.989 Y102.014 E0.02017
G1 X134.114 Y120.139 E0.96716
G1 X134.114 Y120.674 E0.02018
G1 X115.989 Y102.549 E0.96717
G1 X115.989 Y103.083 E0.02017
G1 X134.114 Y121.209 E0.96718
G1 X134.114 Y121.744 E0.02018
G1 X115.989 Y103.618 E0.96718
G1 X115.989 Y104.153 E0.02017
G1 X134.114 Y122.278 E0.96719
G1 X134.114 Y122.813 E0.02018
G1 X115.988 Y104.687 E0.96719
G1 X115.988 Y105.222 E0.02017
G1 X123.442 Y112.676 E0.39773
G1 X123.333 Y112.649 E0.00422
G1 X122.864 Y112.632 E0.01773
G1 X115.988 Y105.757 E0.36689
G1 X115.988 Y106.291 E0.02017
G1 X122.403 Y112.706 E0.34230
G1 X122.007 Y112.845 E0.01583
G1 X115.988 Y106.826 E0.32117
G1 X115.988 Y107.360 E0.02017
G1 X121.668 Y113.041 E0.30309
G1 X121.374 Y113.282 E0.01434
G1 X115.988 Y107.895 E0.28744
G1 X115.987 Y108.430 E0.02017
G1 X121.122 Y113.565 E0.27401
G1 X121.003 Y113.717 E0.00729
G1 X120.913 Y113.890 E0.00738
G1 X115.987 Y108.964 E0.26286
G1 X115.987 Y109.499 E0.02017
G1 X120.753 Y114.265 E0.25431
G1 X120.669 Y114.551 E0.01124
G1 X120.655 Y114.701 E0.00571
G1 X115.987 Y110.034 E0.24907
G1 X115.987 Y110.568 E0.02017
G1 X120.837 Y115.418 E0.25879
G1 F8640
G1 X118.509 Y113.091 E-0.76000
G1 E-0.04000 F2100.00000
G1 Z0.800 F10800.000
G1 X122.573 Y117.155
G1 Z0.200
G1 E0.80000 F2100.00000
G1 F1190.02
G1 X129.538 Y124.119 E0.37164
G1 X130.072 Y124.119 E0.02016
G1 X123.305 Y117.351 E0.36113
G1 X123.740 Y117.252 E0.01686
G1 X130.607 Y124.119 E0.36640
G1 X131.141 Y124.118 E0.02016
G1 X124.113 Y117.090 E0.37503
G1 X124.436 Y116.878 E0.01458
G1 X131.665 Y124.107 E0.38572
G1 X132.183 Y124.090 E0.01955
G1 X124.717 Y116.624 E0.39839
G1 X124.866 Y116.467 E0.00817
G1 X124.955 Y116.328 E0.00625
G1 X132.701 Y124.073 E0.41328
G1 X133.210 Y124.048 E0.01923
G1 X125.150 Y115.988 E0.43007
G1 X125.292 Y115.595 E0.01576
G1 X133.709 Y124.012 E0.44915
