; generated by PrusaSlicer 2.0.0+win64 on 2019-09-04 at 10:59:30

; 

; external perimeters extrusion width = 0.45mm
; perimeters extrusion width = 0.45mm
; infill extrusion width = 0.45mm
; solid infill extrusion width = 0.45mm
; top infill extrusion width = 0.40mm
; first layer extrusion width = 0.42mm

M73 P0 R39
M73 Q0 S40
M201 X1000 Y1000 Z1000 E5000 ; sets maximum accelerations, mm/sec^2
M203 X200 Y200 Z12 E120 ; sets maximum feedrates, mm/sec
M204 P1250 R1250 T1250 ; sets acceleration (P, T) and retract acceleration (R), mm/sec^2
M205 X8.00 Y8.00 Z0.40 E1.50 ; sets the jerk limits, mm/sec
M205 S0 T0 ; sets the minimum extruding and travel feed rate, mm/sec
M107
M115 U3.7.2 ; tell printer latest fw version
G90 ; use absolute coordinates
M83 ; extruder relative mode
M104 S215 ; set extruder temp
M140 S60 ; set bed temp
M190 S60 ; wait for bed temp
M109 S215 ; wait for extruder temp
G28 W ; home all without mesh bed level
G80 ; mesh bed leveling
G1 Y-3.0 F1000.0 ; go outside print area
G92 E0.0
G1 X60.0 E9.0 F1000.0 ; intro line
M73 Q0 S40
M73 P0 R39
G1 X100.0 E12.5 F1000.0 ; intro line
G92 E0.0
M221 S95
M900 K30 ; Filament gcode
G21 ; set units to millimeters
G90 ; use absolute coordinates
M83 ; use relative distances for extrusion
;BEFORE_LAYER_CHANGE
G92 E0.0
;0.2


G1 E-0.80000 F2100.00000
G1 Z0.600 F10800.000
;AFTER_LAYER_CHANGE
;0.2
G1 X108.127 Y94.586
G1 Z0.200
G1 E0.80000 F2100.00000
M204 S1000
G1 F1200
G1 X108.619 Y94.177 E0.02005
G1 X123.759 Y85.434 E0.54815
G1 X124.360 Y85.195 E0.02029
G1 X125.002 Y85.114 E0.02029
G1 X125.663 Y85.201 E0.02091
G1 X126.280 Y85.456 E0.02091
G1 X141.320 Y94.140 E0.54455
G1 X141.804 Y94.515 E0.01919
G1 X142.184 Y94.994 E0.01919
G1 X142.461 Y95.614 E0.02128
G1 X142.565 Y96.289 E0.02140
G1 X142.566 Y113.660 E0.54468
G1 X142.485 Y114.299 E0.02017
G1 X142.250 Y114.893 E0.02005
G1 X141.873 Y115.414 E0.02017
G1 X141.381 Y115.823 E0.02005
G1 X126.241 Y124.566 E0.54815
G1 X125.640 Y124.805 E0.02029
G1 X124.998 Y124.886 E0.02029
G1 X124.337 Y124.799 E0.02091
G1 X123.720 Y124.544 E0.02091
G1 X108.680 Y115.860 E0.54455
G1 X108.196 Y115.485 E0.01919
G1 X107.816 Y115.006 E0.01919
G1 X107.539 Y114.386 E0.02128
G1 X107.435 Y113.711 E0.02140
G1 X107.434 Y96.340 E0.54468
G1 X107.515 Y95.701 E0.02017
G1 X107.750 Y95.107 E0.02005
G1 X108.092 Y94.634 E0.01829
G1 X108.395 Y94.856 F10800.000
G1 F1200
G1 X108.834 Y94.488 E0.01794
G1 X123.938 Y85.766 E0.54686
G1 X124.456 Y85.560 E0.01749
G1 X125.005 Y85.491 E0.01737
G1 X125.569 Y85.566 E0.01783
G1 X126.091 Y85.782 E0.01771
G1 X141.123 Y94.461 E0.54423
G1 X141.540 Y94.785 E0.01658
G1 X141.868 Y95.200 E0.01658
G1 X142.102 Y95.730 E0.01817
G1 X142.188 Y96.303 E0.01817
G1 X142.189 Y113.660 E0.54423
G1 X142.119 Y114.206 E0.01726
G1 X141.916 Y114.718 E0.01726
G1 X141.592 Y115.162 E0.01726
G1 X141.166 Y115.512 E0.01726
G1 X126.066 Y124.232 E0.54675
G1 X125.551 Y124.438 E0.01737
G1 X124.998 Y124.509 E0.01749
G1 X124.435 Y124.435 E0.01783
G1 X123.909 Y124.218 E0.01783
G1 X108.877 Y115.539 E0.54423
G1 X108.460 Y115.215 E0.01658
G1 X108.132 Y114.800 E0.01658
G1 X107.898 Y114.270 E0.01817
G1 X107.812 Y113.697 E0.01817
G1 X107.811 Y96.340 E0.54423
G1 X107.881 Y95.794 E0.01726
G1 X108.084 Y95.282 E0.01726
G1 X108.360 Y94.904 E0.01468
G1 F8640
G1 X108.834 Y94.488 E-0.14557
G1 X111.138 Y93.157 E-0.61443
G1 E-0.04000 F2100.00000
G1 Z0.800 F10800.000
G1 X114.737 Y99.630
G1 Z0.200
G1 E0.80000 F2100.00000
G1 F1200
G1 X115.492 Y99.047 E0.02993
G1 X116.245 Y98.563 E0.02807
G1 X116.666 Y98.330 E0.01509
G1 X117.227 Y98.061 E0.01949
G1 X117.969 Y97.777 E0.02492
G1 X118.528 Y97.266 E0.02373
G1 X119.258 Y96.709 E0.02882
G1 X119.991 Y96.244 E0.02721
G1 X120.715 Y95.868 E0.02557
G1 X121.437 Y95.564 E0.02457
G1 X122.064 Y95.349 E0.02077
G1 X122.714 Y95.175 E0.02110
G1 X123.558 Y95.018 E0.02694
G1 X124.149 Y94.949 E0.01864
G1 X124.833 Y94.915 E0.02149
G1 X125.672 Y94.935 E0.02632
G1 X126.359 Y95.005 E0.02163
G1 X127.040 Y95.121 E0.02168
G1 X127.774 Y95.302 E0.02369
G1 X128.438 Y95.517 E0.02187
G1 X129.180 Y95.821 E0.02515
G1 X129.761 Y96.107 E0.02030
G1 X130.407 Y96.484 E0.02348
G1 X130.986 Y96.881 E0.02198
G1 X131.536 Y97.317 E0.02202
G1 X132.117 Y97.852 E0.02476
G1 X132.599 Y98.366 E0.02209
G1 X133.066 Y98.943 E0.02329
G1 X133.470 Y99.521 E0.02210
G1 X133.832 Y100.126 E0.02213
G1 X134.167 Y100.789 E0.02328
G1 X134.451 Y101.474 E0.02323
G1 X134.675 Y102.144 E0.02217
G1 X134.851 Y102.831 E0.02222
G1 X134.987 Y103.588 E0.02412
G1 X135.060 Y104.263 E0.02129
G1 X135.087 Y104.975 E0.02235
G1 X135.042 Y105.955 E0.03075
G1 X134.977 Y106.452 E0.01569
G1 X135.161 Y107.132 E0.02209
G1 X135.258 Y107.634 E0.01605
G1 X135.367 Y108.519 E0.02794
G1 X135.396 Y109.018 E0.01569
G1 X135.399 Y109.556 E0.01687
G1 X135.372 Y110.152 E0.01869
G1 X134.951 Y110.926 E0.02762
G1 X134.605 Y111.474 E0.02034
G1 X134.231 Y112.001 E0.02026
G1 X133.827 Y112.506 E0.02028
G1 X133.395 Y112.987 E0.02026
G1 X132.994 Y113.388 E0.01779
G1 X132.574 Y113.767 E0.01774
G1 X132.136 Y114.125 E0.01773
G1 X131.681 Y114.461 E0.01772
G1 X131.210 Y114.774 E0.01772
G1 X130.725 Y115.064 E0.01772
G1 X130.225 Y115.332 E0.01778
G1 X129.620 Y115.614 E0.02094
G1 X128.670 Y115.982 E0.03194
G1 X128.124 Y116.151 E0.01792
G1 X127.577 Y116.292 E0.01772
G1 X127.023 Y116.406 E0.01773
G1 X126.464 Y116.493 E0.01773
G1 X125.901 Y116.552 E0.01775
G1 X125.336 Y116.582 E0.01776
G1 X124.778 Y116.585 E0.01747
G1 X124.222 Y116.559 E0.01745
G1 X123.668 Y116.507 E0.01744
G1 X123.118 Y116.429 E0.01743
G1 X122.572 Y116.324 E0.01743
G1 X122.025 Y116.191 E0.01764
G1 X120.973 Y115.856 E0.03463
G1 X119.951 Y115.421 E0.03483
G1 X119.044 Y114.933 E0.03228
G1 X118.544 Y114.617 E0.01855
G1 X118.071 Y114.285 E0.01810
G1 X117.621 Y113.933 E0.01794
G1 X117.191 Y113.561 E0.01783
G1 X116.795 Y113.182 E0.01718
G1 X116.418 Y112.783 E0.01720
G1 X116.059 Y112.365 E0.01729
G1 X115.644 Y111.825 E0.02134
G1 X115.110 Y111.023 E0.03020
G1 X114.829 Y110.534 E0.01770
G1 X114.350 Y109.543 E0.03453
G1 X114.139 Y109.014 E0.01785
G1 X113.956 Y108.483 E0.01761
G1 X113.798 Y107.944 E0.01760
G1 X113.667 Y107.399 E0.01758
G1 X113.563 Y106.848 E0.01758
G1 X113.486 Y106.293 E0.01757
G1 X113.436 Y105.735 E0.01757
G1 X113.415 Y105.190 E0.01710
G1 X113.420 Y104.644 E0.01713
G1 X113.457 Y104.035 E0.01911
G1 X113.588 Y103.027 E0.03187
G1 X113.696 Y102.486 E0.01730
G1 X113.844 Y101.901 E0.01891
G1 X114.169 Y100.905 E0.03287
G1 X114.386 Y100.370 E0.01810
G1 X114.711 Y99.685 E0.02377
G1 X115.039 Y99.874 F10800.000
G1 F1200
G1 X115.710 Y99.356 E0.02658
G1 X116.439 Y98.887 E0.02717
G1 X116.839 Y98.666 E0.01436
G1 X117.376 Y98.408 E0.01866
G1 X118.170 Y98.104 E0.02667
G1 X118.770 Y97.556 E0.02545
G1 X119.474 Y97.018 E0.02779
G1 X120.180 Y96.571 E0.02619
G1 X120.875 Y96.209 E0.02459
G1 X121.571 Y95.916 E0.02368
G1 X122.174 Y95.710 E0.01996
G1 X122.797 Y95.543 E0.02024
G1 X123.615 Y95.391 E0.02608
G1 X124.180 Y95.325 E0.01784
G1 X124.838 Y95.293 E0.02065
G1 X125.649 Y95.312 E0.02544
G1 X126.308 Y95.378 E0.02077
G1 X126.964 Y95.491 E0.02085
G1 X127.671 Y95.664 E0.02284
G1 X128.308 Y95.871 E0.02099
G1 X129.025 Y96.165 E0.02430
G1 X129.582 Y96.439 E0.01947
G1 X130.206 Y96.803 E0.02263
G1 X130.762 Y97.184 E0.02113
G1 X131.291 Y97.604 E0.02118
G1 X131.851 Y98.120 E0.02389
G1 X132.314 Y98.614 E0.02122
G1 X132.765 Y99.170 E0.02244
G1 X133.153 Y99.726 E0.02126
G1 X133.501 Y100.308 E0.02129
G1 X133.824 Y100.947 E0.02242
G1 X134.097 Y101.606 E0.02237
G1 X134.313 Y102.251 E0.02134
G1 X134.483 Y102.911 E0.02137
G1 X134.614 Y103.642 E0.02327
G1 X134.684 Y104.290 E0.02046
G1 X134.710 Y104.974 E0.02144
G1 X134.666 Y105.922 E0.02976
G1 X134.594 Y106.477 E0.01756
G1 X134.793 Y107.217 E0.02402
G1 X134.886 Y107.693 E0.01521
G1 X134.991 Y108.552 E0.02715
G1 X135.022 Y109.549 E0.03126
G1 X134.999 Y110.048 E0.01566
G1 X134.626 Y110.735 E0.02452
G1 X134.292 Y111.264 E0.01963
G1 X133.930 Y111.774 E0.01960
G1 X133.539 Y112.262 E0.01960
G1 X133.121 Y112.727 E0.01960
G1 X132.734 Y113.114 E0.01718
G1 X132.328 Y113.481 E0.01715
G1 X131.904 Y113.827 E0.01715
G1 X131.464 Y114.152 E0.01715
G1 X131.009 Y114.455 E0.01715
G1 X130.540 Y114.736 E0.01715
G1 X130.057 Y114.995 E0.01718
G1 X129.472 Y115.267 E0.02022
G1 X128.546 Y115.626 E0.03113
G1 X128.021 Y115.788 E0.01723
G1 X127.492 Y115.924 E0.01715
G1 X126.956 Y116.035 E0.01715
G1 X126.415 Y116.119 E0.01715
G1 X125.871 Y116.176 E0.01716
G1 X125.325 Y116.205 E0.01716
G1 X124.786 Y116.208 E0.01689
G1 X124.249 Y116.183 E0.01687
G1 X123.713 Y116.133 E0.01687
G1 X123.180 Y116.057 E0.01686
G1 X122.652 Y115.955 E0.01687
G1 X122.127 Y115.828 E0.01695
G1 X121.104 Y115.502 E0.03366
G1 X120.114 Y115.081 E0.03373
G1 X119.234 Y114.607 E0.03134
G1 X118.753 Y114.304 E0.01784
G1 X118.296 Y113.982 E0.01750
G1 X117.860 Y113.642 E0.01734
G1 X117.445 Y113.282 E0.01724
G1 X117.063 Y112.916 E0.01659
G1 X116.698 Y112.531 E0.01663
G1 X116.351 Y112.127 E0.01668
G1 X115.951 Y111.606 E0.02061
G1 X115.431 Y110.825 E0.02941
G1 X115.163 Y110.358 E0.01689
G1 X114.695 Y109.390 E0.03369
G1 X114.492 Y108.883 E0.01714
G1 X114.315 Y108.369 E0.01705
G1 X114.163 Y107.847 E0.01703
G1 X114.036 Y107.320 E0.01701
G1 X113.935 Y106.787 E0.01700
G1 X113.860 Y106.250 E0.01699
G1 X113.812 Y105.711 E0.01698
G1 X113.792 Y105.184 E0.01653
G1 X113.797 Y104.657 E0.01653
G1 X113.833 Y104.071 E0.01840
G1 X113.960 Y103.089 E0.03106
G1 X114.064 Y102.569 E0.01661
G1 X114.206 Y102.006 E0.01821
G1 X114.524 Y101.034 E0.03206
G1 X114.732 Y100.522 E0.01735
G1 X115.013 Y99.928 E0.02060
G1 X114.921 Y99.491 F10800.000
G1 F8640
G1 X115.710 Y99.356 E-0.20820
G1 X116.439 Y98.887 E-0.20008
G1 X116.839 Y98.666 E-0.10575
G1 X117.376 Y98.408 E-0.13744
G1 X117.815 Y98.240 E-0.10853
G1 E-0.04000 F2100.00000
G1 Z0.800 F10800.000
G1 X110.587 Y96.679
G1 Z0.200
G1 E0.80000 F2100.00000
G1 F1200
G1 X125.000 Y88.357 E0.52182
G1 X139.413 Y96.679 E0.52182
G1 X139.413 Y113.321 E0.52182
G1 X125.000 Y121.643 E0.52182
G1 X110.587 Y113.321 E0.52182
G1 X110.587 Y96.739 E0.51994
G1 X110.210 Y96.461 F10800.000
G1 F1200
G1 X125.000 Y87.922 E0.53547
G1 X139.788 Y96.460 E0.53539
G1 X139.790 Y113.539 E0.53551
G1 X125.000 Y122.078 E0.53547
G1 X110.210 Y113.539 E0.53547
G1 X110.210 Y96.521 E0.53359
G1 X110.610 Y96.461 F10800.000
G1 F8640
G1 X113.055 Y94.867 E-0.76000
G1 E-0.04000 F2100.00000
G1 Z0.800 F10800.000
G1 X115.067 Y111.468
G1 Z0.200
G1 E0.80000 F2100.00000
G1 F1200
G1 X110.870 Y107.271 E0.18766
G1 X110.870 Y106.734 E0.01700
G1 X114.370 Y110.234 E0.15650
G1 X114.091 Y109.657 E0.02026
G1 X113.931 Y109.257 E0.01361
G1 X110.870 Y106.196 E0.13689
G1 X110.870 Y105.658 E0.01700
G1 X113.647 Y108.435 E0.12418
G1 X113.448 Y107.699 E0.02411
G1 X110.870 Y105.120 E0.11530
G1 X110.870 Y104.583 E0.01700
G1 X113.308 Y107.020 E0.10900
G1 X113.213 Y106.388 E0.02020
G1 X110.870 Y104.045 E0.10479
G1 X110.870 Y103.507 E0.01700
G1 X113.157 Y105.795 E0.10229
G1 X113.133 Y105.233 E0.01778
G1 X110.870 Y102.969 E0.10121
G1 X110.870 Y102.432 E0.01700
G1 X113.136 Y104.698 E0.10135
G1 X113.164 Y104.188 E0.01614
G1 X110.870 Y101.894 E0.10260
G1 X110.870 Y101.356 E0.01700
G1 X113.215 Y103.701 E0.10487
G1 X113.277 Y103.226 E0.01517
G1 X110.870 Y100.818 E0.10764
G1 X110.870 Y100.281 E0.01700
G1 X113.353 Y102.763 E0.11101
G1 X113.447 Y102.320 E0.01434
G1 X110.870 Y99.743 E0.11522
G1 X110.870 Y99.205 E0.01700
G1 X113.555 Y101.890 E0.12006
G1 X113.684 Y101.481 E0.01356
G1 X110.870 Y98.667 E0.12582
G1 X110.870 Y98.130 E0.01700
G1 X113.816 Y101.076 E0.13174
G1 X113.956 Y100.678 E0.01333
G1 X110.870 Y97.592 E0.13800
G1 X110.870 Y97.054 E0.01700
G1 X114.111 Y100.295 E0.14494
G1 X114.282 Y99.929 E0.01279
G1 X111.076 Y96.723 E0.14335
G1 X111.417 Y96.526 E0.01245
G1 X114.455 Y99.564 E0.13584
G1 X114.510 Y99.448 E0.00405
G1 X114.717 Y99.288 E0.00828
G1 X111.758 Y96.329 E0.13231
G1 X112.099 Y96.132 E0.01245
G1 X115.021 Y99.054 E0.13064
G1 X115.324 Y98.820 E0.01212
G1 X112.440 Y95.935 E0.12897
G1 X112.781 Y95.739 E0.01245
G1 X115.651 Y98.609 E0.12834
G1 X115.979 Y98.399 E0.01230
G1 X113.122 Y95.542 E0.12774
G1 X113.463 Y95.345 E0.01245
G1 X116.318 Y98.200 E0.12766
G1 X116.670 Y98.015 E0.01259
G1 X113.804 Y95.148 E0.12818
G1 X114.145 Y94.951 E0.01245
G1 X117.034 Y97.840 E0.12918
G1 X117.417 Y97.686 E0.01306
G1 X114.486 Y94.754 E0.13106
G1 X114.826 Y94.558 E0.01245
G1 X117.818 Y97.532 E0.13338
G1 X118.090 Y97.283 E0.01166
G1 X115.167 Y94.361 E0.13068
G1 X115.508 Y94.164 E0.01245
G1 X118.373 Y97.029 E0.12810
G1 X118.678 Y96.796 E0.01213
G1 X115.849 Y93.967 E0.12649
G1 X116.190 Y93.770 E0.01245
G1 X118.983 Y96.563 E0.12488
G1 X119.303 Y96.345 E0.01224
G1 X116.531 Y93.573 E0.12395
G1 X116.872 Y93.377 E0.01245
G1 X119.632 Y96.137 E0.12342
G1 X119.970 Y95.937 E0.01241
G1 X117.213 Y93.180 E0.12327
G1 X117.554 Y92.983 E0.01245
G1 X120.324 Y95.753 E0.12384
G1 X120.683 Y95.574 E0.01269
G1 X117.895 Y92.786 E0.12467
G1 X118.236 Y92.589 E0.01245
G1 X121.061 Y95.415 E0.12635
G1 X121.446 Y95.262 E0.01309
G1 X118.577 Y92.392 E0.12829
G1 X118.918 Y92.196 E0.01245
G1 X121.847 Y95.125 E0.13097
G1 X122.263 Y95.003 E0.01371
G1 X119.258 Y91.999 E0.13434
G1 X119.599 Y91.802 E0.01245
G1 X122.690 Y94.892 E0.13818
G1 X123.143 Y94.808 E0.01458
G1 X119.940 Y91.605 E0.14320
G1 X120.281 Y91.408 E0.01245
G1 X123.601 Y94.728 E0.14845
G1 X124.083 Y94.672 E0.01532
G1 X120.622 Y91.212 E0.15473
G1 X120.963 Y91.015 E0.01245
G1 X124.592 Y94.644 E0.16228
G1 X125.125 Y94.639 E0.01686
G1 X121.304 Y90.818 E0.17088
G1 X121.645 Y90.621 E0.01245
G1 X125.677 Y94.653 E0.18027
G1 X126.273 Y94.712 E0.01896
G1 X121.986 Y90.424 E0.19171
G1 X122.327 Y90.227 E0.01245
G1 X126.912 Y94.812 E0.20501
G1 X127.606 Y94.969 E0.02251
G1 X122.668 Y90.031 E0.22082
G1 X123.009 Y89.834 E0.01245
G1 X128.373 Y95.198 E0.23988
G1 X129.261 Y95.548 E0.03017
G1 X123.349 Y89.637 E0.26433
G1 X123.690 Y89.440 E0.01245
G1 X131.012 Y96.761 E0.32736
G1 F8640
G1 X128.684 Y94.434 E-0.76000
G1 E-0.04000 F2100.00000
G1 Z0.800 F10800.000
G1 X133.229 Y98.979
G1 Z0.200
G1 E0.80000 F2100.00000
G1 F1200
G1 X139.130 Y104.880 E0.26386
G1 X139.130 Y104.342 E0.01700
G1 X124.031 Y89.243 E0.67513
G1 X124.372 Y89.046 E0.01245
G1 X139.130 Y103.804 E0.65989
G1 X139.130 Y103.267 E0.01700
G1 X124.713 Y88.850 E0.64464
G1 X125.000 Y88.684 E0.01047
G1 X125.202 Y88.800 E0.00737
G1 X139.300 Y102.898 E0.63038
G1 X139.300 Y102.361 F10800.000
G1 F1200
G1 X126.011 Y89.071 E0.59422
G1 F8640
G1 X128.338 Y91.399 E-0.76000
G1 E-0.04000 F2100.00000
G1 Z0.800 F10800.000
G1 X127.283 Y89.806
G1 Z0.200
G1 E0.80000 F2100.00000
G1 F1200
G1 X139.300 Y101.823 E0.53733
G1 X139.300 Y101.285 F10800.000
G1 F1200
G1 X128.555 Y90.541 E0.48044
G1 F8640
G1 X130.883 Y92.868 E-0.76000
G1 E-0.04000 F2100.00000
G1 Z0.800 F10800.000
G1 X129.828 Y91.275
G1 Z0.200
G1 E0.80000 F2100.00000
G1 F1200
G1 X139.300 Y100.747 E0.42355
G1 X139.300 Y100.210 F10800.000
G1 F1200
G1 X131.100 Y92.010 E0.36665
G1 F8640
G1 X133.427 Y94.337 E-0.76000
G1 E-0.04000 F2100.00000
G1 Z0.800 F10800.000
G1 X132.372 Y92.744
G1 Z0.200
G1 E0.80000 F2100.00000
G1 F1200
G1 X139.300 Y99.672 E0.30976
G1 X139.300 Y99.134 F10800.000
G1 F1200
G1 X133.645 Y93.479 E0.25287
M73 Q2 S39
G1 F8640
G1 X135.972 Y95.806 E-0.76000
G1 E-0.04000 F2100.00000
G1 Z0.800 F10800.000
G1 X134.917 Y94.213
G1 Z0.200
G1 E0.80000 F2100.00000
M73 P2 R38
G1 F1200
G1 X139.300 Y98.596 E0.19598
G1 X139.300 Y98.059 F10800.000
G1 F1200
G1 X136.189 Y94.948 E0.13909
G1 F8640
G1 X138.517 Y97.275 E-0.76000
G1 E-0.04000 F2100.00000
G1 Z0.800 F10800.000
G1 X137.462 Y95.683
G1 Z0.200
G1 E0.80000 F2100.00000
G1 F1200
G1 X139.300 Y97.521 E0.08220
G1 F8640
G1 X137.462 Y95.683 E-0.60029
G1 E-0.19971 F2100.00000
G1 Z0.800 F10800.000
G1 X139.300 Y105.587
G1 Z0.200
G1 E0.80000 F2100.00000
G1 F1200
G1 X134.452 Y100.740 E0.21676
G1 X134.716 Y101.374 E0.02173
G1 X134.799 Y101.624 E0.00833
G1 X139.130 Y105.955 E0.19365
G1 X139.130 Y106.493 E0.01700
G1 X135.031 Y102.394 E0.18329
G1 X135.128 Y102.770 E0.01230
G1 X135.184 Y103.085 E0.01010
G1 X139.130 Y107.031 E0.17643
G1 X139.130 Y107.569 E0.01700
G1 X135.287 Y103.725 E0.17186
G1 X135.346 Y104.322 E0.01896
G1 X139.130 Y108.106 E0.16922
