; generated by PrusaSlicer 2.0.0+win64 on 2019-06-11 at 15:37:25

; 

; external perimeters extrusion width = 0.45mm
; perimeters extrusion width = 0.45mm
; infill extrusion width = 0.45mm
; solid infill extrusion width = 0.45mm
; top infill extrusion width = 0.40mm
; first layer extrusion width = 0.42mm

M73 P0 R17
M73 Q0 S17
M201 X1000 Y1000 Z1000 E5000 ; sets maximum accelerations, mm/sec^2
M203 X200 Y200 Z12 E120 ; sets maximum feedrates, mm/sec
M204 P1250 R1250 T1250 ; sets acceleration (P, T) and retract acceleration (R), mm/sec^2
M205 X8.00 Y8.00 Z0.40 E1.50 ; sets the jerk limits, mm/sec
M205 S0 T0 ; sets the minimum extruding and travel feed rate, mm/sec
M107
M115 U3.7.1 ; tell printer latest fw version
G90 ; use absolute coordinates
M83 ; extruder relative mode
M104 S215 ; set extruder temp
M140 S60 ; set bed temp
M190 S60 ; wait for bed temp
M109 S215 ; wait for extruder temp
G28 W ; home all without mesh bed level
G80 ; mesh bed leveling
G1 Y-3.0 F1000.0 ; go outside print area
G92 E0.0
G1 X60.0 E9.0 F1000.0 ; intro line
M73 Q0 S17
M73 P0 R17
G1 X100.0 E12.5 F1000.0 ; intro line
G92 E0.0
M221 S95
M900 K30 ; Filament gcode
G21 ; set units to millimeters
G90 ; use absolute coordinates
M83 ; use relative distances for extrusion
;BEFORE_LAYER_CHANGE
G92 E0.0
;0.2


G1 E-0.80000 F2100.00000
G1 Z0.600 F10800.000
;AFTER_LAYER_CHANGE
;0.2
G1 X104.266 Y87.941
G1 Z0.200
G1 E0.80000 F2100.00000
M204 S1000
G1 F1200
G1 X104.982 Y87.812 E0.02281
G1 X144.997 Y87.811 E1.25464
G1 X145.813 Y87.971 E0.02608
G1 X146.511 Y88.424 E0.02608
G1 X146.988 Y89.101 E0.02597
G1 X147.180 Y89.910 E0.02608
G1 X147.181 Y120.057 E0.94524
G1 X147.117 Y120.527 E0.01487
G1 X146.954 Y120.972 E0.01487
G1 X146.698 Y121.372 E0.01487
G1 X146.366 Y121.704 E0.01475
G1 X145.731 Y122.060 E0.02281
G1 X145.018 Y122.188 E0.02270
G1 X104.989 Y122.188 E1.25510
G1 X104.511 Y122.132 E0.01510
G1 X104.053 Y121.970 E0.01521
G1 X103.646 Y121.714 E0.01510
G1 X103.302 Y121.372 E0.01521
G1 X102.949 Y120.744 E0.02259
G1 X102.819 Y120.035 E0.02259
G1 X102.819 Y89.979 E0.94237
G1 X102.876 Y89.501 E0.01510
G1 X103.038 Y89.044 E0.01521
G1 X103.295 Y88.637 E0.01510
G1 X103.634 Y88.296 E0.01510
G1 X104.213 Y87.970 E0.02082
G1 F8640
G1 X104.982 Y87.812 E-0.18115
G1 X107.489 Y87.812 E-0.57885
G1 E-0.04000 F2100.00000
G1 Z0.800 F10800.000
G1 X113.081 Y111.122
G1 Z0.200
G1 E0.80000 F2100.00000
G1 F1200
G1 X113.488 Y110.975 E0.01357
G1 X113.894 Y110.913 E0.01288
G1 X114.316 Y110.934 E0.01326
G1 X114.726 Y111.040 E0.01326
G1 X115.106 Y111.226 E0.01326
G1 X115.440 Y111.485 E0.01326
G1 X115.715 Y111.806 E0.01326
G1 X115.921 Y112.176 E0.01326
G1 X116.047 Y112.579 E0.01326
G1 X116.090 Y113.000 E0.01326
G1 X116.047 Y113.421 E0.01326
G1 X115.921 Y113.824 E0.01326
G1 X115.715 Y114.194 E0.01326
G1 X115.440 Y114.515 E0.01326
G1 X115.106 Y114.774 E0.01326
G1 X114.726 Y114.960 E0.01326
G1 X114.317 Y115.066 E0.01326
G1 X113.894 Y115.087 E0.01326
G1 X113.476 Y115.023 E0.01326
G1 X113.080 Y114.877 E0.01326
G1 X112.721 Y114.653 E0.01326
G1 X112.414 Y114.361 E0.01326
G1 X112.173 Y114.014 E0.01326
G1 X112.006 Y113.626 E0.01326
G1 X111.921 Y113.211 E0.01326
G1 X111.921 Y112.789 E0.01326
G1 X112.006 Y112.374 E0.01326
G1 X112.173 Y111.986 E0.01326
G1 X112.414 Y111.639 E0.01326
G1 X112.721 Y111.347 E0.01326
G1 X113.030 Y111.154 E0.01144
G1 X113.230 Y111.474 F10800.000
G1 F1200
G1 X113.582 Y111.342 E0.01179
G1 X113.913 Y111.291 E0.01052
G1 X114.259 Y111.309 E0.01086
G1 X114.594 Y111.395 E0.01086
G1 X114.905 Y111.548 E0.01086
G1 X115.179 Y111.760 E0.01086
G1 X115.404 Y112.023 E0.01086
G1 X115.572 Y112.325 E0.01086
G1 X115.676 Y112.656 E0.01086
G1 X115.711 Y113.000 E0.01086
G1 X115.676 Y113.344 E0.01086
G1 X115.572 Y113.675 E0.01086
G1 X115.404 Y113.977 E0.01086
G1 X115.179 Y114.240 E0.01086
G1 X114.905 Y114.452 E0.01086
G1 X114.594 Y114.605 E0.01086
G1 X114.259 Y114.691 E0.01086
G1 X113.913 Y114.709 E0.01086
G1 X113.571 Y114.656 E0.01086
G1 X113.246 Y114.536 E0.01086
G1 X112.953 Y114.353 E0.01086
G1 X112.702 Y114.115 E0.01086
G1 X112.504 Y113.830 E0.01086
G1 X112.367 Y113.512 E0.01086
G1 X112.298 Y113.173 E0.01086
G1 X112.298 Y112.827 E0.01086
G1 X112.367 Y112.488 E0.01086
G1 X112.504 Y112.170 E0.01086
G1 X112.702 Y111.885 E0.01086
G1 X112.953 Y111.647 E0.01086
G1 X113.179 Y111.506 E0.00836
G1 X113.254 Y111.099 F10800.000
G1 F8640
G1 X113.582 Y111.342 E-0.10047
G1 X113.913 Y111.291 E-0.07745
G1 X114.259 Y111.309 E-0.07994
G1 X114.594 Y111.395 E-0.07994
G1 X114.905 Y111.548 E-0.07994
G1 X115.179 Y111.760 E-0.07994
G1 X115.404 Y112.023 E-0.07994
G1 X115.572 Y112.325 E-0.07994
G1 X115.676 Y112.656 E-0.07994
G1 X115.686 Y112.752 E-0.02249
G1 E-0.04000 F2100.00000
G1 Z0.800 F10800.000
G1 X113.894 Y99.087
G1 Z0.200
G1 E0.80000 F2100.00000
G1 F1200
G1 X113.476 Y99.023 E0.01326
G1 X113.080 Y98.877 E0.01326
G1 X112.721 Y98.653 E0.01326
G1 X112.414 Y98.361 E0.01326
G1 X112.173 Y98.014 E0.01326
G1 X112.006 Y97.626 E0.01326
G1 X111.921 Y97.211 E0.01326
G1 X111.921 Y96.789 E0.01326
G1 X112.006 Y96.374 E0.01326
G1 X112.173 Y95.986 E0.01326
G1 X112.414 Y95.639 E0.01326
G1 X112.721 Y95.347 E0.01326
G1 X113.081 Y95.122 E0.01332
G1 X113.488 Y94.975 E0.01357
G1 X113.894 Y94.913 E0.01288
G1 X114.317 Y94.934 E0.01326
G1 X114.726 Y95.040 E0.01326
G1 X115.106 Y95.226 E0.01326
G1 X115.440 Y95.485 E0.01326
G1 X115.715 Y95.806 E0.01326
G1 X115.921 Y96.176 E0.01326
G1 X116.047 Y96.579 E0.01326
G1 X116.090 Y97.000 E0.01326
G1 X116.047 Y97.421 E0.01326
G1 X115.921 Y97.824 E0.01326
G1 X115.715 Y98.194 E0.01326
G1 X115.440 Y98.515 E0.01326
G1 X115.106 Y98.774 E0.01326
G1 X114.726 Y98.960 E0.01326
G1 X114.316 Y99.066 E0.01326
G1 X113.954 Y99.084 E0.01138
G1 X113.935 Y98.708 F10800.000
G1 F1200
G1 X113.571 Y98.656 E0.01152
G1 X113.246 Y98.536 E0.01086
G1 X112.953 Y98.353 E0.01086
G1 X112.702 Y98.115 E0.01086
G1 X112.504 Y97.830 E0.01086
G1 X112.367 Y97.512 E0.01086
G1 X112.298 Y97.173 E0.01086
G1 X112.298 Y96.827 E0.01086
G1 X112.367 Y96.488 E0.01086
G1 X112.504 Y96.170 E0.01086
G1 X112.702 Y95.885 E0.01086
G1 X112.953 Y95.647 E0.01086
G1 X113.247 Y95.463 E0.01088
G1 X113.582 Y95.342 E0.01117
G1 X113.913 Y95.291 E0.01052
G1 X114.259 Y95.309 E0.01086
G1 X114.594 Y95.395 E0.01086
G1 X114.905 Y95.548 E0.01086
G1 X115.179 Y95.760 E0.01086
G1 X115.404 Y96.023 E0.01086
G1 X115.572 Y96.325 E0.01086
G1 X115.676 Y96.656 E0.01086
G1 X115.711 Y97.000 E0.01086
G1 X115.676 Y97.344 E0.01086
G1 X115.572 Y97.675 E0.01086
G1 X115.404 Y97.977 E0.01086
G1 X115.179 Y98.240 E0.01086
G1 X114.905 Y98.452 E0.01086
G1 X114.594 Y98.605 E0.01086
G1 X114.259 Y98.691 E0.01086
G1 X113.995 Y98.705 E0.00830
G1 X113.738 Y99.018 F10800.000
G1 F8640
G1 X113.571 Y98.656 E-0.09848
G1 X113.246 Y98.536 E-0.07994
G1 X112.953 Y98.353 E-0.07994
G1 X112.702 Y98.115 E-0.07994
G1 X112.504 Y97.830 E-0.07994
G1 X112.367 Y97.512 E-0.07994
G1 X112.298 Y97.173 E-0.07994
G1 X112.298 Y96.827 E-0.07994
G1 X112.367 Y96.488 E-0.07994
G1 X112.405 Y96.400 E-0.02198
G1 E-0.04000 F2100.00000
G1 Z0.800 F10800.000
G1 X121.556 Y90.587
G1 Z0.200
G1 E0.80000 F2100.00000
G1 F1200
G1 X121.556 Y119.413 E0.90381
G1 X105.594 Y119.413 E0.50047
G1 X105.594 Y90.587 E0.90381
G1 X121.496 Y90.587 E0.49859
G1 X121.933 Y90.210 F10800.000
G1 F1200
G1 X121.933 Y119.790 E0.92746
G1 X105.217 Y119.790 E0.52411
G1 X105.217 Y90.210 E0.92746
G1 X121.873 Y90.210 E0.52223
G1 X121.865 Y90.604 F10800.000
G1 F8640
G1 X121.880 Y93.501 E-0.76000
G1 E-0.04000 F2100.00000
G1 Z0.800 F10800.000
G1 X121.443 Y91.465
G1 Z0.200
G1 E0.80000 F2100.00000
G1 F1200
G1 X120.848 Y90.870 E0.02648
G1 X120.312 Y90.870 E0.01683
G1 X121.273 Y91.831 E0.04274
G1 X121.273 Y92.366 E0.01683
G1 X119.777 Y90.870 E0.06655
G1 X119.242 Y90.870 E0.01683
G1 X121.273 Y92.901 E0.09035
G1 X121.273 Y93.436 E0.01683
G1 X118.707 Y90.870 E0.11416
G1 X118.172 Y90.870 E0.01683
G1 X121.273 Y93.971 E0.13796
G1 X121.273 Y94.506 E0.01683
G1 X117.637 Y90.870 E0.16177
G1 X117.102 Y90.870 E0.01683
G1 X121.273 Y95.041 E0.18557
G1 X121.273 Y95.576 E0.01683
G1 X116.567 Y90.870 E0.20938
G1 X116.032 Y90.870 E0.01683
G1 X121.273 Y96.111 E0.23319
G1 X121.273 Y96.646 E0.01683
G1 X115.497 Y90.870 E0.25699
G1 X114.962 Y90.870 E0.01683
G1 X121.273 Y97.181 E0.28080
G1 X121.273 Y97.716 E0.01683
G1 X114.427 Y90.870 E0.30460
G1 X113.892 Y90.870 E0.01683
G1 X121.273 Y98.251 E0.32841
G1 X121.273 Y98.786 E0.01683
G1 X113.357 Y90.870 E0.35221
G1 X112.822 Y90.870 E0.01683
G1 X121.273 Y99.321 E0.37602
G1 X121.273 Y99.857 E0.01683
G1 X112.286 Y90.870 E0.39982
G1 X111.751 Y90.870 E0.01683
G1 X121.273 Y100.392 E0.42363
G1 X121.273 Y100.927 E0.01683
G1 X111.216 Y90.870 E0.44744
G1 X110.681 Y90.870 E0.01683
G1 X114.501 Y94.690 E0.16995
G1 X114.360 Y94.653 E0.00460
G1 X113.906 Y94.630 E0.01427
G1 X110.146 Y90.870 E0.16729
G1 X109.611 Y90.870 E0.01683
G1 X113.438 Y94.696 E0.17025
G1 X113.042 Y94.836 E0.01320
G1 X109.076 Y90.870 E0.17645
G1 X108.541 Y90.870 E0.01683
G1 X112.699 Y95.028 E0.18498
G1 X112.547 Y95.122 E0.00564
G1 X112.399 Y95.263 E0.00641
G1 X108.006 Y90.870 E0.19545
G1 X107.471 Y90.870 E0.01683
G1 X112.139 Y95.538 E0.20770
G1 X111.921 Y95.855 E0.01210
G1 X106.936 Y90.870 E0.22179
G1 X106.401 Y90.870 E0.01683
G1 X111.760 Y96.229 E0.23845
G1 X111.658 Y96.662 E0.01399
G1 X105.877 Y90.881 E0.25720
G1 X105.877 Y91.416 E0.01683
G1 X111.638 Y97.177 E0.25630
G1 X111.735 Y97.711 E0.01706
G1 X111.808 Y97.883 E0.00588
G1 X105.877 Y91.951 E0.26389
G1 X105.877 Y92.486 E0.01683
G1 X121.273 Y107.883 E0.68499
G1 X121.273 Y107.347 E0.01683
G1 X113.118 Y99.192 E0.36283
G1 X113.405 Y99.299 E0.00962
G1 X113.823 Y99.363 E0.01332
G1 X121.273 Y106.812 E0.33144
G1 X121.273 Y106.277 E0.01683
G1 X114.344 Y99.348 E0.30830
G1 X114.771 Y99.240 E0.01387
G1 X121.273 Y105.742 E0.28927
G1 X121.273 Y105.207 E0.01683
G1 X115.139 Y99.073 E0.27293
G1 X115.256 Y99.015 E0.00411
G1 X115.459 Y98.858 E0.00807
G1 X121.273 Y104.672 E0.25868
G1 X121.273 Y104.137 E0.01683
G1 X115.738 Y98.602 E0.24626
G1 X115.977 Y98.306 E0.01197
G1 X121.273 Y103.602 E0.23563
G1 X121.273 Y103.067 E0.01683
G1 X116.168 Y97.962 E0.22714
G1 X116.300 Y97.559 E0.01333
G1 X121.273 Y102.532 E0.22125
G1 X121.273 Y101.997 E0.01683
G1 X116.365 Y97.089 E0.21835
G1 X116.374 Y97.000 E0.00281
G1 X116.322 Y96.511 E0.01548
G1 X121.443 Y101.631 E0.22782
G1 F8640
G1 X119.115 Y99.304 E-0.76000
G1 E-0.04000 F2100.00000
G1 Z0.800 F10800.000
G1 X121.443 Y108.587
G1 Z0.200
G1 E0.80000 F2100.00000
G1 F1200
G1 X105.877 Y93.021 E0.69254
G1 X105.877 Y93.557 E0.01683
G1 X121.273 Y108.953 E0.68499
G1 X121.273 Y109.488 E0.01683
G1 X105.877 Y94.092 E0.68499
G1 X105.877 Y94.627 E0.01683
G1 X121.273 Y110.023 E0.68499
G1 X121.273 Y110.558 E0.01683
G1 X105.877 Y95.162 E0.68499
G1 X105.877 Y95.697 E0.01683
G1 X121.273 Y111.093 E0.68499
G1 X121.273 Y111.628 E0.01683
G1 X105.877 Y96.232 E0.68499
G1 X105.877 Y96.767 E0.01683
G1 X121.273 Y112.163 E0.68499
G1 X121.273 Y112.698 E0.01683
G1 X105.877 Y97.302 E0.68499
G1 X105.877 Y97.837 E0.01683
G1 X121.273 Y113.233 E0.68499
G1 X121.273 Y113.768 E0.01683
G1 X105.877 Y98.372 E0.68499
G1 X105.877 Y98.907 E0.01683
G1 X121.273 Y114.303 E0.68499
G1 X121.273 Y114.838 E0.01683
G1 X105.877 Y99.442 E0.68499
G1 X105.877 Y99.977 E0.01683
G1 X121.273 Y115.373 E0.68499
M73 Q6 S16
G1 X121.273 Y115.909 E0.01683
G1 X105.877 Y100.512 E0.68499
M73 P6 R16
G1 X105.877 Y101.047 E0.01683
G1 X121.273 Y116.444 E0.68499
G1 X121.273 Y116.979 E0.01683
G1 X105.877 Y101.583 E0.68499
G1 X105.877 Y102.118 E0.01683
G1 X114.431 Y110.672 E0.38057
G1 X114.360 Y110.653 E0.00232
G1 X113.857 Y110.632 E0.01584
G1 X105.877 Y102.653 E0.35502
G1 X105.877 Y103.188 E0.01683
G1 X113.396 Y110.707 E0.33455
G1 X113.004 Y110.850 E0.01314
G1 X105.877 Y103.723 E0.31708
G1 X105.877 Y104.258 E0.01683
G1 X112.667 Y111.048 E0.30208
G1 X112.547 Y111.122 E0.00445
G1 X112.372 Y111.288 E0.00757
G1 X105.877 Y104.793 E0.28898
G1 X105.877 Y105.328 E0.01683
G1 X112.118 Y111.569 E0.27767
G1 X111.905 Y111.891 E0.01215
G1 X105.877 Y105.863 E0.26820
G1 X105.877 Y106.398 E0.01683
G1 X111.745 Y112.266 E0.26106
G1 X111.649 Y112.705 E0.01415
G1 X105.877 Y106.933 E0.25680
G1 X105.877 Y107.468 E0.01683
G1 X111.853 Y113.444 E0.26588
G1 F8640
G1 X109.526 Y111.117 E-0.76000
G1 E-0.04000 F2100.00000
G1 Z0.800 F10800.000
G1 X113.559 Y115.151
G1 Z0.200
G1 E0.80000 F2100.00000
G1 F1200
G1 X117.539 Y119.130 E0.17706
G1 X118.074 Y119.130 E0.01683
G1 X114.294 Y115.350 E0.16817
G1 X114.730 Y115.251 E0.01406
G1 X118.609 Y119.130 E0.17258
G1 X119.144 Y119.130 E0.01683
G1 X115.104 Y115.090 E0.17976
G1 X115.256 Y115.015 E0.00534
G1 X115.430 Y114.881 E0.00691
G1 X119.679 Y119.130 E0.18907
G1 X120.214 Y119.130 E0.01683
G1 X115.714 Y114.630 E0.20022
G1 X115.958 Y114.339 E0.01195
G1 X120.749 Y119.130 E0.21315
G1 X121.273 Y119.130 E0.01648
G1 X116.149 Y113.995 E0.22821
G1 X116.288 Y113.599 E0.01321
G1 X121.273 Y118.584 E0.22180
G1 X121.273 Y118.049 E0.01683
G1 X116.361 Y113.136 E0.21857
G1 X116.374 Y113.000 E0.00431
G1 X116.331 Y112.571 E0.01356
G1 X121.443 Y117.683 E0.22744
G1 F8640
G1 X119.115 Y115.356 E-0.76000
G1 E-0.04000 F2100.00000
G1 Z0.800 F10800.000
G1 X117.174 Y119.300
G1 Z0.200
G1 E0.80000 F2100.00000
G1 F1200
G1 X105.877 Y108.003 E0.50259
G1 X105.877 Y108.538 E0.01683
G1 X116.469 Y119.130 E0.47124
G1 X115.934 Y119.130 E0.01683
G1 X105.877 Y109.073 E0.44743
G1 X105.877 Y109.609 E0.01683
G1 X115.399 Y119.130 E0.42363
G1 X114.864 Y119.130 E0.01683
G1 X105.877 Y110.144 E0.39982
G1 X105.877 Y110.679 E0.01683
G1 X114.329 Y119.130 E0.37601
G1 X113.793 Y119.130 E0.01683
G1 X105.877 Y111.214 E0.35221
G1 X105.877 Y111.749 E0.01683
G1 X113.258 Y119.130 E0.32840
G1 X112.723 Y119.130 E0.01683
G1 X105.877 Y112.284 E0.30460
G1 X105.877 Y112.819 E0.01683
G1 X112.188 Y119.130 E0.28079
G1 X111.653 Y119.130 E0.01683
G1 X105.877 Y113.354 E0.25699
G1 X105.877 Y113.889 E0.01683
G1 X111.118 Y119.130 E0.23318
G1 X110.583 Y119.130 E0.01683
G1 X105.877 Y114.424 E0.20938
G1 X105.877 Y114.959 E0.01683
G1 X110.048 Y119.130 E0.18557
G1 X109.513 Y119.130 E0.01683
G1 X105.877 Y115.494 E0.16176
G1 X105.877 Y116.029 E0.01683
G1 X108.978 Y119.130 E0.13796
G1 X108.443 Y119.130 E0.01683
G1 X105.877 Y116.564 E0.11415
G1 X105.877 Y117.099 E0.01683
G1 X107.908 Y119.130 E0.09035
G1 X107.373 Y119.130 E0.01683
G1 X105.877 Y117.635 E0.06654
G1 X105.877 Y118.170 E0.01683
G1 X106.838 Y119.130 E0.04274
G1 X106.303 Y119.130 E0.01683
G1 X105.707 Y118.535 E0.02648
G1 F8640
G1 X106.303 Y119.130 E-0.19435
G1 X106.838 Y119.130 E-0.12355
G1 X105.877 Y118.170 E-0.31367
G1 X105.877 Y117.635 E-0.12355
G1 X105.892 Y117.649 E-0.00489
G1 E-0.04000 F2100.00000
G1 Z0.800 F10800.000
G1 X133.921 Y113.211
G1 Z0.200
G1 E0.80000 F2100.00000
G1 F1200
G1 X133.921 Y112.789 E0.01326
G1 X134.006 Y112.374 E0.01326
G1 X134.173 Y111.986 E0.01326
G1 X134.414 Y111.639 E0.01326
G1 X134.721 Y111.347 E0.01326
G1 X135.080 Y111.123 E0.01326
G1 X135.476 Y110.977 E0.01326
G1 X135.882 Y110.914 E0.01288
G1 X136.315 Y110.934 E0.01357
G1 X136.726 Y111.040 E0.01332
G1 X137.106 Y111.226 E0.01326
G1 X137.440 Y111.485 E0.01326
G1 X137.715 Y111.806 E0.01326
G1 X137.921 Y112.176 E0.01326
G1 X138.047 Y112.579 E0.01326
G1 X138.090 Y113.000 E0.01326
G1 X138.047 Y113.421 E0.01326
G1 X137.921 Y113.824 E0.01326
G1 X137.715 Y114.194 E0.01326
G1 X137.440 Y114.515 E0.01326
G1 X137.106 Y114.774 E0.01326
G1 X136.726 Y114.960 E0.01326
G1 X136.317 Y115.066 E0.01326
G1 X135.894 Y115.087 E0.01326
G1 X135.476 Y115.023 E0.01326
G1 X135.080 Y114.877 E0.01326
G1 X134.721 Y114.653 E0.01326
G1 X134.414 Y114.361 E0.01326
G1 X134.173 Y114.014 E0.01326
G1 X134.006 Y113.626 E0.01326
G1 X133.933 Y113.270 E0.01138
G1 X134.302 Y113.194 F10800.000
G1 F1200
G1 X134.298 Y112.827 E0.01152
G1 X134.367 Y112.488 E0.01086
G1 X134.504 Y112.170 E0.01086
G1 X134.702 Y111.885 E0.01086
G1 X134.953 Y111.647 E0.01086
G1 X135.246 Y111.464 E0.01086
G1 X135.571 Y111.344 E0.01086
G1 X135.903 Y111.293 E0.01052
G1 X136.258 Y111.308 E0.01117
G1 X136.594 Y111.395 E0.01088
G1 X136.905 Y111.548 E0.01086
G1 X137.179 Y111.760 E0.01086
G1 X137.404 Y112.023 E0.01086
G1 X137.572 Y112.325 E0.01086
G1 X137.676 Y112.656 E0.01086
