; generated by PrusaSlicer 2.0.0+win64 on 2019-09-10 at 10:51:13

; 

; external perimeters extrusion width = 0.45mm
; perimeters extrusion width = 0.45mm
; infill extrusion width = 0.45mm
; solid infill extrusion width = 0.45mm
; top infill extrusion width = 0.40mm
; first layer extrusion width = 0.42mm

M73 P0 R49
M73 Q0 S50
M201 X1000 Y1000 Z1000 E5000 ; sets maximum accelerations, mm/sec^2
M203 X200 Y200 Z12 E120 ; sets maximum feedrates, mm/sec
M204 P1250 R1250 T1250 ; sets acceleration (P, T) and retract acceleration (R), mm/sec^2
M205 X8.00 Y8.00 Z0.40 E1.50 ; sets the jerk limits, mm/sec
M205 S0 T0 ; sets the minimum extruding and travel feed rate, mm/sec
M107
M115 U3.7.2 ; tell printer latest fw version
G90 ; use absolute coordinates
M83 ; extruder relative mode
M104 S215 ; set extruder temp
M140 S60 ; set bed temp
M190 S60 ; wait for bed temp
M109 S215 ; wait for extruder temp
G28 W ; home all without mesh bed level
G80 ; mesh bed leveling
G1 Y-3.0 F1000.0 ; go outside print area
G92 E0.0
G1 X60.0 E9.0 F1000.0 ; intro line
M73 Q0 S50
M73 P0 R49
G1 X100.0 E12.5 F1000.0 ; intro line
G92 E0.0
M221 S95
M900 K30 ; Filament gcode
G21 ; set units to millimeters
G90 ; use absolute coordinates
M83 ; use relative distances for extrusion
;BEFORE_LAYER_CHANGE
G92 E0.0
;0.2


G1 E-0.80000 F2100.00000
G1 Z0.600 F10800.000
;AFTER_LAYER_CHANGE
;0.2
G1 X146.479 Y101.987
G1 Z0.200
G1 E0.80000 F2100.00000
M204 S1000
G1 F1200
G1 X146.995 Y101.708 E0.01838
G1 X147.648 Y101.516 E0.02136
G1 X171.234 Y98.232 E0.74665
G1 X172.267 Y98.437 E0.03303
G1 X172.764 Y98.674 E0.01724
G1 X173.262 Y99.038 E0.01935
G1 X173.683 Y99.493 E0.01943
G1 X173.983 Y99.974 E0.01779
G1 X174.296 Y100.960 E0.03243
G1 X174.436 Y126.071 E0.78733
G1 X174.324 Y126.768 E0.02215
G1 X170.228 Y140.033 E0.43527
G1 X169.472 Y141.748 E0.05879
G1 X168.484 Y143.299 E0.05765
G1 X167.188 Y144.772 E0.06153
G1 X165.885 Y145.870 E0.05341
G1 X165.055 Y146.427 E0.03136
G1 X163.321 Y147.308 E0.06096
G1 X162.440 Y147.633 E0.02945
G1 X160.789 Y148.047 E0.05338
G1 X134.861 Y151.377 E0.81963
G1 X133.794 Y151.272 E0.03363
G1 X133.239 Y151.064 E0.01859
G1 X132.722 Y150.748 E0.01900
G1 X132.178 Y150.231 E0.02353
G1 X131.788 Y149.636 E0.02228
G1 X131.534 Y148.953 E0.02285
G1 X131.443 Y148.280 E0.02131
G1 X131.441 Y123.682 E0.77125
G1 X131.547 Y122.878 E0.02542
G1 X131.780 Y122.261 E0.02068
G1 X132.091 Y121.768 E0.01828
G1 X145.712 Y102.709 E0.73450
G1 X146.436 Y102.028 E0.03115
G1 F8640
G1 X146.995 Y101.708 E-0.14880
G1 X147.648 Y101.516 E-0.15727
G1 X149.595 Y101.245 E-0.45393
G1 E-0.04000 F2100.00000
G1 Z0.800 F10800.000
G1 X135.043 Y126.840
G1 Z0.200
G1 E0.80000 F2100.00000
G1 F1200
G1 X154.031 Y126.857 E0.59535
G1 X158.615 Y126.841 E0.14373
G1 X159.486 Y126.896 E0.02738
G1 X160.170 Y126.987 E0.02161
G1 X160.842 Y127.129 E0.02156
G1 X161.502 Y127.322 E0.02156
G1 X162.146 Y127.563 E0.02156
G1 X162.769 Y127.853 E0.02156
G1 X163.369 Y128.190 E0.02156
G1 X163.941 Y128.570 E0.02156
G1 X164.484 Y128.993 E0.02156
G1 X164.992 Y129.456 E0.02156
G1 X165.464 Y129.955 E0.02156
G1 X165.897 Y130.489 E0.02156
G1 X166.289 Y131.054 E0.02156
G1 X166.636 Y131.648 E0.02156
G1 X166.938 Y132.265 E0.02156
G1 X167.192 Y132.904 E0.02156
G1 X167.397 Y133.561 E0.02156
G1 X167.552 Y134.230 E0.02156
G1 X167.655 Y134.910 E0.02156
G1 X167.707 Y135.596 E0.02156
G1 X167.707 Y136.283 E0.02156
G1 X167.655 Y136.969 E0.02156
G1 X167.552 Y137.648 E0.02156
G1 X167.397 Y138.318 E0.02156
G1 X167.192 Y138.974 E0.02156
G1 X166.938 Y139.613 E0.02156
G1 X166.636 Y140.231 E0.02156
G1 X166.289 Y140.824 E0.02156
G1 X165.897 Y141.389 E0.02156
G1 X165.464 Y141.923 E0.02156
G1 X164.992 Y142.423 E0.02156
G1 X164.484 Y142.886 E0.02156
G1 X163.941 Y143.308 E0.02156
G1 X163.369 Y143.689 E0.02156
G1 X162.579 Y144.114 E0.02813
G1 X162.146 Y144.315 E0.01497
G1 X161.502 Y144.557 E0.02156
G1 X160.842 Y144.750 E0.02156
G1 X160.170 Y144.892 E0.02156
G1 X159.486 Y144.983 E0.02161
G1 X158.615 Y145.038 E0.02738
G1 X154.035 Y145.021 E0.14361
G1 X135.063 Y145.038 E0.59485
G1 X135.063 Y148.156 E0.09777
G1 X135.048 Y148.283 E0.00399
G1 X134.967 Y148.451 E0.00586
G1 X134.821 Y148.567 E0.00588
G1 X134.641 Y148.608 E0.00578
G1 X134.455 Y148.565 E0.00596
G1 X134.312 Y148.451 E0.00575
G1 X134.262 Y148.371 E0.00295
G1 X134.217 Y148.156 E0.00689
G1 X134.217 Y123.725 E0.76603
G1 X134.233 Y123.591 E0.00421
G1 X134.324 Y123.418 E0.00613
G1 X134.398 Y123.353 E0.00309
G1 X134.579 Y123.284 E0.00609
G1 X134.683 Y123.284 E0.00324
G1 X134.862 Y123.353 E0.00602
G1 X134.936 Y123.418 E0.00309
G1 X135.027 Y123.591 E0.00613
G1 X135.043 Y123.725 E0.00421
G1 X135.043 Y126.780 E0.09581
G1 X135.420 Y126.464 F10800.000
G1 F1200
G1 X154.030 Y126.480 E0.58351
G1 X158.626 Y126.464 E0.14410
G1 X159.523 Y126.520 E0.02819
G1 X160.234 Y126.615 E0.02247
G1 X160.934 Y126.763 E0.02245
G1 X161.622 Y126.964 E0.02245
G1 X162.292 Y127.216 E0.02245
G1 X162.941 Y127.517 E0.02245
G1 X163.566 Y127.868 E0.02245
G1 X164.162 Y128.264 E0.02245
G1 X164.339 Y128.402 E0.00703
G1 X164.727 Y128.704 E0.01542
G1 X165.256 Y129.186 E0.02245
G1 X165.748 Y129.707 E0.02245
G1 X166.199 Y130.263 E0.02245
G1 X166.607 Y130.852 E0.02245
G1 X166.969 Y131.469 E0.02245
G1 X167.283 Y132.113 E0.02245
G1 X167.547 Y132.778 E0.02245
G1 X167.761 Y133.462 E0.02245
G1 X167.922 Y134.159 E0.02245
G1 X168.030 Y134.867 E0.02245
G1 X168.084 Y135.581 E0.02245
G1 X168.084 Y136.297 E0.02245
G1 X168.030 Y137.011 E0.02245
G1 X167.922 Y137.719 E0.02245
G1 X167.761 Y138.417 E0.02245
G1 X167.547 Y139.100 E0.02245
G1 X167.283 Y139.766 E0.02245
G1 X166.969 Y140.409 E0.02245
G1 X166.607 Y141.027 E0.02245
G1 X166.199 Y141.616 E0.02245
G1 X165.748 Y142.172 E0.02245
G1 X165.256 Y142.692 E0.02245
G1 X164.727 Y143.174 E0.02245
G1 X164.162 Y143.615 E0.02245
G1 X163.566 Y144.011 E0.02245
G1 X162.941 Y144.361 E0.02245
G1 X162.292 Y144.663 E0.02245
G1 X161.622 Y144.915 E0.02245
G1 X160.934 Y145.116 E0.02245
G1 X160.234 Y145.264 E0.02245
G1 X159.523 Y145.358 E0.02247
G1 X158.626 Y145.415 E0.02819
G1 X154.034 Y145.398 E0.14397
G1 X135.440 Y145.415 E0.58302
G1 X135.440 Y148.177 E0.08662
G1 X135.418 Y148.367 E0.00599
G1 X135.359 Y148.536 E0.00562
G1 X135.264 Y148.688 E0.00562
G1 X135.137 Y148.814 E0.00562
G1 X134.985 Y148.909 E0.00562
G1 X134.820 Y148.967 E0.00548
G1 X134.642 Y148.988 E0.00563
G1 X134.464 Y148.968 E0.00560
G1 X134.291 Y148.907 E0.00577
G1 X134.143 Y148.814 E0.00547
G1 X134.016 Y148.688 E0.00562
G1 X133.921 Y148.536 E0.00562
G1 X133.861 Y148.367 E0.00562
G1 X133.840 Y148.177 E0.00599
G1 X133.840 Y123.702 E0.76741
G1 X133.864 Y123.501 E0.00636
G1 X133.932 Y123.323 E0.00596
G1 X134.040 Y123.166 E0.00596
G1 X134.182 Y123.040 E0.00596
G1 X134.350 Y122.952 E0.00596
G1 X134.534 Y122.907 E0.00594
G1 X134.729 Y122.908 E0.00611
G1 X134.910 Y122.952 E0.00582
G1 X135.078 Y123.040 E0.00596
G1 X135.220 Y123.166 E0.00596
G1 X135.328 Y123.323 E0.00596
G1 X135.395 Y123.501 E0.00596
G1 X135.420 Y123.702 E0.00636
G1 X135.420 Y126.404 E0.08471
G1 X135.421 Y126.864 F10800.000
G1 F8640
G1 X138.711 Y126.417 E-0.76000
G1 E-0.04000 F2100.00000
G1 Z0.800 F10800.000
G1 X134.442 Y123.474
G1 Z0.200
G1 E0.80000 F2100.00000
G1 F1200
G1 X134.760 Y123.792 E0.01418
G1 X134.760 Y124.329 E0.01696
G1 X134.500 Y124.068 E0.01162
G1 X134.500 Y124.606 E0.01696
G1 X134.760 Y124.866 E0.01162
G1 X134.760 Y125.403 E0.01696
G1 X134.500 Y125.143 E0.01162
G1 X134.500 Y125.680 E0.01696
G1 X134.760 Y125.940 E0.01162
G1 X134.760 Y126.477 E0.01696
G1 X134.500 Y126.217 E0.01162
G1 X134.500 Y126.754 E0.01696
G1 X152.486 Y144.740 E0.80316
G1 X153.023 Y144.739 E0.01694
G1 X135.407 Y127.124 E0.78662
G1 X135.944 Y127.124 E0.01697
G1 X153.559 Y144.739 E0.78658
G1 X154.096 Y144.739 E0.01695
G1 X136.482 Y127.124 E0.78655
G1 X137.019 Y127.125 E0.01697
G1 X154.635 Y144.741 E0.78661
G1 X155.174 Y144.743 E0.01702
G1 X137.557 Y127.125 E0.78668
G1 X138.094 Y127.126 E0.01697
G1 X155.713 Y144.744 E0.78674
G1 X156.252 Y144.746 E0.01702
G1 X138.632 Y127.126 E0.78681
G1 X139.169 Y127.127 E0.01697
G1 X156.791 Y144.748 E0.78687
G1 X157.330 Y144.750 E0.01702
G1 X139.707 Y127.127 E0.78694
G1 X140.244 Y127.128 E0.01697
G1 X157.869 Y144.752 E0.78700
G1 X158.408 Y144.754 E0.01702
G1 X140.782 Y127.128 E0.78707
G1 X141.319 Y127.129 E0.01697
G1 X158.925 Y144.735 E0.78618
G1 X159.430 Y144.703 E0.01598
G1 X141.857 Y127.129 E0.78473
G1 X142.394 Y127.130 E0.01697
G1 X159.906 Y144.641 E0.78197
G1 X160.363 Y144.562 E0.01466
G1 X142.932 Y127.130 E0.77839
G1 X143.469 Y127.131 E0.01697
G1 X160.805 Y144.466 E0.77409
G1 X161.220 Y144.345 E0.01367
G1 X144.007 Y127.131 E0.76865
G1 X144.544 Y127.132 E0.01697
G1 X161.622 Y144.210 E0.76261
G1 X162.013 Y144.063 E0.01317
G1 X145.082 Y127.132 E0.75603
G1 X145.619 Y127.133 E0.01697
G1 X162.381 Y143.894 E0.74846
G1 X162.741 Y143.717 E0.01267
G1 X146.157 Y127.133 E0.74054
G1 X146.694 Y127.134 E0.01697
G1 X163.085 Y143.524 E0.73190
G1 X163.416 Y143.318 E0.01231
G1 X147.232 Y127.134 E0.72269
G1 X147.769 Y127.134 E0.01697
G1 X163.739 Y143.104 E0.71309
G1 X164.043 Y142.871 E0.01210
G1 X148.307 Y127.135 E0.70267
G1 X148.844 Y127.135 E0.01697
G1 X164.341 Y142.633 E0.69201
G1 X164.623 Y142.377 E0.01200
G1 X149.382 Y127.136 E0.68056
G1 X149.919 Y127.136 E0.01697
G1 X164.896 Y142.113 E0.66877
M73 Q2 S49
M73 P2 R48
G1 X165.157 Y141.837 E0.01200
G1 X150.457 Y127.137 E0.65641
G1 X150.994 Y127.137 E0.01697
G1 X165.405 Y141.548 E0.64348
G1 X165.645 Y141.251 E0.01206
G1 X151.532 Y127.138 E0.63022
G1 X152.069 Y127.138 E0.01697
G1 X165.867 Y140.936 E0.61612
G1 X166.083 Y140.615 E0.01222
G1 X152.607 Y127.139 E0.60177
G1 X153.144 Y127.139 E0.01697
G1 X166.282 Y140.276 E0.58663
G1 X166.470 Y139.927 E0.01252
G1 X153.682 Y127.140 E0.57102
G1 X154.219 Y127.139 E0.01695
G1 X166.646 Y139.567 E0.55492
G1 X166.803 Y139.187 E0.01298
G1 X154.754 Y127.137 E0.53805
G1 X155.289 Y127.136 E0.01690
G1 X166.942 Y138.789 E0.52038
G1 X167.076 Y138.386 E0.01341
G1 X155.824 Y127.134 E0.50246
G1 X156.359 Y127.132 E0.01690
G1 X167.189 Y137.962 E0.48360
G1 X167.285 Y137.521 E0.01425
G1 X156.894 Y127.130 E0.46399
G1 X157.429 Y127.128 E0.01690
G1 X167.356 Y137.055 E0.44327
G1 X167.402 Y136.564 E0.01556
G1 X157.964 Y127.126 E0.42144
G1 X158.499 Y127.124 E0.01690
G1 X167.424 Y136.049 E0.39854
G1 X167.417 Y135.504 E0.01720
G1 X159.065 Y127.153 E0.37294
G1 X159.653 Y127.203 E0.01863
G1 X167.371 Y134.921 E0.34465
G1 X167.274 Y134.288 E0.02024
G1 X160.287 Y127.301 E0.31200
G1 X160.771 Y127.403 E0.01561
G1 X160.997 Y127.473 E0.00746
G1 X167.108 Y133.584 E0.27290
G1 X166.925 Y132.999 E0.01937
G1 X166.836 Y132.776 E0.00758
G1 X161.794 Y127.733 E0.22517
G1 X162.036 Y127.824 E0.00818
G1 X162.783 Y128.185 E0.02617
G1 X166.763 Y132.165 E0.17774
G1 F8640
G1 X164.436 Y129.838 E-0.76000
G1 E-0.04000 F2100.00000
G1 Z0.800 F10800.000
G1 X166.065 Y130.931
G1 Z0.200
G1 E0.80000 F2100.00000
G1 F1200
G1 X163.641 Y128.506 E0.10828
G1 F8640
G1 X165.968 Y130.833 E-0.76000
G1 E-0.04000 F2100.00000
G1 Z0.800 F10800.000
G1 X152.119 Y144.910
G1 Z0.200
G1 E0.80000 F2100.00000
G1 F1200
G1 X134.500 Y127.291 E0.78677
G1 X134.500 Y127.828 E0.01696
G1 X151.413 Y144.741 E0.75524
G1 X150.876 Y144.741 E0.01694
G1 X134.500 Y128.365 E0.73128
G1 X134.500 Y128.902 E0.01696
G1 X150.340 Y144.742 E0.70732
G1 X149.803 Y144.742 E0.01694
G1 X134.500 Y129.439 E0.68336
G1 X134.500 Y129.976 E0.01696
G1 X149.267 Y144.743 E0.65940
G1 X148.730 Y144.743 E0.01694
G1 X134.500 Y130.513 E0.63544
G1 X134.500 Y131.050 E0.01696
G1 X148.194 Y144.744 E0.61149
G1 X147.657 Y144.744 E0.01694
G1 X134.500 Y131.587 E0.58753
G1 X134.500 Y132.124 E0.01696
G1 X147.121 Y144.745 E0.56357
G1 X146.584 Y144.745 E0.01694
G1 X134.500 Y132.661 E0.53961
G1 X134.500 Y133.198 E0.01696
G1 X146.047 Y144.746 E0.51565
G1 X145.511 Y144.746 E0.01694
G1 X134.500 Y133.735 E0.49169
G1 X134.500 Y134.272 E0.01696
G1 X144.974 Y144.747 E0.46773
G1 X144.438 Y144.747 E0.01694
G1 X134.500 Y134.809 E0.44377
G1 X134.500 Y135.346 E0.01696
G1 X143.901 Y144.747 E0.41981
G1 X143.365 Y144.748 E0.01694
G1 X134.500 Y135.883 E0.39585
G1 X134.500 Y136.420 E0.01696
G1 X142.828 Y144.748 E0.37189
G1 X142.292 Y144.749 E0.01694
G1 X134.500 Y136.957 E0.34793
G1 X134.500 Y137.494 E0.01696
G1 X141.755 Y144.749 E0.32398
G1 X141.218 Y144.750 E0.01694
G1 X134.500 Y138.031 E0.30002
G1 X134.500 Y138.568 E0.01696
G1 X140.682 Y144.750 E0.27606
G1 X140.145 Y144.751 E0.01694
G1 X134.500 Y139.105 E0.25210
G1 X134.500 Y139.642 E0.01696
G1 X139.609 Y144.751 E0.22814
G1 X139.072 Y144.752 E0.01694
G1 X134.500 Y140.179 E0.20418
G1 X134.500 Y140.716 E0.01696
G1 X138.536 Y144.752 E0.18022
G1 X137.999 Y144.753 E0.01694
G1 X134.500 Y141.253 E0.15626
G1 X134.500 Y141.790 E0.01696
G1 X137.463 Y144.753 E0.13230
G1 X136.926 Y144.754 E0.01694
G1 X134.500 Y142.327 E0.10834
G1 X134.500 Y142.864 E0.01696
G1 X136.390 Y144.754 E0.08438
G1 X135.853 Y144.755 E0.01694
G1 X134.500 Y143.401 E0.06042
G1 X134.500 Y143.939 E0.01696
G1 X135.316 Y144.755 E0.03647
G1 X134.780 Y144.756 E0.01694
G1 X134.500 Y144.476 E0.01251
G1 X134.500 Y145.013 E0.01696
G1 X134.780 Y145.293 E0.01251
G1 X134.780 Y145.830 E0.01696
G1 X134.500 Y145.550 E0.01251
G1 X134.500 Y146.087 E0.01696
G1 X134.780 Y146.367 E0.01251
G1 X134.780 Y146.904 E0.01696
G1 X134.500 Y146.624 E0.01251
G1 X134.500 Y147.161 E0.01696
G1 X134.780 Y147.441 E0.01251
G1 X134.780 Y147.978 E0.01696
G1 X134.330 Y147.528 E0.02008
G1 F8640
G1 X134.780 Y147.978 E-0.14687
G1 X134.780 Y147.441 E-0.12400
G1 X134.500 Y147.161 E-0.09146
G1 X134.500 Y146.624 E-0.12400
G1 X134.780 Y146.904 E-0.09146
G1 X134.780 Y146.367 E-0.12400
G1 X134.602 Y146.188 E-0.05822
G1 E-0.04000 F2100.00000
G1 Z0.800 F10800.000
G1 X149.669 Y122.860
G1 Z0.200
G1 E0.80000 F2100.00000
G1 F1200
G1 X150.267 Y122.677 E0.01961
G1 X150.875 Y122.443 E0.02042
G1 X151.464 Y122.169 E0.02037
G1 X152.033 Y121.855 E0.02037
G1 X152.468 Y121.573 E0.01625
G1 X153.095 Y121.115 E0.02437
G1 X153.590 Y120.688 E0.02048
G1 X153.958 Y120.323 E0.01625
G1 X154.478 Y119.745 E0.02437
G1 X154.874 Y119.226 E0.02048
G1 X155.231 Y118.683 E0.02037
G1 X155.550 Y118.117 E0.02037
G1 X155.829 Y117.531 E0.02037
G1 X156.068 Y116.927 E0.02037
G1 X156.264 Y116.307 E0.02037
G1 X156.416 Y115.676 E0.02037
G1 X156.525 Y115.035 E0.02037
G1 X156.589 Y114.389 E0.02037
G1 X156.609 Y113.740 E0.02037
G1 X156.584 Y113.090 E0.02037
G1 X156.514 Y112.445 E0.02037
G1 X156.422 Y111.934 E0.01625
G1 X156.242 Y111.178 E0.02437
G1 X156.040 Y110.557 E0.02048
G1 X155.796 Y109.955 E0.02037
G1 X155.512 Y109.371 E0.02037
G1 X155.188 Y108.808 E0.02037
G1 X154.899 Y108.378 E0.01625
G1 X154.430 Y107.758 E0.02437
G1 X153.994 Y107.271 E0.02048
G1 X153.529 Y106.818 E0.02037
G1 X153.034 Y106.398 E0.02037
G1 X152.510 Y106.013 E0.02037
G1 X152.073 Y105.735 E0.01625
G1 X151.394 Y105.357 E0.02437
G1 X150.799 Y105.086 E0.02048
G1 X150.189 Y104.858 E0.02042
G1 X149.590 Y104.680 E0.01961
G1 X170.726 Y104.587 E0.66272
G1 X170.725 Y101.339 E0.10186
G1 X170.794 Y101.181 E0.00539
G1 X170.852 Y101.116 E0.00275
G1 X171.003 Y101.028 E0.00547
G1 X171.180 Y101.009 E0.00557
G1 X171.343 Y101.062 E0.00537
G1 X171.414 Y101.113 E0.00275
G1 X171.519 Y101.257 E0.00557
G1 X171.558 Y101.455 E0.00634
G1 X171.665 Y125.893 E0.76626
G1 X171.627 Y126.090 E0.00627
G1 X171.528 Y126.228 E0.00534
G1 X171.381 Y126.314 E0.00535
G1 X171.298 Y126.333 E0.00265
G1 X171.128 Y126.316 E0.00537
G1 X170.979 Y126.232 E0.00536
G1 X170.878 Y126.094 E0.00535
G1 X170.852 Y126.013 E0.00269
G1 X170.825 Y122.768 E0.10174
G1 X149.729 Y122.860 E0.66146
G1 F8640
G1 X150.267 Y122.677 E-0.13124
G1 X150.875 Y122.443 E-0.15041
G1 X151.464 Y122.169 E-0.15001
G1 X152.033 Y121.855 E-0.15000
G1 X152.468 Y121.573 E-0.11969
G1 X152.673 Y121.423 E-0.05865
G1 E-0.04000 F2100.00000
G1 Z0.800 F10800.000
G1 X170.450 Y123.147
G1 Z0.200
G1 E0.80000 F2100.00000
G1 F1200
G1 X148.272 Y123.243 E0.69539
G1 X148.126 Y123.199 E0.00479
G1 X148.064 Y123.138 E0.00272
G1 X148.023 Y122.979 E0.00514
G1 X148.057 Y122.873 E0.00348
G1 X148.120 Y122.803 E0.00295
G1 X148.225 Y122.755 E0.00363
G1 X148.942 Y122.644 E0.02274
G1 X149.550 Y122.502 E0.01957
G1 X150.144 Y122.320 E0.01950
