; generated by PrusaSlicer 2.0.0+win64 on 2019-09-10 at 09:27:44

; 

; external perimeters extrusion width = 0.45mm
; perimeters extrusion width = 0.45mm
; infill extrusion width = 0.45mm
; solid infill extrusion width = 0.45mm
; top infill extrusion width = 0.40mm
; first layer extrusion width = 0.42mm

M73 P0 R33
M73 Q0 S33
M201 X1000 Y1000 Z1000 E5000 ; sets maximum accelerations, mm/sec^2
M203 X200 Y200 Z12 E120 ; sets maximum feedrates, mm/sec
M204 P1250 R1250 T1250 ; sets acceleration (P, T) and retract acceleration (R), mm/sec^2
M205 X8.00 Y8.00 Z0.40 E1.50 ; sets the jerk limits, mm/sec
M205 S0 T0 ; sets the minimum extruding and travel feed rate, mm/sec
M107
M115 U3.7.2 ; tell printer latest fw version
G90 ; use absolute coordinates
M83 ; extruder relative mode
M104 S215 ; set extruder temp
M140 S60 ; set bed temp
M190 S60 ; wait for bed temp
M109 S215 ; wait for extruder temp
G28 W ; home all without mesh bed level
G80 ; mesh bed leveling
G1 Y-3.0 F1000.0 ; go outside print area
G92 E0.0
G1 X60.0 E9.0 F1000.0 ; intro line
M73 Q0 S33
M73 P0 R33
G1 X100.0 E12.5 F1000.0 ; intro line
G92 E0.0
M221 S95
M900 K30 ; Filament gcode
G21 ; set units to millimeters
G90 ; use absolute coordinates
M83 ; use relative distances for extrusion
;BEFORE_LAYER_CHANGE
G92 E0.0
;0.2


G1 E-0.80000 F2100.00000
G1 Z0.600 F10800.000
;AFTER_LAYER_CHANGE
;0.2
G1 X108.265 Y90.731
G1 Z0.200
G1 E0.80000 F2100.00000
M204 S1000
G1 F1200
G1 X109.008 Y90.535 E0.02411
G1 X109.666 Y90.502 E0.02064
G1 X135.520 Y93.786 E0.81716
G1 X137.263 Y94.182 E0.05604
G1 X138.267 Y94.528 E0.03328
G1 X139.236 Y94.957 E0.03322
G1 X140.813 Y95.873 E0.05717
G1 X142.403 Y97.151 E0.06397
G1 X143.592 Y98.433 E0.05482
G1 X144.226 Y99.284 E0.03328
G1 X144.780 Y100.176 E0.03291
G1 X145.543 Y101.760 E0.05513
G1 X146.164 Y103.778 E0.06620
G1 X146.424 Y105.507 E0.05482
G1 X146.468 Y106.559 E0.03304
G1 X146.424 Y107.616 E0.03316
G1 X146.162 Y109.351 E0.05500
G1 X145.542 Y111.363 E0.06601
G1 X144.779 Y112.947 E0.05513
G1 X144.229 Y113.832 E0.03266
G1 X142.951 Y115.422 E0.06397
G1 X141.669 Y116.611 E0.05482
G1 X140.824 Y117.240 E0.03304
G1 X139.930 Y117.797 E0.03304
G1 X138.353 Y118.557 E0.05488
G1 X136.403 Y119.166 E0.06404
G1 X135.414 Y119.350 E0.03155
G1 X109.912 Y122.606 E0.80608
G1 X109.188 Y122.608 E0.02272
G1 X108.561 Y122.484 E0.02003
G1 X107.540 Y122.011 E0.03528
G1 X106.895 Y121.449 E0.02683
G1 X106.413 Y120.771 E0.02609
G1 X106.098 Y119.984 E0.02658
G1 X105.980 Y119.205 E0.02470
G1 X105.982 Y93.886 E0.79384
G1 X106.081 Y93.201 E0.02173
G1 X106.318 Y92.540 E0.02201
G1 X106.709 Y91.901 E0.02348
G1 X107.057 Y91.508 E0.01647
G1 X107.584 Y91.080 E0.02126
G1 X108.211 Y90.759 E0.02211
G1 F8640
G1 X109.008 Y90.535 E-0.19113
G1 X109.666 Y90.502 E-0.15201
G1 X111.457 Y90.729 E-0.41686
G1 E-0.04000 F2100.00000
G1 Z0.800 F10800.000
G1 X106.657 Y92.705
G1 Z0.200
G1 E0.80000 F2100.00000
G1 F1200
G1 X107.310 Y91.788 E0.03529
G1 X107.784 Y91.400 E0.01919
G1 X108.399 Y91.083 E0.02171
G1 X109.073 Y90.907 E0.02182
G1 X109.666 Y90.879 E0.01862
G1 X135.457 Y94.158 E0.81518
G1 X137.165 Y94.546 E0.05493
G1 X138.128 Y94.879 E0.03194
G1 X139.057 Y95.289 E0.03183
G1 X140.588 Y96.176 E0.05549
G1 X142.134 Y97.416 E0.06212
G1 X143.306 Y98.678 E0.05401
G1 X143.914 Y99.496 E0.03194
G1 X144.446 Y100.351 E0.03160
G1 X145.195 Y101.907 E0.05412
G1 X145.792 Y103.841 E0.06349
G1 X146.049 Y105.548 E0.05412
G1 X146.091 Y106.559 E0.03171
G1 X146.049 Y107.573 E0.03183
G1 X145.792 Y109.276 E0.05401
G1 X145.196 Y111.211 E0.06349
G1 X144.448 Y112.767 E0.05412
G1 X143.926 Y113.607 E0.03103
G1 X142.686 Y115.153 E0.06212
G1 X141.423 Y116.325 E0.05401
G1 X140.612 Y116.928 E0.03171
G1 X139.750 Y117.465 E0.03183
G1 X138.202 Y118.211 E0.05389
G1 X136.325 Y118.797 E0.06166
G1 X135.366 Y118.976 E0.03057
G1 X109.885 Y122.230 E0.80544
G1 X108.897 Y122.178 E0.03101
G1 X108.347 Y122.016 E0.01797
G1 X107.765 Y121.708 E0.02068
G1 X107.175 Y121.197 E0.02444
G1 X106.743 Y120.588 E0.02342
G1 X106.460 Y119.878 E0.02399
G1 X106.356 Y119.176 E0.02224
G1 X106.357 Y93.925 E0.79172
G1 X106.445 Y93.298 E0.01984
G1 X106.637 Y92.761 E0.01789
G1 F8640
G1 X107.310 Y91.788 E-0.27326
G1 X107.784 Y91.400 E-0.14132
G1 X108.399 Y91.083 E-0.15988
G1 X109.073 Y90.907 E-0.16070
G1 X109.180 Y90.902 E-0.02483
G1 E-0.04000 F2100.00000
G1 Z0.800 F10800.000
G1 X109.954 Y97.210
G1 Z0.200
G1 E0.80000 F2100.00000
G1 F1200
G1 X115.141 Y97.228 E0.16261
G1 X133.534 Y97.212 E0.57672
G1 X134.233 Y97.252 E0.02195
G1 X134.933 Y97.331 E0.02206
G1 X135.618 Y97.460 E0.02189
G1 X136.293 Y97.641 E0.02189
G1 X136.951 Y97.872 E0.02189
G1 X137.591 Y98.151 E0.02189
G1 X138.208 Y98.477 E0.02189
G1 X138.799 Y98.848 E0.02189
G1 X139.361 Y99.263 E0.02189
G1 X139.890 Y99.718 E0.02189
G1 X140.384 Y100.212 E0.02189
G1 X140.839 Y100.741 E0.02189
G1 X141.253 Y101.302 E0.02189
G1 X141.625 Y101.893 E0.02189
G1 X141.951 Y102.511 E0.02189
G1 X142.230 Y103.150 E0.02189
G1 X142.461 Y103.809 E0.02189
G1 X142.641 Y104.483 E0.02189
G1 X142.771 Y105.169 E0.02189
G1 X142.849 Y105.863 E0.02189
G1 X142.875 Y106.560 E0.02189
G1 X142.849 Y107.258 E0.02189
G1 X142.771 Y107.951 E0.02189
G1 X142.641 Y108.637 E0.02189
G1 X142.461 Y109.312 E0.02189
G1 X142.230 Y109.970 E0.02189
G1 X141.951 Y110.610 E0.02189
G1 X141.625 Y111.227 E0.02189
G1 X141.253 Y111.818 E0.02189
G1 X140.839 Y112.380 E0.02189
G1 X140.384 Y112.909 E0.02189
G1 X139.890 Y113.402 E0.02189
G1 X139.189 Y113.984 E0.02856
G1 X138.799 Y114.272 E0.01520
G1 X138.208 Y114.644 E0.02189
G1 X137.591 Y114.970 E0.02189
G1 X136.951 Y115.249 E0.02189
G1 X136.293 Y115.479 E0.02189
G1 X135.618 Y115.660 E0.02189
G1 X134.933 Y115.790 E0.02189
G1 X134.233 Y115.869 E0.02206
G1 X133.526 Y115.909 E0.02222
G1 X128.942 Y115.892 E0.14372
G1 X109.954 Y115.909 E0.59535
G1 X109.954 Y119.025 E0.09769
G1 X109.938 Y119.158 E0.00421
G1 X109.847 Y119.331 E0.00613
G1 X109.686 Y119.442 E0.00613
G1 X109.591 Y119.466 E0.00309
G1 X109.397 Y119.442 E0.00613
G1 X109.309 Y119.397 E0.00309
G1 X109.180 Y119.250 E0.00613
G1 X109.145 Y119.158 E0.00309
G1 X109.129 Y119.025 E0.00421
G1 X109.129 Y94.096 E0.78163
G1 X109.145 Y93.963 E0.00421
G1 X109.236 Y93.789 E0.00613
G1 X109.309 Y93.724 E0.00309
G1 X109.491 Y93.655 E0.00609
G1 X109.594 Y93.655 E0.00324
G1 X109.774 Y93.724 E0.00603
G1 X109.847 Y93.789 E0.00309
G1 X109.938 Y93.963 E0.00613
G1 X109.954 Y94.096 E0.00421
G1 X109.954 Y97.150 E0.09576
G1 X110.331 Y96.834 F10800.000
G1 F1200
G1 X115.141 Y96.851 E0.15081
G1 X133.545 Y96.835 E0.57704
G1 X134.265 Y96.876 E0.02262
G1 X134.989 Y96.958 E0.02283
G1 X135.702 Y97.093 E0.02277
G1 X136.404 Y97.281 E0.02277
G1 X137.089 Y97.520 E0.02277
G1 X137.755 Y97.811 E0.02277
G1 X138.397 Y98.150 E0.02277
G1 X139.012 Y98.537 E0.02277
G1 X139.596 Y98.968 E0.02277
G1 X140.147 Y99.442 E0.02277
G1 X140.660 Y99.955 E0.02277
G1 X141.134 Y100.505 E0.02277
G1 X141.565 Y101.090 E0.02277
G1 X141.952 Y101.705 E0.02277
G1 X142.291 Y102.347 E0.02277
G1 X142.581 Y103.012 E0.02277
G1 X142.821 Y103.698 E0.02277
G1 X143.009 Y104.399 E0.02277
G1 X143.144 Y105.113 E0.02277
G1 X143.225 Y105.835 E0.02277
G1 X143.253 Y106.560 E0.02277
G1 X143.225 Y107.286 E0.02277
G1 X143.144 Y108.008 E0.02277
G1 X143.009 Y108.721 E0.02277
G1 X142.821 Y109.423 E0.02277
G1 X142.581 Y110.108 E0.02277
G1 X142.291 Y110.774 E0.02277
G1 X141.952 Y111.416 E0.02277
G1 X141.565 Y112.031 E0.02277
G1 X141.134 Y112.615 E0.02277
G1 X140.660 Y113.166 E0.02277
G1 X140.147 Y113.679 E0.02277
G1 X139.596 Y114.153 E0.02277
G1 X139.413 Y114.288 E0.00713
G1 X139.012 Y114.584 E0.01564
G1 X138.397 Y114.970 E0.02277
G1 X137.755 Y115.310 E0.02277
G1 X137.089 Y115.600 E0.02277
G1 X136.404 Y115.840 E0.02277
G1 X135.702 Y116.028 E0.02277
G1 X134.989 Y116.163 E0.02277
G1 X134.265 Y116.245 E0.02283
G1 X133.536 Y116.286 E0.02290
G1 X128.942 Y116.269 E0.14405
G1 X110.331 Y116.286 E0.58351
G1 X110.331 Y119.048 E0.08659
G1 X110.307 Y119.249 E0.00636
G1 X110.240 Y119.427 E0.00596
G1 X110.132 Y119.583 E0.00596
G1 X109.989 Y119.709 E0.00596
G1 X109.821 Y119.798 E0.00596
G1 X109.636 Y119.843 E0.00596
G1 X109.446 Y119.843 E0.00596
G1 X109.262 Y119.798 E0.00596
G1 X109.094 Y119.709 E0.00596
G1 X108.951 Y119.583 E0.00596
G1 X108.843 Y119.427 E0.00596
G1 X108.776 Y119.249 E0.00596
G1 X108.751 Y119.048 E0.00636
G1 X108.751 Y94.073 E0.78306
G1 X108.776 Y93.872 E0.00636
G1 X108.843 Y93.694 E0.00596
G1 X108.951 Y93.537 E0.00596
G1 X109.094 Y93.411 E0.00596
G1 X109.262 Y93.323 E0.00596
G1 X109.446 Y93.278 E0.00594
G1 X109.641 Y93.279 E0.00611
G1 X109.821 Y93.323 E0.00582
G1 X109.989 Y93.411 E0.00596
G1 X110.132 Y93.537 E0.00596
G1 X110.240 Y93.694 E0.00596
G1 X110.307 Y93.872 E0.00596
G1 X110.331 Y94.073 E0.00636
G1 X110.331 Y96.774 E0.08469
G1 X110.332 Y97.234 F10800.000
G1 F8640
G1 X113.622 Y96.827 E-0.76000
G1 E-0.04000 F2100.00000
G1 Z0.800 F10800.000
G1 X109.396 Y93.816
G1 Z0.200
G1 E0.80000 F2100.00000
G1 F1200
G1 X109.669 Y94.088 E0.01216
G1 X109.672 Y94.113 E0.00080
G1 X109.672 Y94.628 E0.01629
G1 X109.411 Y94.368 E0.01163
G1 X109.411 Y94.906 E0.01699
G1 X109.672 Y95.166 E0.01163
G1 X109.672 Y95.703 E0.01699
G1 X109.411 Y95.443 E0.01163
G1 X109.411 Y95.981 E0.01699
G1 X109.672 Y96.241 E0.01163
G1 X109.672 Y96.779 E0.01699
G1 X109.411 Y96.518 E0.01163
G1 X109.411 Y97.056 E0.01699
G1 X127.966 Y115.610 E0.82932
G1 X128.503 Y115.610 E0.01697
G1 X110.387 Y97.494 E0.80970
G1 X110.927 Y97.496 E0.01705
G1 X129.040 Y115.610 E0.80962
G1 X129.580 Y115.612 E0.01705
G1 X111.466 Y97.498 E0.80962
G1 X112.006 Y97.500 E0.01705
G1 X130.119 Y115.614 E0.80962
G1 X130.659 Y115.616 E0.01705
G1 X112.545 Y97.502 E0.80962
G1 X113.084 Y97.504 E0.01705
G1 X131.198 Y115.618 E0.80962
G1 X131.738 Y115.619 E0.01705
G1 X113.624 Y97.506 E0.80962
G1 X114.163 Y97.508 E0.01705
G1 X132.277 Y115.621 E0.80962
G1 X132.817 Y115.623 E0.01705
G1 X114.703 Y97.510 E0.80962
G1 X115.242 Y97.511 E0.01704
G1 X133.356 Y115.625 E0.80964
G1 X133.874 Y115.606 E0.01638
G1 X115.779 Y97.511 E0.80879
G1 X116.316 Y97.510 E0.01697
G1 X134.374 Y115.568 E0.80713
G1 X134.857 Y115.514 E0.01537
G1 X116.853 Y97.510 E0.80472
G1 X117.390 Y97.509 E0.01697
G1 X135.311 Y115.430 E0.80101
G1 X135.750 Y115.332 E0.01422
G1 X117.927 Y97.509 E0.79664
G1 X118.464 Y97.508 E0.01697
G1 X136.174 Y115.218 E0.79158
G1 X136.575 Y115.081 E0.01337
G1 X119.001 Y97.508 E0.78547
G1 X119.538 Y97.507 E0.01697
G1 X136.965 Y114.934 E0.77892
G1 X137.340 Y114.771 E0.01290
G1 X120.075 Y97.507 E0.77165
G1 X120.613 Y97.506 E0.01697
G1 X137.699 Y114.593 E0.76371
G1 X138.051 Y114.407 E0.01257
G1 X121.150 Y97.506 E0.75542
G1 X121.687 Y97.505 E0.01697
G1 X138.382 Y114.201 E0.74622
G1 X138.707 Y113.989 E0.01228
G1 X122.224 Y97.505 E0.73676
G1 X122.761 Y97.504 E0.01697
M73 Q3 S32
G1 X139.017 Y113.760 E0.72658
M73 P3 R32
G1 X139.317 Y113.523 E0.01209
G1 X123.298 Y97.504 E0.71598
G1 X123.835 Y97.503 E0.01697
G1 X139.606 Y113.274 E0.70489
G1 X139.881 Y113.012 E0.01202
G1 X124.372 Y97.503 E0.69319
G1 X124.909 Y97.503 E0.01697
G1 X140.150 Y112.743 E0.68119
G1 X140.400 Y112.456 E0.01204
G1 X125.446 Y97.502 E0.66839
G1 X125.983 Y97.502 E0.01697
G1 X140.646 Y112.165 E0.65539
G1 X140.875 Y111.855 E0.01215
G1 X126.520 Y97.501 E0.64158
G1 X127.057 Y97.501 E0.01697
G1 X141.095 Y111.539 E0.62744
G1 X141.303 Y111.208 E0.01232
G1 X127.594 Y97.500 E0.61271
G1 X128.131 Y97.500 E0.01697
G1 X141.496 Y110.865 E0.59737
G1 X141.682 Y110.513 E0.01257
G1 X128.668 Y97.499 E0.58167
G1 X129.206 Y97.499 E0.01697
G1 X141.847 Y110.141 E0.56504
G1 X142.004 Y109.760 E0.01301
G1 X129.743 Y97.498 E0.54804
G1 X130.280 Y97.498 E0.01697
G1 X142.143 Y109.362 E0.53027
G1 X142.266 Y108.946 E0.01368
G1 X130.817 Y97.497 E0.51172
G1 X131.354 Y97.497 E0.01697
G1 X142.376 Y108.519 E0.49264
G1 X142.461 Y108.067 E0.01454
G1 X131.891 Y97.496 E0.47246
G1 X132.428 Y97.496 E0.01697
G1 X142.527 Y107.595 E0.45137
G1 X142.572 Y107.102 E0.01562
G1 X132.965 Y97.495 E0.42940
G1 X133.502 Y97.495 E0.01697
G1 X142.580 Y106.573 E0.40577
G1 X142.570 Y106.025 E0.01734
G1 X134.071 Y97.526 E0.37988
G1 X134.668 Y97.585 E0.01896
G1 X142.516 Y105.434 E0.35081
G1 X142.412 Y104.792 E0.02056
G1 X135.310 Y97.690 E0.31745
G1 X136.017 Y97.860 E0.02301
G1 X142.240 Y104.083 E0.27815
G1 X141.975 Y103.281 E0.02672
G1 X136.820 Y98.125 E0.23042
G1 X137.468 Y98.406 E0.02233
G1 X137.828 Y98.596 E0.01286
G1 X141.893 Y102.661 E0.18169
G1 F8640
G1 X139.566 Y100.333 E-0.76000
G1 E-0.04000 F2100.00000
G1 Z0.800 F10800.000
G1 X141.200 Y101.431
G1 Z0.200
G1 E0.80000 F2100.00000
G1 F1200
G1 X138.671 Y98.901 E0.11305
G1 F8640
G1 X140.999 Y101.229 E-0.76000
G1 E-0.04000 F2100.00000
G1 Z0.800 F10800.000
G1 X127.598 Y115.780
G1 Z0.200
G1 E0.80000 F2100.00000
G1 F1200
G1 X109.411 Y97.593 E0.81289
G1 X109.411 Y98.131 E0.01699
G1 X126.892 Y115.611 E0.78131
G1 X126.355 Y115.612 E0.01697
G1 X109.411 Y98.668 E0.75731
G1 X109.411 Y99.206 E0.01699
G1 X125.818 Y115.612 E0.73330
G1 X125.281 Y115.613 E0.01697
G1 X109.411 Y99.743 E0.70930
G1 X109.411 Y100.281 E0.01699
G1 X124.744 Y115.613 E0.68529
G1 X124.206 Y115.614 E0.01697
G1 X109.411 Y100.819 E0.66129
G1 X109.411 Y101.356 E0.01699
G1 X123.669 Y115.614 E0.63728
G1 X123.132 Y115.615 E0.01697
G1 X109.411 Y101.894 E0.61328
G1 X109.411 Y102.431 E0.01699
G1 X122.595 Y115.615 E0.58928
G1 X122.058 Y115.616 E0.01697
G1 X109.411 Y102.969 E0.56527
G1 X109.411 Y103.506 E0.01699
G1 X121.521 Y115.616 E0.54127
G1 X120.984 Y115.617 E0.01697
G1 X109.411 Y104.044 E0.51726
G1 X109.411 Y104.581 E0.01699
G1 X120.447 Y115.617 E0.49326
G1 X119.910 Y115.618 E0.01697
G1 X109.411 Y105.119 E0.46925
G1 X109.411 Y105.656 E0.01699
G1 X119.373 Y115.618 E0.44525
G1 X118.836 Y115.619 E0.01697
G1 X109.411 Y106.194 E0.42124
G1 X109.411 Y106.731 E0.01699
G1 X118.299 Y115.619 E0.39724
G1 X117.762 Y115.619 E0.01697
G1 X109.411 Y107.269 E0.37324
G1 X109.411 Y107.807 E0.01699
G1 X117.225 Y115.620 E0.34923
G1 X116.688 Y115.620 E0.01697
G1 X109.411 Y108.344 E0.32523
G1 X109.411 Y108.882 E0.01699
G1 X116.151 Y115.621 E0.30122
G1 X115.614 Y115.621 E0.01697
G1 X109.411 Y109.419 E0.27722
G1 X109.411 Y109.957 E0.01699
G1 X115.076 Y115.622 E0.25321
G1 X114.539 Y115.622 E0.01697
G1 X109.411 Y110.494 E0.22921
G1 X109.411 Y111.032 E0.01699
G1 X114.002 Y115.623 E0.20520
G1 X113.465 Y115.623 E0.01697
G1 X109.411 Y111.569 E0.18120
G1 X109.411 Y112.107 E0.01699
G1 X112.928 Y115.624 E0.15719
G1 X112.391 Y115.624 E0.01697
G1 X109.411 Y112.644 E0.13319
G1 X109.411 Y113.182 E0.01699
G1 X111.854 Y115.625 E0.10919
G1 X111.317 Y115.625 E0.01697
G1 X109.411 Y113.719 E0.08518
G1 X109.411 Y114.257 E0.01699
G1 X110.780 Y115.626 E0.06118
G1 X110.243 Y115.626 E0.01697
G1 X109.411 Y114.794 E0.03717
G1 X109.411 Y115.332 E0.01699
G1 X109.706 Y115.627 E0.01317
G1 X109.672 Y115.627 E0.00109
G1 X109.672 Y116.130 E0.01590
G1 X109.411 Y115.870 E0.01163
G1 X109.411 Y116.407 E0.01699
G1 X109.672 Y116.667 E0.01163
G1 X109.672 Y117.205 E0.01699
G1 X109.411 Y116.945 E0.01163
G1 X109.411 Y117.482 E0.01699
G1 X109.672 Y117.742 E0.01163
G1 X109.672 Y118.280 E0.01699
G1 X109.411 Y118.020 E0.01163
G1 X109.411 Y118.557 E0.01699
G1 X109.841 Y118.987 E0.01922
M106 S255
;BEFORE_LAYER_CHANGE
G92 E0.0
;0.4


G1 F8640
G1 X109.411 Y118.557 E-0.14040
G1 X109.411 Y118.020 E-0.12412
G1 X109.672 Y118.280 E-0.08499
G1 X109.672 Y117.742 E-0.12412
G1 X109.411 Y117.482 E-0.08499
G1 X109.411 Y116.945 E-0.12412
G1 X109.648 Y117.181 E-0.07727
G1 E-0.04000 F2100.00000
G1 Z0.800 F10800.000
;AFTER_LAYER_CHANGE
;0.4
G1 X107.540 Y122.011
G1 Z0.400
G1 E0.80000 F2100.00000
G1 F3000
G1 X106.895 Y121.449 E0.02683
G1 X106.413 Y120.771 E0.02609
G1 X106.098 Y119.984 E0.02658
G1 X105.980 Y119.205 E0.02470
G1 X105.982 Y93.886 E0.79384
G1 X106.081 Y93.201 E0.02173
G1 X106.318 Y92.540 E0.02201
G1 X106.709 Y91.901 E0.02348
G1 X107.057 Y91.508 E0.01647
G1 X107.584 Y91.080 E0.02126
G1 X108.265 Y90.731 E0.02399
G1 X109.008 Y90.535 E0.02411
G1 X109.666 Y90.502 E0.02064
G1 X135.520 Y93.786 E0.81716
G1 X137.263 Y94.182 E0.05604
G1 X138.267 Y94.528 E0.03328
G1 X139.236 Y94.957 E0.03322
G1 X140.813 Y95.873 E0.05717
G1 X142.403 Y97.151 E0.06397
G1 X143.592 Y98.433 E0.05482
G1 X144.226 Y99.284 E0.03328
