; generated by PrusaSlicer 2.0.0+win64 on 2019-06-13 at 10:22:07

; 

; external perimeters extrusion width = 0.45mm
; perimeters extrusion width = 0.45mm
; infill extrusion width = 0.45mm
; solid infill extrusion width = 0.45mm
; top infill extrusion width = 0.40mm
; first layer extrusion width = 0.42mm

M73 P0 R66
M73 Q0 S66
M201 X1000 Y1000 Z1000 E5000 ; sets maximum accelerations, mm/sec^2
M203 X200 Y200 Z12 E120 ; sets maximum feedrates, mm/sec
M204 P1250 R1250 T1250 ; sets acceleration (P, T) and retract acceleration (R), mm/sec^2
M205 X8.00 Y8.00 Z0.40 E1.50 ; sets the jerk limits, mm/sec
M205 S0 T0 ; sets the minimum extruding and travel feed rate, mm/sec
M107
M115 U3.7.1 ; tell printer latest fw version
G90 ; use absolute coordinates
M83 ; extruder relative mode
M104 S200 ; set extruder temp
M140 S50 ; set bed temp
M190 S50 ; wait for bed temp
M109 S200 ; wait for extruder temp
G28 W ; home all without mesh bed level
G80 ; mesh bed leveling
G1 Y-3.0 F1000.0 ; go outside print area
G92 E0.0
G1 X60.0 E9.0 F1000.0 ; intro line
M73 Q0 S66
M73 P0 R66
G1 X100.0 E12.5 F1000.0 ; intro line
G92 E0.0
M221 S95
M900 K10; Filament gcode
G21 ; set units to millimeters
G90 ; use absolute coordinates
M83 ; use relative distances for extrusion
;BEFORE_LAYER_CHANGE
G92 E0.0
;0.2


G1 E-0.80000 F2100.00000
G1 Z0.600 F10800.000
;AFTER_LAYER_CHANGE
;0.2
G1 X97.771 Y88.200
G1 Z0.200
G1 E0.80000 F2100.00000
M204 S1000
G1 F1193.38
G1 X107.945 Y77.989 E0.54234
G1 X108.336 Y77.679 E0.01880
G1 X117.133 Y74.004 E0.35872
G1 X117.614 Y73.869 E0.01880
G1 X132.039 Y73.840 E0.54275
G1 X132.852 Y73.999 E0.03116
G1 X141.358 Y77.522 E0.34640
G1 X141.782 Y77.758 E0.01825
G1 X152.011 Y87.944 E0.54315
G1 X152.319 Y88.333 E0.01866
G1 X155.996 Y97.133 E0.35885
G1 X156.133 Y97.625 E0.01921
G1 X156.160 Y112.039 E0.54234
G1 X156.102 Y112.536 E0.01880
G1 X152.480 Y121.355 E0.35872
G1 X152.229 Y121.800 E0.01921
G1 X142.055 Y132.011 E0.54234
G1 X141.651 Y132.328 E0.01934
G1 X132.867 Y135.996 E0.35817
G1 X132.375 Y136.133 E0.01921
G1 X117.961 Y136.160 E0.54234
G1 X117.464 Y136.102 E0.01880
G1 X108.645 Y132.480 E0.35872
G1 X108.200 Y132.229 E0.01921
G1 X97.987 Y122.053 E0.54248
G1 X97.672 Y121.651 E0.01921
G1 X94.004 Y112.867 E0.35817
G1 X93.867 Y112.375 E0.01921
G1 X93.840 Y97.961 E0.54234
G1 X93.898 Y97.464 E0.01880
G1 X97.520 Y88.645 E0.35872
G1 X97.741 Y88.253 E0.01695
G1 F8640
G1 X100.062 Y85.918 E-0.76000
G1 E-0.04000 F2100.00000
G1 Z0.800 F10800.000
G1 X118.580 Y132.558
G1 Z0.200
G1 E0.80000 F2100.00000
G1 F1193.38
G1 X131.420 Y132.558 E0.48310
G1 X131.420 Y133.384 E0.03107
G1 X118.580 Y133.384 E0.48311
G1 X118.580 Y132.618 E0.02882
G1 X118.203 Y132.181 F10800.000
G1 F1193.38
G1 X131.797 Y132.181 E0.51148
G1 X131.797 Y133.761 E0.05945
G1 X118.203 Y133.761 E0.51148
G1 X118.203 Y132.241 E0.05719
G1 X118.603 Y132.196 F10800.000
G1 F8640
G1 X121.494 Y132.226 E-0.76000
G1 E-0.04000 F2100.00000
G1 Z0.800 F10800.000
G1 X119.486 Y133.271
G1 Z0.200
G1 E0.80000 F2100.00000
G1 F1149.35
G1 X119.056 Y132.841 E0.02375
G1 X119.610 Y132.841 E0.02163
G1 X119.870 Y133.101 E0.01438
G1 X120.424 Y133.101 E0.02163
G1 X120.163 Y132.841 E0.01438
G1 X120.717 Y132.841 E0.02163
G1 X120.977 Y133.101 E0.01438
G1 X121.531 Y133.101 E0.02163
G1 X121.271 Y132.841 E0.01438
G1 X121.824 Y132.841 E0.02163
G1 X122.085 Y133.101 E0.01438
G1 X122.638 Y133.101 E0.02163
G1 X122.378 Y132.841 E0.01438
G1 X122.932 Y132.841 E0.02163
G1 X123.192 Y133.101 E0.01438
G1 X123.746 Y133.101 E0.02163
G1 X123.486 Y132.841 E0.01438
G1 X124.039 Y132.841 E0.02163
G1 X124.299 Y133.101 E0.01438
G1 X124.853 Y133.101 E0.02163
G1 X124.593 Y132.841 E0.01438
G1 X125.147 Y132.841 E0.02163
G1 X125.407 Y133.101 E0.01438
G1 X125.961 Y133.101 E0.02163
G1 X125.700 Y132.841 E0.01438
G1 X126.254 Y132.841 E0.02163
G1 X126.514 Y133.101 E0.01438
G1 X127.068 Y133.101 E0.02163
G1 X126.808 Y132.841 E0.01438
G1 X127.361 Y132.841 E0.02163
G1 X127.622 Y133.101 E0.01438
G1 X128.175 Y133.101 E0.02163
G1 X127.915 Y132.841 E0.01438
G1 X128.469 Y132.841 E0.02163
G1 X128.729 Y133.101 E0.01438
G1 X129.283 Y133.101 E0.02163
G1 X129.023 Y132.841 E0.01438
G1 X129.576 Y132.841 E0.02163
G1 X129.836 Y133.101 E0.01438
G1 X130.390 Y133.101 E0.02163
G1 X130.130 Y132.841 E0.01438
G1 X130.684 Y132.841 E0.02163
G1 X131.114 Y133.271 E0.02375
G1 F8640
G1 X130.684 Y132.841 E-0.14040
G1 X130.130 Y132.841 E-0.12785
G1 X130.390 Y133.101 E-0.08499
G1 X129.836 Y133.101 E-0.12785
G1 X129.576 Y132.841 E-0.08499
G1 X129.023 Y132.841 E-0.12785
G1 X129.225 Y133.043 E-0.06607
G1 E-0.04000 F2100.00000
G1 Z0.800 F10800.000
G1 X139.947 Y129.026
G1 Z0.200
G1 E0.80000 F2100.00000
G1 F1193.38
G1 X149.026 Y119.947 E0.48311
G1 X149.610 Y120.531 E0.03107
G1 X140.531 Y129.610 E0.48311
G1 X139.989 Y129.069 E0.02882
G1 X139.414 Y129.026 F10800.000
G1 F1193.38
G1 X149.026 Y119.414 E0.51148
G1 X150.143 Y120.531 E0.05945
G1 X140.531 Y130.143 E0.51148
G1 X139.456 Y129.069 E0.05719
G1 X139.707 Y128.754 F10800.000
G1 X140.229 Y128.904
G1 F1173.78
G1 X140.533 Y129.208 E0.01645
G1 X140.804 Y128.937 E0.01467
G1 X140.620 Y128.753 E0.00996
G1 X140.891 Y128.482 E0.01467
G1 X141.075 Y128.666 E0.00996
G1 X141.346 Y128.395 E0.01467
G1 X141.162 Y128.211 E0.00996
G1 X141.433 Y127.940 E0.01467
G1 X141.617 Y128.124 E0.00996
G1 X141.888 Y127.853 E0.01467
G1 X141.704 Y127.669 E0.00996
G1 X141.976 Y127.397 E0.01467
G1 X142.160 Y127.581 E0.00996
G1 X142.431 Y127.310 E0.01467
G1 X142.247 Y127.126 E0.00996
G1 X142.518 Y126.855 E0.01467
G1 X142.702 Y127.039 E0.00996
G1 X142.973 Y126.768 E0.01467
G1 X142.789 Y126.584 E0.00996
G1 X143.060 Y126.313 E0.01467
G1 X143.244 Y126.497 E0.00996
G1 X143.515 Y126.226 E0.01467
G1 X143.331 Y126.042 E0.00996
G1 X143.602 Y125.771 E0.01467
G1 X143.786 Y125.955 E0.00996
G1 X144.057 Y125.684 E0.01467
G1 X143.873 Y125.500 E0.00996
G1 X144.144 Y125.229 E0.01467
G1 X144.328 Y125.413 E0.00996
G1 X144.599 Y125.142 E0.01467
G1 X144.415 Y124.958 E0.00996
G1 X144.686 Y124.687 E0.01467
G1 X144.870 Y124.871 E0.00996
G1 X145.142 Y124.599 E0.01467
G1 X144.957 Y124.415 E0.00996
G1 X145.229 Y124.144 E0.01467
G1 X145.413 Y124.328 E0.00996
G1 X145.684 Y124.057 E0.01467
G1 X145.500 Y123.873 E0.00996
G1 X145.771 Y123.602 E0.01467
G1 X145.955 Y123.786 E0.00996
G1 X146.226 Y123.515 E0.01467
G1 X146.042 Y123.331 E0.00996
G1 X146.313 Y123.060 E0.01467
G1 X146.497 Y123.244 E0.00996
G1 X146.768 Y122.973 E0.01467
G1 X146.584 Y122.789 E0.00996
G1 X146.855 Y122.518 E0.01467
G1 X147.039 Y122.702 E0.00996
G1 X147.310 Y122.431 E0.01467
G1 X147.126 Y122.247 E0.00996
G1 X147.397 Y121.976 E0.01467
G1 X147.581 Y122.160 E0.00996
G1 X147.852 Y121.889 E0.01467
G1 X147.668 Y121.705 E0.00996
G1 X147.939 Y121.433 E0.01467
G1 X148.124 Y121.617 E0.00996
G1 X148.395 Y121.346 E0.01467
G1 X148.211 Y121.162 E0.00996
G1 X148.482 Y120.891 E0.01467
G1 X148.666 Y121.075 E0.00996
G1 X148.937 Y120.804 E0.01467
G1 X148.753 Y120.620 E0.00996
G1 X149.024 Y120.349 E0.01467
G1 X149.328 Y120.653 E0.01645
G1 F8640
G1 X149.024 Y120.349 E-0.09928
G1 X148.753 Y120.620 E-0.08852
G1 X148.937 Y120.804 E-0.06010
G1 X148.666 Y121.075 E-0.08852
G1 X148.482 Y120.891 E-0.06010
G1 X148.211 Y121.162 E-0.08852
G1 X148.395 Y121.346 E-0.06010
G1 X148.124 Y121.617 E-0.08852
G1 X147.939 Y121.433 E-0.06010
G1 X147.737 Y121.636 E-0.06625
G1 E-0.04000 F2100.00000
G1 Z0.800 F10800.000
G1 X152.558 Y111.420
G1 Z0.200
G1 E0.80000 F2100.00000
G1 F1193.38
G1 X152.558 Y98.580 E0.48311
G1 X153.384 Y98.580 E0.03107
G1 X153.384 Y111.420 E0.48311
G1 X152.618 Y111.420 E0.02882
G1 X152.181 Y111.797 F10800.000
G1 F1193.38
G1 X152.181 Y98.203 E0.51148
G1 X153.761 Y98.203 E0.05945
G1 X153.761 Y111.797 E0.51149
G1 X152.241 Y111.797 E0.05719
G1 X152.196 Y111.397 F10800.000
G1 F8640
G1 X152.226 Y108.506 E-0.76000
G1 E-0.04000 F2100.00000
G1 Z0.800 F10800.000
G1 X153.271 Y111.114
G1 Z0.200
G1 E0.80000 F2100.00000
G1 F1149.35
G1 X152.841 Y110.684 E0.02375
G1 X152.841 Y110.130 E0.02163
G1 X153.101 Y110.390 E0.01438
G1 X153.101 Y109.837 E0.02163
G1 X152.841 Y109.576 E0.01438
G1 X152.841 Y109.023 E0.02163
G1 X153.101 Y109.283 E0.01438
G1 X153.101 Y108.729 E0.02163
G1 X152.841 Y108.469 E0.01438
G1 X152.841 Y107.915 E0.02163
G1 X153.101 Y108.176 E0.01438
G1 X153.101 Y107.622 E0.02163
G1 X152.841 Y107.362 E0.01438
G1 X152.841 Y106.808 E0.02163
G1 X153.101 Y107.068 E0.01438
G1 X153.101 Y106.514 E0.02163
G1 X152.841 Y106.254 E0.01438
G1 X152.841 Y105.700 E0.02163
G1 X153.101 Y105.961 E0.01438
G1 X153.101 Y105.407 E0.02163
G1 X152.841 Y105.147 E0.01438
G1 X152.841 Y104.593 E0.02163
G1 X153.101 Y104.853 E0.01438
G1 X153.101 Y104.300 E0.02163
G1 X152.841 Y104.039 E0.01438
G1 X152.841 Y103.486 E0.02163
G1 X153.101 Y103.746 E0.01438
G1 X153.101 Y103.192 E0.02163
G1 X152.841 Y102.932 E0.01438
G1 X152.841 Y102.378 E0.02163
G1 X153.101 Y102.639 E0.01438
G1 X153.101 Y102.085 E0.02163
G1 X152.841 Y101.825 E0.01438
G1 X152.841 Y101.271 E0.02163
G1 X153.101 Y101.531 E0.01438
G1 X153.101 Y100.977 E0.02163
G1 X152.841 Y100.717 E0.01438
G1 X152.841 Y100.163 E0.02163
G1 X153.101 Y100.424 E0.01438
G1 X153.101 Y99.870 E0.02163
G1 X152.841 Y99.610 E0.01438
G1 X152.841 Y99.056 E0.02163
G1 X153.271 Y99.486 E0.02375
G1 F8640
G1 X152.841 Y99.056 E-0.14040
G1 X152.841 Y99.610 E-0.12785
G1 X153.101 Y99.870 E-0.08499
G1 X153.101 Y100.424 E-0.12785
G1 X152.841 Y100.163 E-0.08499
G1 X152.841 Y100.717 E-0.12785
G1 X153.043 Y100.919 E-0.06607
G1 E-0.04000 F2100.00000
G1 Z0.800 F10800.000
G1 X149.026 Y90.053
G1 Z0.200
G1 E0.80000 F2100.00000
G1 F1193.38
G1 X139.947 Y80.974 E0.48311
G1 X140.531 Y80.390 E0.03107
G1 X149.610 Y89.469 E0.48311
G1 X149.069 Y90.011 E0.02881
G1 X149.026 Y90.586 F10800.000
G1 F1193.38
G1 X139.414 Y80.974 E0.51148
G1 X140.531 Y79.857 E0.05945
G1 X150.143 Y89.469 E0.51149
G1 X149.069 Y90.544 E0.05719
G1 X148.754 Y90.293 F10800.000
G1 X149.303 Y89.616
G1 F994.486
G1 X140.384 Y80.697 E0.56952
G1 F8640
G1 X142.712 Y83.024 E-0.76000
G1 E-0.04000 F2100.00000
G1 Z0.800 F10800.000
G1 X131.420 Y77.442
G1 Z0.200
G1 E0.80000 F2100.00000
G1 F1193.38
G1 X118.580 Y77.442 E0.48310
G1 X118.580 Y76.616 E0.03107
G1 X131.420 Y76.616 E0.48311
G1 X131.420 Y77.382 E0.02882
G1 X131.797 Y77.819 F10800.000
G1 F1193.38
G1 X118.203 Y77.819 E0.51148
G1 X118.203 Y76.239 E0.05945
G1 X131.797 Y76.239 E0.51148
G1 X131.797 Y77.759 E0.05719
G1 X131.397 Y77.804 F10800.000
G1 X131.114 Y77.329
G1 F1149.35
G1 X130.684 Y76.899 E0.02375
G1 X130.130 Y76.899 E0.02163
G1 X130.390 Y77.159 E0.01438
G1 X129.836 Y77.159 E0.02163
G1 X129.576 Y76.899 E0.01438
G1 X129.023 Y76.899 E0.02163
G1 X129.283 Y77.159 E0.01438
G1 X128.729 Y77.159 E0.02163
G1 X128.469 Y76.899 E0.01438
G1 X127.915 Y76.899 E0.02163
G1 X128.175 Y77.159 E0.01438
G1 X127.622 Y77.159 E0.02163
G1 X127.361 Y76.899 E0.01438
G1 X126.808 Y76.899 E0.02163
G1 X127.068 Y77.159 E0.01438
G1 X126.514 Y77.159 E0.02163
G1 X126.254 Y76.899 E0.01438
G1 X125.700 Y76.899 E0.02163
G1 X125.961 Y77.159 E0.01438
G1 X125.407 Y77.159 E0.02163
G1 X125.147 Y76.899 E0.01438
G1 X124.593 Y76.899 E0.02163
G1 X124.853 Y77.159 E0.01438
G1 X124.300 Y77.159 E0.02163
G1 X124.039 Y76.899 E0.01438
G1 X123.486 Y76.899 E0.02163
G1 X123.746 Y77.159 E0.01438
G1 X123.192 Y77.159 E0.02163
G1 X122.932 Y76.899 E0.01438
G1 X122.378 Y76.899 E0.02163
G1 X122.638 Y77.159 E0.01438
G1 X122.085 Y77.159 E0.02163
G1 X121.824 Y76.899 E0.01438
G1 X121.271 Y76.899 E0.02163
G1 X121.531 Y77.159 E0.01438
G1 X120.977 Y77.159 E0.02163
G1 X120.717 Y76.899 E0.01438
G1 X120.163 Y76.899 E0.02163
G1 X120.424 Y77.159 E0.01438
G1 X119.870 Y77.159 E0.02163
G1 X119.610 Y76.899 E0.01438
G1 X119.056 Y76.899 E0.02163
G1 X119.486 Y77.329 E0.02375
G1 F8640
G1 X119.056 Y76.899 E-0.14040
G1 X119.610 Y76.899 E-0.12785
G1 X119.870 Y77.159 E-0.08499
G1 X120.424 Y77.159 E-0.12785
G1 X120.163 Y76.899 E-0.08499
G1 X120.717 Y76.899 E-0.12785
G1 X120.919 Y77.101 E-0.06607
G1 E-0.04000 F2100.00000
G1 Z0.800 F10800.000
G1 X110.053 Y80.974
G1 Z0.200
G1 E0.80000 F2100.00000
G1 F1193.38
G1 X100.974 Y90.053 E0.48310
G1 X100.390 Y89.469 E0.03107
G1 X109.469 Y80.390 E0.48311
G1 X110.011 Y80.931 E0.02881
G1 X110.586 Y80.974 F10800.000
G1 F1193.38
G1 X100.974 Y90.586 E0.51148
G1 X99.857 Y89.469 E0.05945
G1 X109.469 Y79.857 E0.51148
G1 X110.544 Y80.931 E0.05719
G1 X110.293 Y81.246 F10800.000
G1 X109.771 Y81.096
G1 F1173.78
G1 X109.467 Y80.792 E0.01645
G1 X109.196 Y81.063 E0.01467
G1 X109.380 Y81.247 E0.00996
G1 X109.109 Y81.518 E0.01467
G1 X108.925 Y81.334 E0.00996
G1 X108.654 Y81.605 E0.01467
G1 X108.838 Y81.789 E0.00996
G1 X108.567 Y82.061 E0.01467
G1 X108.383 Y81.876 E0.00996
G1 X108.111 Y82.148 E0.01467
G1 X108.295 Y82.332 E0.00996
G1 X108.024 Y82.603 E0.01467
G1 X107.840 Y82.419 E0.00996
G1 X107.569 Y82.690 E0.01467
G1 X107.753 Y82.874 E0.00996
G1 X107.482 Y83.145 E0.01467
G1 X107.298 Y82.961 E0.00996
G1 X107.027 Y83.232 E0.01467
G1 X107.211 Y83.416 E0.00996
G1 X106.940 Y83.687 E0.01467
G1 X106.756 Y83.503 E0.00996
G1 X106.485 Y83.774 E0.01467
G1 X106.669 Y83.958 E0.00996
G1 X106.398 Y84.229 E0.01467
G1 X106.214 Y84.045 E0.00996
G1 X105.943 Y84.316 E0.01467
G1 X106.127 Y84.500 E0.00996
G1 X105.856 Y84.771 E0.01467
G1 X105.672 Y84.587 E0.00996
G1 X105.401 Y84.858 E0.01467
G1 X105.585 Y85.043 E0.00996
G1 X105.313 Y85.314 E0.01467
G1 X105.129 Y85.130 E0.00996
G1 X104.858 Y85.401 E0.01467
G1 X105.042 Y85.585 E0.00996
G1 X104.771 Y85.856 E0.01467
G1 X104.587 Y85.672 E0.00996
G1 X104.316 Y85.943 E0.01467
G1 X104.500 Y86.127 E0.00996
G1 X104.229 Y86.398 E0.01467
G1 X104.045 Y86.214 E0.00996
G1 X103.774 Y86.485 E0.01467
G1 X103.958 Y86.669 E0.00996
G1 X103.687 Y86.940 E0.01467
G1 X103.503 Y86.756 E0.00996
G1 X103.232 Y87.027 E0.01467
G1 X103.416 Y87.211 E0.00996
G1 X103.145 Y87.482 E0.01467
G1 X102.961 Y87.298 E0.00996
G1 X102.690 Y87.569 E0.01467
G1 X102.874 Y87.753 E0.00996
G1 X102.603 Y88.024 E0.01467
G1 X102.419 Y87.840 E0.00996
G1 X102.147 Y88.112 E0.01467
G1 X102.331 Y88.296 E0.00996
G1 X102.060 Y88.567 E0.01467
G1 X101.876 Y88.383 E0.00996
G1 X101.605 Y88.654 E0.01467
G1 X101.789 Y88.838 E0.00996
G1 X101.518 Y89.109 E0.01467
G1 X101.334 Y88.925 E0.00996
G1 X101.063 Y89.196 E0.01467
G1 X101.247 Y89.380 E0.00996
G1 X100.976 Y89.651 E0.01467
G1 X100.672 Y89.347 E0.01645
G1 F8640
G1 X100.976 Y89.651 E-0.09928
G1 X101.247 Y89.380 E-0.08852
G1 X101.063 Y89.196 E-0.06010
G1 X101.334 Y88.925 E-0.08852
G1 X101.518 Y89.109 E-0.06010
G1 X101.789 Y88.838 E-0.08852
G1 X101.605 Y88.654 E-0.06010
G1 X101.876 Y88.383 E-0.08852
G1 X102.060 Y88.567 E-0.06010
G1 X102.263 Y88.364 E-0.06624
G1 E-0.04000 F2100.00000
G1 Z0.800 F10800.000
G1 X97.442 Y98.580
G1 Z0.200
G1 E0.80000 F2100.00000
G1 F1193.38
G1 X97.442 Y111.420 E0.48310
G1 X96.616 Y111.420 E0.03107
G1 X96.616 Y98.580 E0.48311
G1 X97.382 Y98.580 E0.02882
G1 X97.819 Y98.203 F10800.000
G1 F1193.38
G1 X97.819 Y111.797 E0.51148
G1 X96.239 Y111.797 E0.05945
G1 X96.239 Y98.203 E0.51148
G1 X97.759 Y98.203 E0.05719
G1 X97.804 Y98.603 F10800.000
G1 F8640
G1 X97.774 Y101.494 E-0.76000
G1 E-0.04000 F2100.00000
G1 Z0.800 F10800.000
G1 X97.329 Y99.486
G1 Z0.200
G1 E0.80000 F2100.00000
G1 F1149.35
G1 X96.899 Y99.056 E0.02375
G1 X96.899 Y99.610 E0.02163
G1 X97.159 Y99.870 E0.01438
G1 X97.159 Y100.424 E0.02163
G1 X96.899 Y100.164 E0.01438
G1 X96.899 Y100.717 E0.02163
G1 X97.159 Y100.977 E0.01438
G1 X97.159 Y101.531 E0.02163
G1 X96.899 Y101.271 E0.01438
G1 X96.899 Y101.825 E0.02163
G1 X97.159 Y102.085 E0.01438
G1 X97.159 Y102.639 E0.02163
G1 X96.899 Y102.378 E0.01438
G1 X96.899 Y102.932 E0.02163
G1 X97.159 Y103.192 E0.01438
G1 X97.159 Y103.746 E0.02163
G1 X96.899 Y103.486 E0.01438
G1 X96.899 Y104.039 E0.02163
G1 X97.159 Y104.300 E0.01438
G1 X97.159 Y104.853 E0.02163
G1 X96.899 Y104.593 E0.01438
G1 X96.899 Y105.147 E0.02163
G1 X97.159 Y105.407 E0.01438
G1 X97.159 Y105.961 E0.02163
G1 X96.899 Y105.701 E0.01438
G1 X96.899 Y106.254 E0.02163
G1 X97.159 Y106.514 E0.01438
G1 X97.159 Y107.068 E0.02163
G1 X96.899 Y106.808 E0.01438
G1 X96.899 Y107.362 E0.02163
G1 X97.159 Y107.622 E0.01438
G1 X97.159 Y108.176 E0.02163
G1 X96.899 Y107.915 E0.01438
G1 X96.899 Y108.469 E0.02163
G1 X97.159 Y108.729 E0.01438
