; generated by PrusaSlicer 2.0.0+win64 on 2019-06-14 at 09:17:22

; 

; external perimeters extrusion width = 0.45mm
; perimeters extrusion width = 0.45mm
; infill extrusion width = 0.45mm
; solid infill extrusion width = 0.45mm
; top infill extrusion width = 0.40mm
; first layer extrusion width = 0.42mm

M73 P0 R111
M73 Q0 S112
M201 X1000 Y1000 Z1000 E5000 ; sets maximum accelerations, mm/sec^2
M203 X200 Y200 Z12 E120 ; sets maximum feedrates, mm/sec
M204 P1250 R1250 T1250 ; sets acceleration (P, T) and retract acceleration (R), mm/sec^2
M205 X8.00 Y8.00 Z0.40 E1.50 ; sets the jerk limits, mm/sec
M205 S0 T0 ; sets the minimum extruding and travel feed rate, mm/sec
M107
M115 U3.7.1 ; tell printer latest fw version
G90 ; use absolute coordinates
M83 ; extruder relative mode
M104 S215 ; set extruder temp
M140 S70 ; set bed temp
M190 S70 ; wait for bed temp
M109 S215 ; wait for extruder temp
G28 W ; home all without mesh bed level
G80 ; mesh bed leveling
G1 Y-3.0 F1000.0 ; go outside print area
G92 E0.0
G1 X60.0 E9.0 F1000.0 ; intro line
M73 Q0 S112
M73 P0 R111
G1 X100.0 E12.5 F1000.0 ; intro line
G92 E0.0
M221 S95
M900 K30 ; Filament gcode
G21 ; set units to millimeters
G90 ; use absolute coordinates
M83 ; use relative distances for extrusion
;BEFORE_LAYER_CHANGE
G92 E0.0
;0.2


G1 E-0.80000 F2100.00000
G1 Z0.600 F10800.000
;AFTER_LAYER_CHANGE
;0.2
G1 X80.604 Y28.700
G1 Z0.200
G1 E0.80000 F2100.00000
M204 S1000
G1 F1200
G1 X81.061 Y28.343 E0.01817
G1 X81.596 Y28.119 E0.01817
G1 X82.170 Y28.043 E0.01817
G1 X179.859 Y41.016 E3.08987
G1 X180.616 Y41.264 E0.02496
G1 X181.204 Y41.733 E0.02360
G1 X181.600 Y42.374 E0.02360
G1 X201.160 Y92.391 E1.68393
G1 X201.307 Y93.075 E0.02191
G1 X201.247 Y93.702 E0.01976
G1 X201.014 Y94.283 E0.01964
G1 X171.803 Y144.295 E1.81598
G1 X171.281 Y144.896 E0.02496
G1 X170.827 Y145.175 E0.01669
G1 X90.604 Y181.761 E2.76457
G1 X89.806 Y181.954 E0.02574
G1 X89.204 Y181.900 E0.01896
G1 X88.636 Y181.681 E0.01908
G1 X50.431 Y160.074 E1.37620
G1 X50.000 Y159.743 E0.01703
G1 X49.666 Y159.320 E0.01692
G1 X49.444 Y158.824 E0.01703
G1 X49.351 Y158.292 E0.01692
G1 X48.691 Y88.205 E2.19763
G1 X48.757 Y87.655 E0.01737
G1 X48.952 Y87.152 E0.01692
G1 X80.257 Y29.163 E2.06623
G1 X80.568 Y28.748 E0.01629
G1 F8640
G1 X81.061 Y28.343 E-0.14720
G1 X81.596 Y28.119 E-0.13379
G1 X82.170 Y28.043 E-0.13379
G1 X83.652 Y28.240 E-0.34522
G1 E-0.04000 F2100.00000
G1 Z0.800 F10800.000
G1 X99.259 Y120.790
G1 Z0.200
G1 E0.80000 F2100.00000
G1 F1200
G1 X95.825 Y153.200 E1.02191
G1 X118.642 Y165.624 E0.81458
G1 X115.667 Y167.011 E0.10290
G1 X95.418 Y157.045 E0.70764
G1 X93.255 Y177.462 E0.64377
G1 X90.389 Y178.799 E0.09917
G1 X96.161 Y122.234 E1.78276
G1 X99.204 Y120.815 E0.10530
G1 F8640
G1 X98.863 Y124.089 E-0.76000
G1 E-0.04000 F2100.00000
G1 Z0.800 F10800.000
G1 X96.227 Y152.990
G1 Z0.200
G1 E0.80000 F2100.00000
G1 F1200
G1 X119.478 Y165.650 E0.83010
G1 X115.663 Y167.430 E0.13199
G1 X95.736 Y157.621 E0.69637
G1 X93.608 Y177.714 E0.63352
G1 X89.946 Y179.422 E0.12668
G1 X95.807 Y121.983 E1.81030
G1 X99.704 Y120.166 E0.13481
G1 X96.233 Y152.930 E1.03305
G1 X96.098 Y153.368 F10800.000
G1 X95.568 Y152.947
G1 F1200
G1 X93.520 Y150.899 E0.09112
G1 X93.569 Y150.413 E0.01535
G1 X95.619 Y152.463 E0.09119
G1 X95.670 Y151.979 E0.01531
G1 X93.619 Y149.928 E0.09127
G1 X93.669 Y149.442 E0.01535
G1 X95.722 Y151.495 E0.09134
G1 X95.773 Y151.012 E0.01530
G1 X93.718 Y148.957 E0.09142
G1 X93.768 Y148.471 E0.01535
G1 X95.824 Y150.528 E0.09150
G1 X95.875 Y150.044 E0.01530
G1 X93.817 Y147.986 E0.09157
G1 X93.867 Y147.500 E0.01535
G1 X95.927 Y149.560 E0.09165
G1 X95.978 Y149.076 E0.01530
G1 X93.916 Y147.015 E0.09172
G1 X93.966 Y146.529 E0.01535
G1 X96.029 Y148.593 E0.09180
G1 X96.080 Y148.109 E0.01530
G1 X94.015 Y146.044 E0.09188
G1 X94.065 Y145.558 E0.01535
G1 X96.132 Y147.625 E0.09195
G1 X96.183 Y147.141 E0.01530
G1 X94.114 Y145.073 E0.09203
G1 X94.164 Y144.587 E0.01535
G1 X96.234 Y146.657 E0.09210
G1 X96.285 Y146.174 E0.01530
G1 X94.213 Y144.102 E0.09218
G1 X94.263 Y143.616 E0.01535
G1 X96.337 Y145.690 E0.09226
G1 X96.388 Y145.206 E0.01530
G1 X94.313 Y143.131 E0.09233
G1 X94.362 Y142.645 E0.01535
G1 X96.439 Y144.722 E0.09241
G1 X96.490 Y144.238 E0.01530
G1 X94.412 Y142.160 E0.09248
G1 X94.461 Y141.674 E0.01535
G1 X96.542 Y143.755 E0.09256
G1 X96.593 Y143.271 E0.01530
G1 X94.511 Y141.189 E0.09264
G1 X94.560 Y140.703 E0.01535
G1 X96.644 Y142.787 E0.09271
G1 X96.695 Y142.303 E0.01530
G1 X94.610 Y140.218 E0.09279
G1 X94.659 Y139.732 E0.01535
G1 X96.747 Y141.819 E0.09286
G1 X96.798 Y141.336 E0.01530
G1 X94.709 Y139.247 E0.09294
G1 X94.758 Y138.761 E0.01535
G1 X96.849 Y140.852 E0.09302
G1 X96.900 Y140.368 E0.01530
G1 X94.808 Y138.276 E0.09309
G1 X94.858 Y137.790 E0.01535
G1 X96.952 Y139.884 E0.09317
G1 X97.003 Y139.400 E0.01531
G1 X94.907 Y137.305 E0.09324
G1 X94.957 Y136.819 E0.01535
G1 X97.054 Y138.917 E0.09332
G1 X97.105 Y138.433 E0.01531
G1 X95.006 Y136.334 E0.09340
G1 X95.056 Y135.848 E0.01535
G1 X97.157 Y137.949 E0.09347
G1 X97.208 Y137.465 E0.01531
G1 X95.105 Y135.363 E0.09355
G1 X95.155 Y134.877 E0.01535
G1 X97.259 Y136.981 E0.09362
G1 X97.310 Y136.498 E0.01531
G1 X95.204 Y134.392 E0.09370
G1 X95.254 Y133.906 E0.01535
G1 X97.362 Y136.014 E0.09378
G1 X97.413 Y135.530 E0.01531
G1 X95.303 Y133.420 E0.09385
G1 X95.353 Y132.935 E0.01535
G1 X97.464 Y135.046 E0.09393
G1 X97.515 Y134.562 E0.01530
G1 X95.402 Y132.449 E0.09400
G1 X95.452 Y131.964 E0.01535
G1 X97.567 Y134.079 E0.09408
G1 X97.618 Y133.595 E0.01530
G1 X95.502 Y131.478 E0.09416
G1 X95.551 Y130.993 E0.01535
G1 X97.669 Y133.111 E0.09423
G1 X97.720 Y132.627 E0.01530
G1 X95.601 Y130.507 E0.09431
G1 X95.650 Y130.022 E0.01535
G1 X97.772 Y132.143 E0.09438
G1 X97.823 Y131.660 E0.01530
G1 X95.700 Y129.536 E0.09446
G1 X95.749 Y129.051 E0.01535
G1 X97.874 Y131.176 E0.09454
G1 X97.925 Y130.692 E0.01530
G1 X95.799 Y128.565 E0.09461
G1 X95.848 Y128.080 E0.01535
G1 X97.977 Y130.208 E0.09469
G1 X98.028 Y129.724 E0.01530
G1 X95.898 Y127.594 E0.09476
G1 X95.947 Y127.109 E0.01535
G1 X98.079 Y129.241 E0.09484
G1 X98.130 Y128.757 E0.01530
G1 X95.997 Y126.623 E0.09492
G1 X96.047 Y126.138 E0.01535
G1 X98.182 Y128.273 E0.09499
G1 X98.233 Y127.789 E0.01530
G1 X96.096 Y125.652 E0.09507
G1 X96.146 Y125.167 E0.01535
G1 X98.284 Y127.305 E0.09514
G1 X98.335 Y126.822 E0.01530
G1 X96.195 Y124.681 E0.09522
G1 X96.245 Y124.196 E0.01535
G1 X98.387 Y126.338 E0.09530
G1 X98.438 Y125.854 E0.01530
G1 X96.294 Y123.710 E0.09537
G1 X96.344 Y123.225 E0.01535
G1 X98.489 Y125.370 E0.09545
G1 X98.540 Y124.886 E0.01530
G1 X96.393 Y122.739 E0.09552
G1 X96.426 Y122.423 E0.01001
G1 X96.553 Y122.364 E0.00441
G1 X98.592 Y124.403 E0.09072
G1 X98.643 Y123.919 E0.01530
G1 X96.917 Y122.193 E0.07676
G1 X97.282 Y122.023 E0.01267
G1 X98.694 Y123.435 E0.06281
G1 X98.745 Y122.951 E0.01530
G1 X97.647 Y121.853 E0.04886
G1 X98.012 Y121.683 E0.01267
G1 X98.797 Y122.467 E0.03490
G1 X98.848 Y121.984 E0.01530
G1 X98.377 Y121.513 E0.02095
G1 X98.742 Y121.343 E0.01267
G1 X99.053 Y121.654 E0.01386
G1 F8640
G1 X98.742 Y121.343 E-0.10172
G1 X98.377 Y121.513 E-0.09297
G1 X98.848 Y121.984 E-0.15376
G1 X98.797 Y122.467 E-0.11234
G1 X98.012 Y121.683 E-0.25618
G1 X97.843 Y121.762 E-0.04305
G1 E-0.04000 F2100.00000
G1 Z0.800 F10800.000
G1 X96.524 Y153.903
G1 Z0.200
G1 E0.80000 F2100.00000
G1 F1200
G1 X103.535 Y160.914 E0.31191
G1 F8640
G1 X101.207 Y158.586 E-0.76000
G1 E-0.04000 F2100.00000
G1 Z0.800 F10800.000
G1 X102.481 Y160.395
G1 Z0.200
G1 E0.80000 F2100.00000
M73 Q0 S111
G1 F1200
G1 X93.470 Y151.384 E0.40088
M73 P0 R110
G1 X93.421 Y151.870 E0.01535
G1 X101.427 Y159.876 E0.35621
G1 F8640
G1 X99.100 Y157.549 E-0.76000
G1 E-0.04000 F2100.00000
G1 Z0.800 F10800.000
G1 X100.374 Y159.358
G1 Z0.200
G1 E0.80000 F2100.00000
G1 F1200
G1 X93.371 Y152.355 E0.31153
G1 X93.322 Y152.841 E0.01535
G1 X99.320 Y158.839 E0.26686
G1 F8640
G1 X96.993 Y156.512 E-0.76000
G1 E-0.04000 F2100.00000
G1 Z0.800 F10800.000
G1 X98.266 Y158.320
G1 Z0.200
G1 E0.80000 F2100.00000
G1 F1200
G1 X93.272 Y153.326 E0.22218
G1 X93.223 Y153.812 E0.01535
G1 X97.213 Y157.802 E0.17751
G1 F8640
G1 X94.885 Y155.474 E-0.76000
G1 E-0.04000 F2100.00000
G1 Z0.800 F10800.000
G1 X96.159 Y157.283
G1 Z0.200
G1 E0.80000 F2100.00000
G1 F1200
G1 X93.173 Y154.297 E0.13284
G1 X93.124 Y154.783 E0.01535
G1 X95.158 Y156.817 E0.09051
G1 X95.107 Y157.301 E0.01530
G1 X93.074 Y155.268 E0.09043
G1 X93.024 Y155.754 E0.01535
G1 X95.055 Y157.785 E0.09036
G1 X95.004 Y158.269 E0.01530
G1 X92.975 Y156.239 E0.09028
G1 X92.925 Y156.725 E0.01535
G1 X94.953 Y158.752 E0.09020
G1 X94.902 Y159.236 E0.01530
G1 X92.876 Y157.210 E0.09013
G1 X92.826 Y157.696 E0.01535
G1 X94.850 Y159.720 E0.09005
G1 X94.799 Y160.204 E0.01530
G1 X92.777 Y158.181 E0.08998
G1 X92.727 Y158.667 E0.01535
G1 X94.748 Y160.688 E0.08990
G1 X94.697 Y161.171 E0.01530
G1 X92.678 Y159.152 E0.08982
G1 X92.628 Y159.638 E0.01535
G1 X94.645 Y161.655 E0.08975
G1 X94.594 Y162.139 E0.01530
G1 X92.579 Y160.123 E0.08967
G1 X92.529 Y160.609 E0.01535
G1 X94.543 Y162.623 E0.08959
G1 X94.492 Y163.107 E0.01530
G1 X92.479 Y161.094 E0.08952
G1 X92.430 Y161.580 E0.01535
G1 X94.440 Y163.590 E0.08944
G1 X94.389 Y164.074 E0.01530
G1 X92.380 Y162.065 E0.08937
G1 X92.331 Y162.551 E0.01535
G1 X94.338 Y164.558 E0.08929
G1 X94.287 Y165.042 E0.01530
G1 X92.281 Y163.037 E0.08921
G1 X92.232 Y163.522 E0.01535
G1 X94.235 Y165.526 E0.08914
G1 X94.184 Y166.009 E0.01530
G1 X92.182 Y164.008 E0.08906
G1 X92.133 Y164.493 E0.01535
G1 X94.133 Y166.493 E0.08899
G1 X94.082 Y166.977 E0.01530
G1 X92.083 Y164.979 E0.08891
G1 X92.034 Y165.464 E0.01535
G1 X94.030 Y167.461 E0.08883
G1 X93.979 Y167.945 E0.01530
G1 X91.984 Y165.950 E0.08876
G1 X91.935 Y166.435 E0.01535
G1 X93.928 Y168.428 E0.08868
G1 X93.877 Y168.912 E0.01530
G1 X91.885 Y166.921 E0.08861
G1 X91.835 Y167.406 E0.01535
G1 X93.825 Y169.396 E0.08853
G1 X93.774 Y169.880 E0.01530
G1 X91.786 Y167.892 E0.08845
G1 X91.736 Y168.377 E0.01535
G1 X93.723 Y170.364 E0.08838
G1 X93.672 Y170.847 E0.01530
G1 X91.687 Y168.863 E0.08830
G1 X91.637 Y169.348 E0.01535
G1 X93.620 Y171.331 E0.08823
G1 X93.569 Y171.815 E0.01530
G1 X91.588 Y169.834 E0.08815
G1 X91.538 Y170.319 E0.01535
G1 X93.518 Y172.299 E0.08807
G1 X93.467 Y172.783 E0.01530
G1 X91.489 Y170.805 E0.08800
G1 X91.439 Y171.290 E0.01535
G1 X93.415 Y173.266 E0.08792
G1 X93.364 Y173.750 E0.01530
G1 X91.390 Y171.776 E0.08785
G1 X91.340 Y172.261 E0.01535
G1 X93.313 Y174.234 E0.08777
G1 X93.262 Y174.718 E0.01530
G1 X91.290 Y172.747 E0.08769
G1 X91.241 Y173.232 E0.01535
G1 X93.210 Y175.202 E0.08762
G1 X93.159 Y175.685 E0.01530
G1 X91.191 Y173.718 E0.08754
G1 X91.142 Y174.203 E0.01535
G1 X93.108 Y176.169 E0.08747
G1 X93.057 Y176.653 E0.01530
G1 X91.092 Y174.689 E0.08739
G1 X91.043 Y175.174 E0.01535
G1 X93.005 Y177.137 E0.08731
G1 X92.991 Y177.274 E0.00433
G1 X92.729 Y177.396 E0.00908
G1 X90.993 Y175.660 E0.07723
G1 X90.944 Y176.145 E0.01535
G1 X92.364 Y177.566 E0.06320
G1 X91.999 Y177.736 E0.01267
G1 X90.894 Y176.631 E0.04917
G1 X90.845 Y177.116 E0.01535
G1 X91.635 Y177.906 E0.03514
G1 X91.270 Y178.076 E0.01267
G1 X90.795 Y177.602 E0.02111
G1 X90.746 Y178.087 E0.01535
G1 X91.032 Y178.374 E0.01276
G1 F8640
G1 X90.746 Y178.087 E-0.09368
G1 X90.795 Y177.602 E-0.11269
G1 X91.270 Y178.076 E-0.15497
G1 X91.635 Y177.906 E-0.09297
G1 X90.845 Y177.116 E-0.25794
G1 X90.866 Y176.910 E-0.04775
G1 E-0.04000 F2100.00000
G1 Z0.800 F10800.000
G1 X104.588 Y161.432
G1 Z0.200
G1 E0.80000 F2100.00000
G1 F1200
G1 X97.274 Y154.118 E0.32539
G1 F8640
G1 X99.602 Y156.446 E-0.76000
G1 E-0.04000 F2100.00000
G1 Z0.800 F10800.000
G1 X98.449 Y154.758
G1 Z0.200
G1 E0.80000 F2100.00000
G1 F1200
G1 X105.642 Y161.951 E0.32001
G1 F8640
G1 X103.315 Y159.623 E-0.76000
G1 E-0.04000 F2100.00000
G1 Z0.800 F10800.000
G1 X106.696 Y162.469
G1 Z0.200
G1 E0.80000 F2100.00000
G1 F1200
G1 X99.624 Y155.398 E0.31463
G1 F8640
G1 X101.951 Y157.725 E-0.76000
G1 E-0.04000 F2100.00000
G1 Z0.800 F10800.000
G1 X100.798 Y156.037
G1 Z0.200
G1 E0.80000 F2100.00000
G1 F1200
G1 X107.749 Y162.988 E0.30924
G1 F8640
G1 X105.422 Y160.661 E-0.76000
G1 E-0.04000 F2100.00000
G1 Z0.800 F10800.000
G1 X108.803 Y163.507
G1 Z0.200
G1 E0.80000 F2100.00000
G1 F1200
G1 X101.973 Y156.677 E0.30386
G1 F8640
G1 X104.301 Y159.004 E-0.76000
G1 E-0.04000 F2100.00000
G1 Z0.800 F10800.000
G1 X103.148 Y157.316
G1 Z0.200
G1 E0.80000 F2100.00000
G1 F1200
G1 X109.857 Y164.025 E0.29848
G1 F8640
G1 X107.529 Y161.698 E-0.76000
G1 E-0.04000 F2100.00000
G1 Z0.800 F10800.000
G1 X110.910 Y164.544
G1 Z0.200
G1 E0.80000 F2100.00000
G1 F1200
G1 X104.323 Y157.956 E0.29309
G1 F8640
G1 X106.650 Y160.283 E-0.76000
G1 E-0.04000 F2100.00000
G1 Z0.800 F10800.000
G1 X105.497 Y158.596
G1 Z0.200
G1 E0.80000 F2100.00000
G1 F1200
G1 X111.964 Y165.063 E0.28771
G1 F8640
G1 X109.637 Y162.735 E-0.76000
G1 E-0.04000 F2100.00000
G1 Z0.800 F10800.000
G1 X113.018 Y165.581
G1 Z0.200
G1 E0.80000 F2100.00000
G1 F1200
G1 X106.672 Y159.235 E0.28232
G1 F8640
G1 X108.999 Y161.563 E-0.76000
G1 E-0.04000 F2100.00000
G1 Z0.800 F10800.000
G1 X107.847 Y159.875
G1 Z0.200
G1 E0.80000 F2100.00000
G1 F1200
G1 X114.071 Y166.100 E0.27694
G1 F8640
G1 X111.744 Y163.772 E-0.76000
G1 E-0.04000 F2100.00000
G1 Z0.800 F10800.000
G1 X115.125 Y166.618
G1 Z0.200
G1 E0.80000 F2100.00000
G1 F1200
G1 X109.021 Y160.515 E0.27156
G1 F8640
G1 X111.349 Y162.842 E-0.76000
G1 E-0.04000 F2100.00000
G1 Z0.800 F10800.000
G1 X110.196 Y161.154
G1 Z0.200
G1 E0.80000 F2100.00000
G1 F1200
G1 X115.845 Y166.804 E0.25134
G1 X116.210 Y166.634 F10800.000
G1 F1200
G1 X111.371 Y161.794 E0.21531
G1 F8640
G1 X113.698 Y164.121 E-0.76000
G1 E-0.04000 F2100.00000
G1 Z0.800 F10800.000
G1 X112.545 Y162.434
G1 Z0.200
G1 E0.80000 F2100.00000
G1 F1200
G1 X116.575 Y166.463 E0.17929
G1 X116.940 Y166.293 F10800.000
G1 F1200
G1 X113.720 Y163.073 E0.14326
G1 F8640
G1 X116.047 Y165.401 E-0.76000
G1 E-0.04000 F2100.00000
G1 Z0.800 F10800.000
G1 X114.895 Y163.713
G1 Z0.200
G1 E0.80000 F2100.00000
G1 F1200
G1 X117.305 Y166.123 E0.10723
G1 X117.670 Y165.953 F10800.000
G1 F1200
G1 X116.069 Y164.352 E0.07120
G1 F8640
G1 X117.670 Y165.953 E-0.52261
G1 E-0.27739 F2100.00000
G1 Z0.800 F10800.000
G1 X117.244 Y164.992
G1 Z0.200
G1 E0.80000 F2100.00000
G1 F1200
G1 X118.035 Y165.783 E0.03518
G1 F8640
G1 X117.244 Y164.992 E-0.25818
G1 E-0.54182 F2100.00000
G1 Z0.800 F10800.000
G1 X84.929 Y157.598
G1 Z0.200
G1 E0.80000 F2100.00000
G1 F1200
G1 X83.269 Y157.598 E0.05206
G1 X69.720 Y135.420 E0.81487
G1 X55.509 Y157.598 E0.82589
G1 X52.599 Y157.598 E0.09126
G1 X68.142 Y132.836 E0.91667
G1 X53.442 Y108.772 E0.88415
G1 X57.505 Y108.772 E0.12740
G1 X69.661 Y130.415 E0.77833
G1 X83.247 Y108.772 E0.80123
G1 X86.795 Y108.772 E0.11125
G1 X71.187 Y133.131 E0.90710
G1 X84.900 Y157.546 E0.87798
G1 F8640
G1 X83.269 Y157.598 E-0.37677
G1 X82.403 Y156.182 E-0.38323
G1 E-0.04000 F2100.00000
G1 Z0.800 F10800.000
G1 X69.679 Y129.677
G1 Z0.200
G1 E0.80000 F2100.00000
G1 F1200
G1 X83.038 Y108.395 E0.78787
G1 X87.485 Y108.395 E0.13940
G1 X71.626 Y133.144 E0.92162
G1 X85.573 Y157.975 E0.89296
G1 X83.057 Y157.975 E0.07889
G1 X69.713 Y136.131 E0.80261
G1 X55.716 Y157.975 E0.81346
G1 X51.917 Y157.975 E0.11910
G1 X67.698 Y132.833 E0.93073
G1 X52.769 Y108.395 E0.89791
G1 X57.726 Y108.395 E0.15540
G1 X69.650 Y129.625 E0.76347
G1 X69.992 Y129.927 F10800.000
G1 X69.095 Y129.638
G1 F1200
G1 X61.965 Y122.508 E0.31754
G1 F8640
G1 X64.293 Y124.836 E-0.76000
G1 E-0.04000 F2100.00000
G1 Z0.800 F10800.000
G1 X61.125 Y121.132
G1 Z0.200
G1 E0.80000 F2100.00000
G1 F1200
G1 X68.408 Y128.416 E0.32442
G1 F8640
G1 X66.081 Y126.088 E-0.76000
G1 E-0.04000 F2100.00000
G1 Z0.800 F10800.000
G1 X67.722 Y127.194
G1 Z0.200
G1 E0.80000 F2100.00000
G1 F1200
G1 X60.284 Y119.755 E0.33131
G1 F8640
G1 X62.611 Y122.083 E-0.76000
G1 E-0.04000 F2100.00000
G1 Z0.800 F10800.000
G1 X59.443 Y118.379
G1 Z0.200
G1 E0.80000 F2100.00000
G1 F1200
G1 X67.036 Y125.972 E0.33819
G1 F8640
G1 X64.708 Y123.644 E-0.76000
G1 E-0.04000 F2100.00000
G1 Z0.800 F10800.000
G1 X66.349 Y124.749
G1 Z0.200
G1 E0.80000 F2100.00000
G1 F1200
G1 X58.602 Y117.002 E0.34507
G1 F8640
