; generated by PrusaSlicer 2.0.0+win64 on 2019-11-20 at 14:04:35

; 

; external perimeters extrusion width = 0.45mm
; perimeters extrusion width = 0.45mm
; infill extrusion width = 0.45mm
; solid infill extrusion width = 0.45mm
; top infill extrusion width = 0.40mm
; first layer extrusion width = 0.42mm

M73 P0 R24
M73 Q0 S24
M201 X1000 Y1000 Z1000 E5000 ; sets maximum accelerations, mm/sec^2
M203 X200 Y200 Z12 E120 ; sets maximum feedrates, mm/sec
M204 P1250 R1250 T1250 ; sets acceleration (P, T) and retract acceleration (R), mm/sec^2
M205 X8.00 Y8.00 Z0.40 E1.50 ; sets the jerk limits, mm/sec
M205 S0 T0 ; sets the minimum extruding and travel feed rate, mm/sec
M107
M115 U3.8.1 ; tell printer latest fw version
G90 ; use absolute coordinates
M83 ; extruder relative mode
M104 S215 ; set extruder temp
M140 S60 ; set bed temp
M190 S60 ; wait for bed temp
M109 S215 ; wait for extruder temp
G28 W ; home all without mesh bed level
G80 ; mesh bed leveling
G1 Y-3.0 F1000.0 ; go outside print area
G92 E0.0
G1 X60.0 E9.0 F1000.0 ; intro line
M73 Q0 S24
M73 P0 R24
G1 X100.0 E12.5 F1000.0 ; intro line
G92 E0.0
M221 S95
M900 K30 ; Filament gcode
G21 ; set units to millimeters
G90 ; use absolute coordinates
M83 ; use relative distances for extrusion
;BEFORE_LAYER_CHANGE
G92 E0.0
;0.2


G1 E-0.80000 F2100.00000
G1 Z0.600 F10800.000
;AFTER_LAYER_CHANGE
;0.2
G1 X117.977 Y86.232
G1 Z0.200
G1 E0.80000 F2100.00000
M204 S1000
G1 F1200
G1 X118.302 Y85.641 E0.02116
G1 X118.773 Y85.152 E0.02128
G1 X119.352 Y84.805 E0.02116
G1 X120.005 Y84.621 E0.02128
G1 X129.373 Y84.595 E0.29374
G1 X139.868 Y84.774 E0.32910
G1 X140.511 Y84.951 E0.02091
G1 X141.086 Y85.288 E0.02091
G1 X141.556 Y85.762 E0.02091
G1 X141.887 Y86.341 E0.02091
G1 X142.077 Y87.202 E0.02765
G1 X142.747 Y105.851 E0.58512
G1 X142.747 Y111.011 E0.16177
G1 X142.621 Y111.737 E0.02312
G1 X142.293 Y112.398 E0.02312
G1 X141.791 Y112.938 E0.02312
G1 X141.156 Y113.313 E0.02312
G1 X140.311 Y113.502 E0.02717
G1 X130.066 Y113.859 E0.32140
G1 X120.878 Y113.857 E0.28809
G1 X120.165 Y113.721 E0.02275
G1 X119.519 Y113.391 E0.02275
G1 X118.991 Y112.894 E0.02275
G1 X118.623 Y112.268 E0.02275
G1 X118.434 Y111.399 E0.02790
G1 X117.805 Y92.225 E0.60151
G1 X117.805 Y87.085 E0.16115
G1 X117.966 Y86.291 E0.02541
G1 X118.326 Y86.378 F10800.000
G1 F1200
G1 X118.607 Y85.863 E0.01839
G1 X119.018 Y85.439 E0.01851
G1 X119.527 Y85.140 E0.01851
G1 X120.094 Y84.989 E0.01839
G1 X129.373 Y84.972 E0.29094
G1 X139.780 Y85.143 E0.32635
G1 X140.337 Y85.287 E0.01805
G1 X140.838 Y85.572 E0.01805
G1 X141.246 Y85.978 E0.01805
G1 X141.534 Y86.473 E0.01794
G1 X141.700 Y87.222 E0.02405
G1 X142.370 Y105.865 E0.58492
G1 X142.371 Y110.983 E0.16050
G1 X142.267 Y111.605 E0.01976
G1 X141.992 Y112.171 E0.01976
G1 X141.566 Y112.636 E0.01976
G1 X141.025 Y112.960 E0.01976
G1 X140.287 Y113.126 E0.02372
G1 X130.055 Y113.482 E0.32102
G1 X120.917 Y113.481 E0.28652
G1 X120.307 Y113.371 E0.01942
G1 X119.750 Y113.093 E0.01953
G1 X119.294 Y112.669 E0.01953
G1 X118.977 Y112.137 E0.01942
G1 X118.810 Y111.380 E0.02428
G1 X118.182 Y92.217 E0.60116
G1 X118.181 Y87.105 E0.16028
G1 X118.314 Y86.436 E0.02138
G1 F8640
G1 X118.607 Y85.863 E-0.14873
G1 X119.018 Y85.439 E-0.13630
G1 X119.527 Y85.140 E-0.13630
G1 X120.094 Y84.989 E-0.13546
G1 X120.974 Y84.987 E-0.20321
G1 E-0.04000 F2100.00000
G1 Z0.800 F10800.000
G1 X120.956 Y88.878
G1 Z0.200
G1 E0.80000 F2100.00000
G1 F1200
G1 X121.165 Y89.204 E0.01212
G1 X121.507 Y89.500 E0.01418
G1 X121.857 Y89.661 E0.01206
G1 X121.509 Y89.820 E0.01198
G1 X121.195 Y90.090 E0.01298
G1 X121.022 Y90.315 E0.00891
G1 X120.956 Y90.458 E0.00494
G1 X120.956 Y88.938 E0.04765
G1 F8640
G1 X121.165 Y89.204 E-0.07794
G1 X121.507 Y89.500 E-0.10444
G1 X121.857 Y89.661 E-0.08884
G1 X121.509 Y89.820 E-0.08821
G1 X121.195 Y90.090 E-0.09561
G1 X121.022 Y90.315 E-0.06562
G1 X120.956 Y90.458 E-0.03639
G1 X120.956 Y89.579 E-0.20296
G1 E-0.04000 F2100.00000
G1 Z0.800 F10800.000
G1 X127.872 Y89.656
G1 Z0.200
G1 E0.80000 F2100.00000
G1 F1200
G1 X128.031 Y89.609 E0.00521
G1 X128.413 Y89.364 E0.01422
G1 X128.696 Y89.038 E0.01355
G1 X128.782 Y88.879 E0.00567
G1 X128.782 Y90.442 E0.04901
G1 X128.573 Y90.117 E0.01212
G1 X128.231 Y89.820 E0.01422
G1 X127.926 Y89.681 E0.01049
G1 F8640
G1 X128.031 Y89.609 E-0.02931
G1 X128.413 Y89.364 E-0.10470
G1 X128.696 Y89.038 E-0.09979
G1 X128.782 Y88.879 E-0.04175
G1 X128.782 Y90.442 E-0.36093
G1 X128.573 Y90.117 E-0.08923
G1 X128.461 Y90.020 E-0.03430
G1 E-0.04000 F2100.00000
G1 Z0.800 F10800.000
G1 X128.579 Y91.950
G1 Z0.200
G1 E0.80000 F2100.00000
G1 F1200
G1 X128.579 Y91.145 E0.02524
G1 X128.533 Y90.826 E0.01010
G1 X128.468 Y90.650 E0.00589
G1 X128.285 Y90.366 E0.01058
G1 X128.025 Y90.141 E0.01082
G1 X127.711 Y89.997 E0.01082
G1 X127.384 Y89.950 E0.01034
G1 X122.354 Y89.950 E0.15771
G1 X122.028 Y89.997 E0.01034
G1 X121.714 Y90.140 E0.01081
G1 X121.470 Y90.350 E0.01009
G1 X121.347 Y90.511 E0.00635
G1 X121.206 Y90.819 E0.01062
G1 X121.159 Y91.145 E0.01034
G1 X121.159 Y91.950 E0.02524
G1 X120.579 Y91.950 E0.01819
G1 X120.579 Y87.370 E0.14360
G1 X121.159 Y87.370 E0.01819
G1 X121.159 Y88.175 E0.02524
G1 X121.205 Y88.494 E0.01010
G1 X121.271 Y88.670 E0.00589
G1 X121.453 Y88.954 E0.01058
G1 X121.714 Y89.180 E0.01081
G1 X122.006 Y89.315 E0.01009
G1 X122.203 Y89.360 E0.00635
G1 X127.542 Y89.360 E0.16739
G1 X127.873 Y89.263 E0.01082
G1 X128.163 Y89.076 E0.01082
G1 X128.384 Y88.821 E0.01058
G1 X128.470 Y88.663 E0.00565
G1 X128.533 Y88.494 E0.00565
G1 X128.579 Y88.175 E0.01010
G1 X128.579 Y87.370 E0.02524
G1 X129.159 Y87.370 E0.01819
G1 X129.159 Y91.950 E0.14360
G1 X128.639 Y91.950 E0.01630
G1 X128.596 Y91.551 F10800.000
G1 X128.869 Y91.762
G1 F1200
G1 X128.869 Y91.132 E0.01063
G1 X128.843 Y90.754 E0.00639
G1 X128.685 Y90.667 E0.00304
G1 X128.454 Y89.764 F10800.000
G1 F1200
G1 X128.594 Y89.459 E0.00204
G1 X128.683 Y88.659 F10800.000
G1 F1200
G1 X128.843 Y88.568 E0.00310
G1 X128.869 Y88.189 E0.00641
G1 X128.869 Y87.559 E0.01063
G1 F8640
G1 X128.869 Y88.189 E-0.14546
G1 X128.843 Y88.568 E-0.08767
G1 X128.683 Y88.659 E-0.04248
G1 E-0.52438 F2100.00000
G1 Z0.800 F10800.000
G1 X127.619 Y89.772
G1 Z0.200
G1 E0.80000 F2100.00000
G1 F1200
G1 X126.777 Y89.549 E0.00568
G1 X127.234 Y89.655 F10800.000
G1 F1200
G1 X122.415 Y89.655 E0.08539
G1 X122.161 Y89.545 F10800.000
G1 F1200
G1 X122.178 Y89.574 E0.00014
G1 X122.899 Y89.762 E0.00322
G1 F8640
G1 X122.178 Y89.574 E-0.17218
G1 X122.161 Y89.545 E-0.00772
G1 E-0.62010 F2100.00000
G1 Z0.800 F10800.000
G1 X121.051 Y90.672
G1 Z0.200
G1 E0.80000 F2100.00000
G1 F1200
G1 X120.895 Y90.768 E0.00319
G1 X120.869 Y91.132 E0.00635
G1 X120.869 Y91.762 E0.01095
G1 F8640
G1 X120.869 Y91.132 E-0.14546
G1 X120.895 Y90.768 E-0.08427
G1 X121.051 Y90.672 E-0.04231
G1 E-0.52796 F2100.00000
G1 Z0.800 F10800.000
G1 X121.053 Y88.653
G1 Z0.200
G1 E0.80000 F2100.00000
G1 F1200
G1 X120.896 Y88.566 E0.00383
G1 X120.883 Y88.381 E0.00395
G1 X120.870 Y88.203 E0.00340
G1 X120.869 Y87.559 E0.01093
G1 F8640
G1 X120.870 Y88.203 E-0.14881
G1 E-0.65119 F2100.00000
G1 Z0.800 F10800.000
G1 X121.214 Y95.351
G1 Z0.200
G1 E0.80000 F2100.00000
G1 F1200
G1 X121.423 Y95.676 E0.01212
G1 X121.765 Y95.973 E0.01418
G1 X122.114 Y96.134 E0.01206
G1 X121.767 Y96.293 E0.01198
G1 X121.453 Y96.563 E0.01298
G1 X121.280 Y96.788 E0.00891
G1 X121.214 Y96.931 E0.00494
G1 X121.214 Y95.411 E0.04765
G1 F8640
G1 X121.423 Y95.676 E-0.07794
G1 X121.765 Y95.973 E-0.10444
G1 X122.114 Y96.134 E-0.08884
G1 X121.767 Y96.293 E-0.08821
G1 X121.453 Y96.563 E-0.09561
G1 X121.280 Y96.788 E-0.06562
G1 X121.214 Y96.931 E-0.03639
G1 X121.214 Y96.052 E-0.20296
G1 E-0.04000 F2100.00000
G1 Z0.800 F10800.000
G1 X128.130 Y96.129
G1 Z0.200
G1 E0.80000 F2100.00000
G1 F1200
G1 X128.289 Y96.082 E0.00521
G1 X128.670 Y95.837 E0.01422
G1 X128.953 Y95.511 E0.01355
G1 X129.040 Y95.352 E0.00567
G1 X129.040 Y96.915 E0.04901
G1 X128.831 Y96.590 E0.01212
G1 X128.488 Y96.293 E0.01422
G1 X128.184 Y96.154 E0.01049
G1 F8640
G1 X128.289 Y96.082 E-0.02931
G1 X128.670 Y95.837 E-0.10470
G1 X128.953 Y95.511 E-0.09979
G1 X129.040 Y95.352 E-0.04175
G1 X129.040 Y96.915 E-0.36093
G1 X128.831 Y96.590 E-0.08923
G1 X128.719 Y96.493 E-0.03430
G1 E-0.04000 F2100.00000
G1 Z0.800 F10800.000
G1 X128.837 Y98.423
G1 Z0.200
G1 E0.80000 F2100.00000
G1 F1200
G1 X128.837 Y97.618 E0.02524
G1 X128.791 Y97.299 E0.01010
G1 X128.726 Y97.123 E0.00589
G1 X128.543 Y96.839 E0.01058
G1 X128.282 Y96.613 E0.01082
G1 X127.969 Y96.470 E0.01082
G1 X127.642 Y96.423 E0.01034
G1 X122.612 Y96.423 E0.15771
G1 X122.286 Y96.470 E0.01034
G1 X121.972 Y96.613 E0.01081
G1 X121.728 Y96.823 E0.01009
G1 X121.605 Y96.984 E0.00635
G1 X121.464 Y97.292 E0.01062
G1 X121.417 Y97.618 E0.01034
G1 X121.417 Y98.423 E0.02524
G1 X120.837 Y98.423 E0.01819
G1 X120.837 Y93.843 E0.14360
G1 X121.417 Y93.843 E0.01819
G1 X121.417 Y94.648 E0.02524
G1 X121.463 Y94.967 E0.01010
G1 X121.529 Y95.143 E0.00589
G1 X121.711 Y95.427 E0.01058
G1 X121.971 Y95.653 E0.01081
G1 X122.264 Y95.787 E0.01009
G1 X122.461 Y95.833 E0.00635
G1 X127.800 Y95.833 E0.16739
G1 X128.131 Y95.736 E0.01082
G1 X128.421 Y95.549 E0.01082
G1 X128.642 Y95.294 E0.01058
G1 X128.728 Y95.136 E0.00565
G1 X128.791 Y94.967 E0.00565
G1 X128.837 Y94.648 E0.01010
G1 X128.837 Y93.843 E0.02524
G1 X129.417 Y93.843 E0.01819
G1 X129.417 Y98.423 E0.14360
G1 X128.897 Y98.423 E0.01630
G1 X128.854 Y98.024 F10800.000
G1 X129.127 Y98.235
G1 F1200
G1 X129.127 Y97.605 E0.01063
G1 X129.101 Y97.227 E0.00639
G1 X128.943 Y97.140 E0.00304
G1 X128.712 Y96.237 F10800.000
G1 F1200
G1 X128.851 Y95.932 E0.00204
G1 X128.941 Y95.132 F10800.000
G1 F1200
G1 X129.100 Y95.040 E0.00310
G1 X129.127 Y94.662 E0.00641
G1 X129.127 Y94.032 E0.01063
G1 F8640
G1 X129.127 Y94.662 E-0.14546
G1 X129.100 Y95.040 E-0.08767
G1 X128.941 Y95.132 E-0.04248
G1 E-0.52438 F2100.00000
G1 Z0.800 F10800.000
G1 X127.877 Y96.245
G1 Z0.200
G1 E0.80000 F2100.00000
G1 F1200
G1 X127.034 Y96.022 E0.00568
G1 X127.492 Y96.128 F10800.000
G1 F1200
G1 X122.673 Y96.128 E0.08539
G1 X122.419 Y96.018 F10800.000
G1 F1200
G1 X122.435 Y96.046 E0.00014
G1 X123.157 Y96.235 E0.00322
G1 F8640
G1 X122.435 Y96.046 E-0.17218
G1 X122.419 Y96.018 E-0.00772
G1 E-0.62010 F2100.00000
G1 Z0.800 F10800.000
G1 X121.309 Y97.145
G1 Z0.200
G1 E0.80000 F2100.00000
G1 F1200
G1 X121.153 Y97.241 E0.00319
G1 X121.127 Y97.605 E0.00635
G1 X121.127 Y98.235 E0.01095
G1 F8640
G1 X121.127 Y97.605 E-0.14546
G1 X121.153 Y97.241 E-0.08427
G1 X121.309 Y97.145 E-0.04231
G1 E-0.52796 F2100.00000
G1 Z0.800 F10800.000
G1 X121.311 Y95.126
G1 Z0.200
G1 E0.80000 F2100.00000
G1 F1200
G1 X121.154 Y95.039 E0.00383
G1 X121.140 Y94.854 E0.00395
G1 X121.128 Y94.676 E0.00340
G1 X121.127 Y94.032 E0.01093
G1 F8640
G1 X121.128 Y94.676 E-0.14881
G1 E-0.65119 F2100.00000
G1 Z0.800 F10800.000
G1 X121.565 Y101.685
G1 Z0.200
G1 E0.80000 F2100.00000
G1 F1200
G1 X121.774 Y102.011 E0.01212
G1 X122.116 Y102.307 E0.01418
G1 X122.466 Y102.468 E0.01206
G1 X122.118 Y102.627 E0.01198
G1 X121.804 Y102.897 E0.01298
G1 X121.631 Y103.122 E0.00891
G1 X121.565 Y103.265 E0.00494
G1 X121.565 Y101.745 E0.04765
G1 F8640
G1 X121.774 Y102.011 E-0.07794
G1 X122.116 Y102.307 E-0.10444
G1 X122.466 Y102.468 E-0.08884
G1 X122.118 Y102.627 E-0.08821
G1 X121.804 Y102.897 E-0.09561
G1 X121.631 Y103.122 E-0.06562
G1 X121.565 Y103.265 E-0.03639
G1 X121.565 Y102.386 E-0.20296
G1 E-0.04000 F2100.00000
G1 Z0.800 F10800.000
G1 X128.481 Y102.463
G1 Z0.200
G1 E0.80000 F2100.00000
G1 F1200
G1 X128.640 Y102.416 E0.00521
G1 X129.022 Y102.171 E0.01422
G1 X129.305 Y101.845 E0.01355
G1 X129.391 Y101.686 E0.00567
G1 X129.391 Y103.249 E0.04901
G1 X129.182 Y102.924 E0.01212
G1 X128.840 Y102.627 E0.01422
G1 X128.535 Y102.488 E0.01049
G1 F8640
G1 X128.640 Y102.416 E-0.02931
G1 X129.022 Y102.171 E-0.10470
G1 X129.305 Y101.845 E-0.09979
G1 X129.391 Y101.686 E-0.04175
G1 X129.391 Y103.249 E-0.36093
G1 X129.182 Y102.924 E-0.08923
G1 X129.070 Y102.827 E-0.03430
G1 E-0.04000 F2100.00000
G1 Z0.800 F10800.000
G1 X129.188 Y104.757
G1 Z0.200
G1 E0.80000 F2100.00000
G1 F1200
G1 X129.188 Y103.952 E0.02524
G1 X129.142 Y103.633 E0.01010
G1 X129.077 Y103.457 E0.00589
G1 X128.894 Y103.173 E0.01058
G1 X128.634 Y102.948 E0.01082
G1 X128.320 Y102.804 E0.01082
G1 X127.993 Y102.757 E0.01034
G1 X122.963 Y102.757 E0.15771
G1 X122.637 Y102.804 E0.01034
G1 X122.323 Y102.947 E0.01081
G1 X122.079 Y103.157 E0.01009
G1 X121.956 Y103.318 E0.00635
G1 X121.815 Y103.626 E0.01062
G1 X121.768 Y103.952 E0.01034
G1 X121.768 Y104.757 E0.02524
G1 X121.188 Y104.757 E0.01819
G1 X121.188 Y100.177 E0.14360
G1 X121.768 Y100.177 E0.01819
G1 X121.768 Y100.982 E0.02524
G1 X121.814 Y101.301 E0.01010
G1 X121.880 Y101.477 E0.00589
G1 X122.062 Y101.761 E0.01058
G1 X122.323 Y101.987 E0.01081
G1 X122.615 Y102.122 E0.01009
G1 X122.812 Y102.167 E0.00635
G1 X128.151 Y102.167 E0.16739
G1 X128.482 Y102.070 E0.01082
G1 X128.772 Y101.883 E0.01082
G1 X128.993 Y101.628 E0.01058
G1 X129.079 Y101.470 E0.00565
G1 X129.142 Y101.301 E0.00565
G1 X129.188 Y100.982 E0.01010
G1 X129.188 Y100.177 E0.02524
G1 X129.768 Y100.177 E0.01819
G1 X129.768 Y104.757 E0.14360
G1 X129.248 Y104.757 E0.01630
G1 X129.205 Y104.358 F10800.000
G1 X129.478 Y104.569
G1 F1200
G1 X129.478 Y103.939 E0.01063
G1 X129.452 Y103.561 E0.00639
G1 X129.294 Y103.474 E0.00304
G1 X129.063 Y102.571 F10800.000
G1 F1200
G1 X129.203 Y102.266 E0.00204
G1 X129.292 Y101.466 F10800.000
G1 F1200
G1 X129.452 Y101.375 E0.00310
G1 X129.478 Y100.996 E0.00641
G1 X129.478 Y100.366 E0.01063
G1 F8640
G1 X129.478 Y100.996 E-0.14546
G1 X129.452 Y101.375 E-0.08767
G1 X129.292 Y101.466 E-0.04248
G1 E-0.52438 F2100.00000
G1 Z0.800 F10800.000
G1 X128.228 Y102.579
G1 Z0.200
G1 E0.80000 F2100.00000
G1 F1200
G1 X127.386 Y102.356 E0.00568
G1 X127.843 Y102.462 F10800.000
G1 F1200
G1 X123.024 Y102.462 E0.08539
G1 X122.770 Y102.352 F10800.000
G1 F1200
G1 X122.787 Y102.381 E0.00014
G1 X123.508 Y102.569 E0.00322
G1 F8640
G1 X122.787 Y102.381 E-0.17218
G1 X122.770 Y102.352 E-0.00772
G1 E-0.62010 F2100.00000
G1 Z0.800 F10800.000
G1 X121.660 Y103.479
G1 Z0.200
G1 E0.80000 F2100.00000
G1 F1200
G1 X121.504 Y103.575 E0.00319
G1 X121.478 Y103.939 E0.00635
G1 X121.478 Y104.569 E0.01095
G1 F8640
G1 X121.478 Y103.939 E-0.14546
G1 X121.504 Y103.575 E-0.08427
G1 X121.660 Y103.479 E-0.04231
G1 E-0.52796 F2100.00000
G1 Z0.800 F10800.000
G1 X121.662 Y101.460
G1 Z0.200
G1 E0.80000 F2100.00000
G1 F1200
G1 X121.505 Y101.373 E0.00383
G1 X121.492 Y101.188 E0.00395
G1 X121.479 Y101.010 E0.00340
G1 X121.478 Y100.366 E0.01093
G1 F8640
G1 X121.479 Y101.010 E-0.14881
G1 E-0.65119 F2100.00000
G1 Z0.800 F10800.000
G1 X121.584 Y108.012
G1 Z0.200
G1 E0.80000 F2100.00000
G1 F1200
G1 X121.793 Y108.337 E0.01212
G1 X122.135 Y108.634 E0.01418
G1 X122.484 Y108.795 E0.01206
G1 X122.137 Y108.953 E0.01198
G1 X121.823 Y109.223 E0.01298
G1 X121.650 Y109.449 E0.00891
G1 X121.584 Y109.592 E0.00494
G1 X121.584 Y108.072 E0.04765
G1 F8640
G1 X121.793 Y108.337 E-0.07794
G1 X122.135 Y108.634 E-0.10444
G1 X122.484 Y108.795 E-0.08884
G1 X122.137 Y108.953 E-0.08821
G1 X121.823 Y109.223 E-0.09561
G1 X121.650 Y109.449 E-0.06562
G1 X121.584 Y109.592 E-0.03639
G1 X121.584 Y108.713 E-0.20296
G1 E-0.04000 F2100.00000
G1 Z0.800 F10800.000
G1 X128.500 Y108.790
G1 Z0.200
G1 E0.80000 F2100.00000
G1 F1200
G1 X128.659 Y108.743 E0.00521
G1 X129.040 Y108.498 E0.01422
G1 X129.323 Y108.172 E0.01355
G1 X129.410 Y108.013 E0.00567
G1 X129.410 Y109.576 E0.04901
G1 X129.201 Y109.251 E0.01212
G1 X128.858 Y108.954 E0.01422
G1 X128.554 Y108.815 E0.01049
G1 F8640
G1 X128.659 Y108.743 E-0.02931
G1 X129.040 Y108.498 E-0.10470
G1 X129.323 Y108.172 E-0.09979
G1 X129.410 Y108.013 E-0.04175
G1 X129.410 Y109.576 E-0.36093
G1 X129.201 Y109.251 E-0.08923
G1 X129.089 Y109.154 E-0.03430
G1 E-0.04000 F2100.00000
G1 Z0.800 F10800.000
G1 X129.207 Y111.084
G1 Z0.200
G1 E0.80000 F2100.00000
G1 F1200
G1 X129.207 Y110.279 E0.02524
G1 X129.161 Y109.960 E0.01010
G1 X129.096 Y109.784 E0.00589
G1 X128.913 Y109.500 E0.01058
G1 X128.652 Y109.274 E0.01082
G1 X128.339 Y109.131 E0.01082
G1 X128.012 Y109.084 E0.01034
G1 X122.982 Y109.084 E0.15771
G1 X122.656 Y109.131 E0.01034
