; generated by PrusaSlicer 2.0.0+win64 on 2019-06-13 at 13:03:40

; 

; external perimeters extrusion width = 0.45mm
; perimeters extrusion width = 0.45mm
; infill extrusion width = 0.45mm
; solid infill extrusion width = 0.45mm
; top infill extrusion width = 0.40mm
; first layer extrusion width = 0.42mm

M73 P0 R14
M73 Q0 S14
M201 X1000 Y1000 Z1000 E5000 ; sets maximum accelerations, mm/sec^2
M203 X200 Y200 Z12 E120 ; sets maximum feedrates, mm/sec
M204 P1250 R1250 T1250 ; sets acceleration (P, T) and retract acceleration (R), mm/sec^2
M205 X8.00 Y8.00 Z0.40 E1.50 ; sets the jerk limits, mm/sec
M205 S0 T0 ; sets the minimum extruding and travel feed rate, mm/sec
M107
M115 U3.7.1 ; tell printer latest fw version
G90 ; use absolute coordinates
M83 ; extruder relative mode
M104 S215 ; set extruder temp
M140 S60 ; set bed temp
M190 S60 ; wait for bed temp
M109 S215 ; wait for extruder temp
G28 W ; home all without mesh bed level
G80 ; mesh bed leveling
G1 Y-3.0 F1000.0 ; go outside print area
G92 E0.0
G1 X60.0 E9.0 F1000.0 ; intro line
M73 Q0 S14
M73 P0 R14
G1 X100.0 E12.5 F1000.0 ; intro line
G92 E0.0
M221 S95
M900 K30 ; Filament gcode
G21 ; set units to millimeters
G90 ; use absolute coordinates
M83 ; use relative distances for extrusion
;BEFORE_LAYER_CHANGE
G92 E0.0
;0.2


G1 E-0.80000 F2100.00000
G1 Z0.600 F10800.000
;AFTER_LAYER_CHANGE
;0.2
G1 X113.438 Y83.677
G1 Z0.200
G1 E0.80000 F2100.00000
M204 S1000
G1 F1200
G1 X113.875 Y83.286 E0.01839
G1 X114.401 Y83.026 E0.01839
G1 X114.974 Y82.915 E0.01828
G1 X134.904 Y82.911 E0.62489
G1 X135.717 Y83.070 E0.02597
G1 X136.413 Y83.518 E0.02597
G1 X136.892 Y84.194 E0.02597
G1 X137.086 Y84.999 E0.02597
G1 X137.089 Y124.911 E1.25141
G1 X137.034 Y125.386 E0.01498
G1 X136.879 Y125.834 E0.01487
G1 X136.558 Y126.329 E0.01851
G1 X136.116 Y126.720 E0.01851
G1 X135.585 Y126.979 E0.01851
G1 X135.001 Y127.086 E0.01862
G1 X115.078 Y127.088 E0.62466
G1 X114.611 Y127.033 E0.01475
G1 X114.166 Y126.879 E0.01475
G1 X113.660 Y126.548 E0.01896
G1 X113.266 Y126.094 E0.01885
G1 X113.009 Y125.547 E0.01896
G1 X112.912 Y124.953 E0.01885
G1 X112.911 Y85.089 E1.24992
G1 X112.966 Y84.614 E0.01498
G1 X113.121 Y84.166 E0.01487
G1 X113.405 Y83.727 E0.01640
G1 F8640
G1 X113.875 Y83.286 E-0.14887
G1 X114.401 Y83.026 E-0.13546
G1 X114.974 Y82.915 E-0.13462
G1 X116.451 Y82.915 E-0.34105
G1 E-0.04000 F2100.00000
G1 Z0.800 F10800.000
G1 X122.507 Y112.969
G1 Z0.200
G1 E0.80000 F2100.00000
G1 F1200
G1 X122.884 Y112.915 E0.01193
G1 X123.295 Y112.931 E0.01290
G1 X123.683 Y113.025 E0.01254
G1 X124.045 Y113.190 E0.01246
G1 X124.368 Y113.421 E0.01246
G1 X124.643 Y113.708 E0.01246
G1 X124.857 Y114.042 E0.01246
G1 X125.005 Y114.411 E0.01246
G1 X125.080 Y114.801 E0.01246
G1 X125.080 Y115.199 E0.01246
G1 X125.005 Y115.589 E0.01246
G1 X124.857 Y115.958 E0.01246
G1 X124.643 Y116.292 E0.01246
G1 X124.368 Y116.579 E0.01246
G1 X124.045 Y116.810 E0.01246
G1 X123.683 Y116.975 E0.01246
G1 X123.297 Y117.068 E0.01246
G1 X122.901 Y117.087 E0.01246
G1 X122.507 Y117.031 E0.01246
G1 X122.132 Y116.901 E0.01246
G1 X121.788 Y116.702 E0.01246
G1 X121.488 Y116.442 E0.01246
G1 X121.242 Y116.130 E0.01246
G1 X121.060 Y115.777 E0.01246
G1 X120.948 Y115.395 E0.01246
G1 X120.910 Y115.000 E0.01246
G1 X120.948 Y114.605 E0.01246
G1 X121.060 Y114.223 E0.01246
G1 X121.242 Y113.870 E0.01246
G1 X121.488 Y113.558 E0.01246
G1 X121.788 Y113.298 E0.01246
G1 X122.132 Y113.099 E0.01246
G1 X122.451 Y112.989 E0.01058
G1 X122.574 Y113.345 F10800.000
G1 F1200
G1 X122.904 Y113.293 E0.01046
G1 X123.243 Y113.306 E0.01064
G1 X123.560 Y113.383 E0.01023
G1 X123.855 Y113.518 E0.01020
G1 X124.120 Y113.707 E0.01020
G1 X124.345 Y113.942 E0.01020
G1 X124.521 Y114.216 E0.01020
G1 X124.642 Y114.518 E0.01020
G1 X124.703 Y114.837 E0.01020
G1 X124.703 Y115.163 E0.01020
G1 X124.642 Y115.482 E0.01020
G1 X124.521 Y115.784 E0.01020
G1 X124.345 Y116.058 E0.01020
G1 X124.120 Y116.293 E0.01020
G1 X123.855 Y116.482 E0.01020
G1 X123.560 Y116.617 E0.01020
G1 X123.243 Y116.694 E0.01020
G1 X122.919 Y116.709 E0.01020
G1 X122.597 Y116.663 E0.01020
G1 X122.289 Y116.556 E0.01020
G1 X122.008 Y116.394 E0.01020
G1 X121.762 Y116.181 E0.01020
G1 X121.561 Y115.925 E0.01020
G1 X121.412 Y115.636 E0.01020
G1 X121.320 Y115.324 E0.01020
G1 X121.289 Y115.000 E0.01020
G1 X121.320 Y114.676 E0.01020
G1 X121.412 Y114.364 E0.01020
G1 X121.561 Y114.075 E0.01020
G1 X121.762 Y113.819 E0.01020
G1 X122.008 Y113.606 E0.01020
G1 X122.289 Y113.444 E0.01020
G1 X122.517 Y113.365 E0.00757
G1 X122.665 Y113.024 F10800.000
G1 F8640
G1 X122.904 Y113.293 E-0.09071
G1 X123.243 Y113.306 E-0.07834
G1 X123.560 Y113.383 E-0.07533
G1 X123.855 Y113.518 E-0.07511
G1 X124.120 Y113.707 E-0.07511
G1 X124.345 Y113.942 E-0.07511
G1 X124.521 Y114.216 E-0.07511
G1 X124.642 Y114.518 E-0.07511
G1 X124.703 Y114.837 E-0.07511
G1 X124.703 Y115.119 E-0.06498
G1 E-0.04000 F2100.00000
G1 Z0.800 F10800.000
G1 X122.901 Y97.087
G1 Z0.200
G1 E0.80000 F2100.00000
G1 F1200
G1 X122.507 Y97.031 E0.01246
G1 X122.132 Y96.901 E0.01246
G1 X121.788 Y96.702 E0.01246
G1 X121.488 Y96.442 E0.01246
G1 X121.242 Y96.130 E0.01246
G1 X121.060 Y95.777 E0.01246
G1 X120.948 Y95.395 E0.01246
G1 X120.910 Y95.000 E0.01246
G1 X120.948 Y94.605 E0.01246
G1 X121.060 Y94.223 E0.01246
G1 X121.242 Y93.870 E0.01246
G1 X121.488 Y93.558 E0.01246
G1 X121.788 Y93.298 E0.01246
G1 X122.132 Y93.099 E0.01246
G1 X122.507 Y92.969 E0.01246
G1 X122.884 Y92.915 E0.01193
G1 X123.295 Y92.931 E0.01290
G1 X123.683 Y93.025 E0.01254
G1 X124.045 Y93.190 E0.01246
G1 X124.368 Y93.421 E0.01246
G1 X124.643 Y93.708 E0.01246
G1 X124.857 Y94.042 E0.01246
G1 X125.005 Y94.411 E0.01246
G1 X125.080 Y94.801 E0.01246
G1 X125.080 Y95.199 E0.01246
G1 X125.005 Y95.589 E0.01246
G1 X124.857 Y95.958 E0.01246
G1 X124.643 Y96.292 E0.01246
G1 X124.368 Y96.579 E0.01246
G1 X124.045 Y96.810 E0.01246
G1 X123.683 Y96.975 E0.01246
G1 X123.297 Y97.068 E0.01246
G1 X122.960 Y97.085 E0.01058
G1 X122.943 Y96.708 F10800.000
G1 F1200
G1 X122.597 Y96.663 E0.01094
G1 X122.289 Y96.556 E0.01020
G1 X122.008 Y96.394 E0.01020
G1 X121.762 Y96.181 E0.01020
G1 X121.561 Y95.925 E0.01020
G1 X121.412 Y95.636 E0.01020
G1 X121.320 Y95.324 E0.01020
G1 X121.289 Y95.000 E0.01020
G1 X121.320 Y94.676 E0.01020
G1 X121.412 Y94.364 E0.01020
G1 X121.561 Y94.075 E0.01020
G1 X121.762 Y93.819 E0.01020
G1 X122.008 Y93.606 E0.01020
G1 X122.289 Y93.444 E0.01020
G1 X122.597 Y93.337 E0.01020
G1 X122.904 Y93.293 E0.00972
G1 X123.243 Y93.306 E0.01064
G1 X123.560 Y93.383 E0.01023
G1 X123.855 Y93.518 E0.01020
G1 X124.120 Y93.707 E0.01020
G1 X124.345 Y93.942 E0.01020
G1 X124.521 Y94.216 E0.01020
G1 X124.642 Y94.518 E0.01020
G1 X124.703 Y94.837 E0.01020
G1 X124.703 Y95.163 E0.01020
G1 X124.642 Y95.482 E0.01020
G1 X124.521 Y95.784 E0.01020
G1 X124.345 Y96.058 E0.01020
G1 X124.120 Y96.293 E0.01020
G1 X123.855 Y96.482 E0.01020
G1 X123.560 Y96.617 E0.01020
G1 X123.243 Y96.694 E0.01020
G1 X123.002 Y96.705 E0.00757
G1 X122.757 Y97.003 F10800.000
G1 F8640
G1 X122.597 Y96.663 E-0.09422
G1 X122.289 Y96.556 E-0.07511
G1 X122.008 Y96.394 E-0.07511
G1 X121.762 Y96.181 E-0.07511
G1 X121.561 Y95.925 E-0.07511
G1 X121.412 Y95.636 E-0.07511
G1 X121.320 Y95.324 E-0.07511
G1 X121.289 Y95.000 E-0.07511
G1 X121.320 Y94.676 E-0.07511
G1 X121.399 Y94.406 E-0.06493
G1 E-0.04000 F2100.00000
G1 Z0.800 F10800.000
G1 X115.687 Y85.687
G1 Z0.200
G1 E0.80000 F2100.00000
G1 F1200
G1 X134.313 Y85.687 E0.58400
G1 X134.313 Y124.313 E1.21109
G1 X115.687 Y124.313 E0.58400
G1 X115.687 Y85.747 E1.20920
G1 X115.310 Y85.310 F10800.000
G1 F1200
G1 X134.690 Y85.310 E0.60765
G1 X134.690 Y124.690 E1.23473
G1 X115.310 Y124.690 E0.60765
G1 X115.310 Y85.370 E1.23285
G1 X115.683 Y85.455 F10800.000
G1 F8640
G1 X118.601 Y85.360 E-0.76000
G1 E-0.04000 F2100.00000
G1 Z0.800 F10800.000
G1 X134.200 Y86.567
G1 Z0.200
G1 E0.80000 F2100.00000
G1 F1200
G1 X133.602 Y85.970 E0.02666
G1 X133.066 Y85.970 E0.01693
G1 X134.030 Y86.934 E0.04303
G1 X134.030 Y87.471 E0.01693
G1 X132.529 Y85.970 E0.06696
G1 X131.993 Y85.970 E0.01693
G1 X134.030 Y88.007 E0.09090
G1 X134.030 Y88.544 E0.01693
G1 X131.456 Y85.970 E0.11484
G1 X130.920 Y85.970 E0.01693
G1 X134.030 Y89.080 E0.13878
G1 X134.030 Y89.617 E0.01693
G1 X130.383 Y85.970 E0.16272
G1 X129.846 Y85.970 E0.01693
G1 X134.030 Y90.154 E0.18665
G1 X134.030 Y90.690 E0.01693
G1 X129.310 Y85.970 E0.21059
G1 X128.773 Y85.970 E0.01693
G1 X134.030 Y91.227 E0.23453
G1 X134.030 Y91.763 E0.01693
G1 X128.237 Y85.970 E0.25847
G1 X127.700 Y85.970 E0.01693
G1 X134.030 Y92.300 E0.28241
G1 X134.030 Y92.836 E0.01693
G1 X127.164 Y85.970 E0.30634
G1 X126.627 Y85.970 E0.01693
G1 X134.030 Y93.373 E0.33028
G1 X134.030 Y93.909 E0.01693
G1 X126.091 Y85.970 E0.35422
G1 X125.554 Y85.970 E0.01693
G1 X134.030 Y94.446 E0.37816
G1 X134.030 Y94.983 E0.01693
G1 X125.017 Y85.970 E0.40210
G1 X124.481 Y85.970 E0.01693
G1 X134.030 Y95.519 E0.42603
G1 X134.030 Y96.056 E0.01693
G1 X123.944 Y85.970 E0.44997
G1 X123.408 Y85.970 E0.01693
G1 X134.030 Y96.592 E0.47391
G1 X134.030 Y97.129 E0.01693
G1 X122.871 Y85.970 E0.49785
G1 X122.335 Y85.970 E0.01693
G1 X134.030 Y97.665 E0.52179
G1 X134.030 Y98.202 E0.01693
G1 X121.798 Y85.970 E0.54572
G1 X121.262 Y85.970 E0.01693
G1 X134.030 Y98.738 E0.56966
G1 X134.030 Y99.275 E0.01693
G1 X120.725 Y85.970 E0.59360
G1 X120.188 Y85.970 E0.01693
G1 X134.030 Y99.812 E0.61754
G1 X134.030 Y100.348 E0.01693
G1 X119.652 Y85.970 E0.64148
G1 X119.115 Y85.970 E0.01693
G1 X134.030 Y100.885 E0.66541
G1 X134.030 Y101.421 E0.01693
G1 X118.579 Y85.970 E0.68935
G1 X118.042 Y85.970 E0.01693
G1 X134.030 Y101.958 E0.71329
G1 X134.030 Y102.494 E0.01693
G1 X117.506 Y85.970 E0.73723
G1 X116.969 Y85.970 E0.01693
G1 X123.750 Y92.750 E0.30250
G1 X123.334 Y92.649 E0.01349
G1 X123.103 Y92.641 E0.00728
G1 X116.433 Y85.970 E0.29761
G1 X115.970 Y85.970 E0.01460
G1 X115.970 Y86.044 E0.00233
G1 X122.597 Y92.671 E0.29566
G1 X122.440 Y92.693 E0.00499
G1 X122.175 Y92.785 E0.00887
G1 X115.970 Y86.580 E0.27683
G1 X115.970 Y87.117 E0.01693
G1 X121.811 Y92.958 E0.26060
G1 X121.623 Y93.066 E0.00684
G1 X121.494 Y93.178 E0.00537
G1 X115.970 Y87.653 E0.24647
G1 X115.970 Y88.190 E0.01693
G1 X121.220 Y93.440 E0.23425
G1 X120.988 Y93.745 E0.01208
G1 X115.970 Y88.726 E0.22390
G1 X115.970 Y89.263 E0.01693
G1 X120.806 Y94.099 E0.21576
G1 X120.681 Y94.511 E0.01357
G1 X115.970 Y89.800 E0.21018
G1 X115.970 Y90.336 E0.01693
G1 X120.627 Y94.993 E0.20777
G1 X120.669 Y95.449 E0.01445
G1 X120.720 Y95.623 E0.00571
G1 X115.970 Y90.873 E0.21193
G1 X115.970 Y91.409 E0.01693
G1 X134.030 Y109.469 E0.80575
G1 X134.030 Y108.933 E0.01693
G1 X122.385 Y97.288 E0.51954
G1 X122.887 Y97.371 E0.01606
G1 X123.000 Y97.366 E0.00355
G1 X134.030 Y108.396 E0.49212
G1 X134.030 Y107.860 E0.01693
G1 X123.484 Y97.314 E0.47049
G1 X123.776 Y97.243 E0.00948
G1 X123.896 Y97.189 E0.00414
G1 X134.030 Y107.323 E0.45214
G1 X134.030 Y106.787 E0.01693
G1 X124.253 Y97.009 E0.43622
G1 X124.564 Y96.784 E0.01212
G1 X134.030 Y106.250 E0.42233
G1 X134.030 Y105.714 E0.01693
G1 X124.826 Y96.509 E0.41064
G1 X125.044 Y96.191 E0.01218
G1 X134.030 Y105.177 E0.40092
G1 X134.030 Y104.640 E0.01693
G1 X125.215 Y95.825 E0.39328
G1 X125.278 Y95.669 E0.00532
G1 X125.329 Y95.403 E0.00855
G1 X134.030 Y104.104 E0.38820
M73 Q7 S13
G1 X134.030 Y103.567 E0.01693
G1 X125.363 Y94.900 E0.38668
M73 P7 R13
G1 X125.363 Y94.774 E0.00397
G1 X125.278 Y94.331 E0.01424
G1 X125.242 Y94.243 E0.00300
G1 X134.200 Y103.201 E0.39963
G1 F8640
G1 X131.872 Y100.873 E-0.76000
G1 E-0.04000 F2100.00000
G1 Z0.800 F10800.000
G1 X134.200 Y110.176
G1 Z0.200
G1 E0.80000 F2100.00000
G1 F1200
G1 X115.970 Y91.946 E0.81332
G1 X115.970 Y92.482 E0.01693
G1 X134.030 Y110.543 E0.80575
G1 X134.030 Y111.079 E0.01693
G1 X115.970 Y93.019 E0.80575
G1 X115.970 Y93.555 E0.01693
G1 X134.030 Y111.616 E0.80575
G1 X134.030 Y112.152 E0.01693
G1 X115.970 Y94.092 E0.80575
G1 X115.970 Y94.628 E0.01693
G1 X134.030 Y112.689 E0.80575
G1 X134.030 Y113.225 E0.01693
G1 X115.970 Y95.165 E0.80575
G1 X115.970 Y95.702 E0.01693
G1 X134.030 Y113.762 E0.80575
G1 X134.030 Y114.298 E0.01693
G1 X115.970 Y96.238 E0.80575
G1 X115.970 Y96.775 E0.01693
G1 X134.030 Y114.835 E0.80575
G1 X134.030 Y115.372 E0.01693
G1 X115.970 Y97.311 E0.80575
G1 X115.970 Y97.848 E0.01693
G1 X134.030 Y115.908 E0.80575
G1 X134.030 Y116.445 E0.01693
G1 X115.970 Y98.384 E0.80575
G1 X115.970 Y98.921 E0.01693
G1 X134.030 Y116.981 E0.80575
G1 X134.030 Y117.518 E0.01693
G1 X115.970 Y99.457 E0.80575
G1 X115.970 Y99.994 E0.01693
G1 X134.030 Y118.054 E0.80575
G1 X134.030 Y118.591 E0.01693
G1 X115.970 Y100.531 E0.80575
G1 X115.970 Y101.067 E0.01693
G1 X134.030 Y119.127 E0.80575
G1 X134.030 Y119.664 E0.01693
G1 X115.970 Y101.604 E0.80575
G1 X115.970 Y102.140 E0.01693
G1 X134.030 Y120.201 E0.80575
G1 X134.030 Y120.737 E0.01693
G1 X115.970 Y102.677 E0.80575
G1 X115.970 Y103.213 E0.01693
G1 X134.030 Y121.274 E0.80575
G1 X134.030 Y121.810 E0.01693
G1 X115.970 Y103.750 E0.80575
G1 X115.970 Y104.286 E0.01693
G1 X134.030 Y122.347 E0.80575
G1 X134.030 Y122.883 E0.01693
G1 X115.970 Y104.823 E0.80575
G1 X115.970 Y105.360 E0.01693
G1 X123.257 Y112.646 E0.32510
G1 X122.869 Y112.631 E0.01224
G1 X122.726 Y112.652 E0.00456
G1 X115.970 Y105.896 E0.30141
G1 X115.970 Y106.433 E0.01693
G1 X122.284 Y112.747 E0.28172
G1 X122.014 Y112.841 E0.00903
G1 X121.905 Y112.904 E0.00398
G1 X115.970 Y106.969 E0.26477
G1 X115.970 Y107.506 E0.01693
G1 X121.573 Y113.109 E0.25000
G1 X121.286 Y113.358 E0.01200
G1 X115.970 Y108.042 E0.23718
G1 X115.970 Y108.579 E0.01693
G1 X121.049 Y113.658 E0.22661
G1 X120.856 Y114.002 E0.01243
G1 X115.970 Y109.115 E0.21800
G1 X115.970 Y109.652 E0.01693
G1 X120.714 Y114.396 E0.21167
G1 X120.669 Y114.551 E0.00507
G1 X120.640 Y114.858 E0.00975
G1 X115.970 Y110.189 E0.20834
G1 X115.970 Y110.725 E0.01693
G1 X120.909 Y115.664 E0.22036
G1 F8640
G1 X118.582 Y113.337 E-0.76000
G1 E-0.04000 F2100.00000
G1 Z0.800 F10800.000
G1 X122.336 Y117.091
G1 Z0.200
G1 E0.80000 F2100.00000
G1 F1200
G1 X129.275 Y124.030 E0.30958
G1 X129.811 Y124.030 E0.01693
G1 X123.140 Y117.359 E0.29763
G1 X123.338 Y117.350 E0.00624
G1 X123.603 Y117.285 E0.00861
G1 X130.348 Y124.030 E0.30092
G1 X130.885 Y124.030 E0.01693
G1 X123.997 Y117.143 E0.30729
G1 X124.187 Y117.056 E0.00659
G1 X124.339 Y116.948 E0.00588
G1 X131.421 Y124.030 E0.31598
G1 X131.958 Y124.030 E0.01693
G1 X124.636 Y116.709 E0.32665
G1 X124.892 Y116.427 E0.01198
G1 X132.494 Y124.030 E0.33919
G1 X133.031 Y124.030 E0.01693
G1 X125.102 Y116.101 E0.35376
G1 X125.257 Y115.720 E0.01298
G1 X133.567 Y124.030 E0.37075
G1 X134.030 Y124.030 E0.01460
G1 X134.030 Y123.956 E0.00233
G1 X125.353 Y115.279 E0.38714
G1 X125.358 Y114.748 E0.01677
G1 X134.200 Y123.590 E0.39448
G1 F8640
G1 X131.872 Y121.262 E-0.76000
G1 E-0.04000 F2100.00000
G1 Z0.800 F10800.000
G1 X128.908 Y124.200
G1 Z0.200
G1 E0.80000 F2100.00000
G1 F1200
G1 X115.970 Y111.262 E0.57723
G1 X115.970 Y111.798 E0.01693
G1 X128.202 Y124.030 E0.54572
G1 X127.665 Y124.030 E0.01693
G1 X115.970 Y112.335 E0.52178
G1 X115.970 Y112.871 E0.01693
G1 X127.129 Y124.030 E0.49785
G1 X126.592 Y124.030 E0.01693
G1 X115.970 Y113.408 E0.47391
G1 X115.970 Y113.944 E0.01693
G1 X126.056 Y124.030 E0.44997
G1 X125.519 Y124.030 E0.01693
G1 X115.970 Y114.481 E0.42603
G1 X115.970 Y115.017 E0.01693
G1 X124.983 Y124.030 E0.40209
G1 X124.446 Y124.030 E0.01693
G1 X115.970 Y115.554 E0.37816
G1 X115.970 Y116.091 E0.01693
G1 X123.909 Y124.030 E0.35422
G1 X123.373 Y124.030 E0.01693
G1 X115.970 Y116.627 E0.33028
G1 X115.970 Y117.164 E0.01693
G1 X122.836 Y124.030 E0.30634
G1 X122.300 Y124.030 E0.01693
G1 X115.970 Y117.700 E0.28240
G1 X115.970 Y118.237 E0.01693
G1 X121.763 Y124.030 E0.25847
G1 X121.227 Y124.030 E0.01693
G1 X115.970 Y118.773 E0.23453
G1 X115.970 Y119.310 E0.01693
G1 X120.690 Y124.030 E0.21059
G1 X120.154 Y124.030 E0.01693
G1 X115.970 Y119.846 E0.18665
G1 X115.970 Y120.383 E0.01693
G1 X119.617 Y124.030 E0.16271
G1 X119.080 Y124.030 E0.01693
G1 X115.970 Y120.920 E0.13878
G1 X115.970 Y121.456 E0.01693
G1 X118.544 Y124.030 E0.11484
G1 X118.007 Y124.030 E0.01693
G1 X115.970 Y121.993 E0.09090
G1 X115.970 Y122.529 E0.01693
G1 X117.471 Y124.030 E0.06696
