; generated by PrusaSlicer 2.0.0+linux64 on 2019-07-31 at 09:13:42

; 

; external perimeters extrusion width = 0.45mm
; perimeters extrusion width = 0.45mm
; infill extrusion width = 0.45mm
; solid infill extrusion width = 0.45mm
; top infill extrusion width = 0.40mm
; first layer extrusion width = 0.42mm

M73 P0 R60
M73 Q0 S61
M201 X1000 Y1000 Z1000 E5000 ; sets maximum accelerations, mm/sec^2
M203 X200 Y200 Z12 E120 ; sets maximum feedrates, mm/sec
M204 P1250 R1250 T1250 ; sets acceleration (P, T) and retract acceleration (R), mm/sec^2
M205 X8.00 Y8.00 Z0.40 E1.50 ; sets the jerk limits, mm/sec
M205 S0 T0 ; sets the minimum extruding and travel feed rate, mm/sec
M107
M115 U3.7.1 ; tell printer latest fw version
G90 ; use absolute coordinates
M83 ; extruder relative mode
M104 S215 ; set extruder temp
M140 S60 ; set bed temp
M190 S60 ; wait for bed temp
M109 S215 ; wait for extruder temp
G28 W ; home all without mesh bed level
G80 ; mesh bed leveling
G1 Y-3.0 F1000.0 ; go outside print area
G92 E0.0
G1 X60.0 E9.0 F1000.0 ; intro line
M73 Q0 S61
M73 P0 R60
G1 X100.0 E12.5 F1000.0 ; intro line
G92 E0.0
M221 S95
M900 K30 ; Filament gcode
G21 ; set units to millimeters
G90 ; use absolute coordinates
M83 ; use relative distances for extrusion
;BEFORE_LAYER_CHANGE
G92 E0.0
;0.2


G1 E-0.80000 F2100.00000
G1 Z0.600 F10800.000
;AFTER_LAYER_CHANGE
;0.2
G1 X101.853 Y72.393
G1 Z0.200
G1 E0.80000 F2100.00000
M204 S1000
G1 F1200
G1 X102.290 Y71.789 E0.02336
G1 X102.912 Y71.170 E0.02753
G1 X103.617 Y70.674 E0.02701
G1 X104.336 Y70.325 E0.02508
G1 X122.452 Y64.094 E0.60065
G1 X123.426 Y63.960 E0.03085
G1 X126.504 Y63.959 E0.09649
G1 X127.635 Y64.121 E0.03585
G1 X145.648 Y70.319 E0.59726
G1 X146.513 Y70.758 E0.03043
G1 X147.091 Y71.174 E0.02233
G1 X147.624 Y71.694 E0.02335
G1 X148.236 Y72.532 E0.03254
G1 X148.663 Y73.468 E0.03227
G1 X148.867 Y74.260 E0.02562
G1 X148.944 Y75.136 E0.02756
G1 X148.942 Y134.937 E1.87502
G1 X148.866 Y135.746 E0.02551
G1 X148.674 Y136.498 E0.02433
G1 X148.147 Y137.607 E0.03849
G1 X147.708 Y138.213 E0.02347
G1 X147.085 Y138.832 E0.02753
G1 X146.382 Y139.326 E0.02694
G1 X145.660 Y139.676 E0.02516
G1 X127.548 Y145.906 E0.60054
G1 X126.570 Y146.040 E0.03096
G1 X123.416 Y146.039 E0.09890
G1 X122.361 Y145.878 E0.03346
G1 X104.352 Y139.681 E0.59714
G1 X103.487 Y139.242 E0.03043
G1 X102.909 Y138.826 E0.02233
G1 X102.376 Y138.306 E0.02335
G1 X101.765 Y137.470 E0.03246
G1 X101.337 Y136.532 E0.03235
G1 X101.133 Y135.740 E0.02562
G1 X101.056 Y134.864 E0.02756
G1 X101.058 Y75.063 E1.87502
G1 X101.134 Y74.253 E0.02553
G1 X101.326 Y73.502 E0.02430
G1 X101.827 Y72.447 E0.03661
G1 F8640
G1 X102.290 Y71.789 E-0.18565
G1 X102.912 Y71.170 E-0.20274
G1 X103.617 Y70.674 E-0.19894
G1 X104.289 Y70.348 E-0.17267
G1 E-0.04000 F2100.00000
G1 Z0.800 F10800.000
G1 X124.276 Y138.325
G1 Z0.200
G1 E0.80000 F2100.00000
G1 F1200
G1 X124.820 Y138.222 E0.01734
G1 X125.434 Y138.251 E0.01930
G1 X125.997 Y138.434 E0.01855
G1 X126.493 Y138.748 E0.01840
G1 X126.895 Y139.176 E0.01840
G1 X127.177 Y139.690 E0.01840
G1 X127.323 Y140.259 E0.01841
G1 X127.323 Y140.846 E0.01840
G1 X127.177 Y141.415 E0.01840
G1 X126.895 Y141.929 E0.01841
G1 X126.493 Y142.357 E0.01840
G1 X125.997 Y142.671 E0.01841
G1 X125.439 Y142.853 E0.01840
G1 X124.853 Y142.890 E0.01840
G1 X124.276 Y142.780 E0.01841
G1 X123.745 Y142.530 E0.01841
G1 X123.293 Y142.156 E0.01840
G1 X122.948 Y141.681 E0.01840
G1 X122.732 Y141.135 E0.01840
G1 X122.658 Y140.553 E0.01840
G1 X122.732 Y139.970 E0.01841
G1 X122.948 Y139.424 E0.01841
G1 X123.293 Y138.949 E0.01840
G1 X123.745 Y138.575 E0.01840
G1 X124.222 Y138.351 E0.01652
G1 X124.383 Y138.692 F10800.000
G1 F1200
G1 X124.846 Y138.601 E0.01482
G1 X125.366 Y138.625 E0.01631
G1 X125.835 Y138.778 E0.01547
G1 X126.250 Y139.041 E0.01542
G1 X126.587 Y139.399 E0.01542
G1 X126.824 Y139.830 E0.01542
G1 X126.946 Y140.307 E0.01542
G1 X126.946 Y140.798 E0.01542
G1 X126.824 Y141.275 E0.01542
G1 X126.587 Y141.706 E0.01542
G1 X126.250 Y142.064 E0.01542
G1 X125.835 Y142.327 E0.01542
G1 X125.368 Y142.479 E0.01542
G1 X124.877 Y142.510 E0.01542
G1 X124.394 Y142.418 E0.01542
G1 X123.949 Y142.209 E0.01542
G1 X123.570 Y141.895 E0.01542
G1 X123.281 Y141.498 E0.01542
G1 X123.100 Y141.040 E0.01542
G1 X123.038 Y140.553 E0.01542
G1 X123.100 Y140.065 E0.01542
G1 X123.281 Y139.607 E0.01542
G1 X123.570 Y139.210 E0.01542
G1 X123.949 Y138.896 E0.01542
G1 X124.328 Y138.718 E0.01315
G1 X124.464 Y138.300 F10800.000
G1 F8640
G1 X124.846 Y138.601 E-0.12266
G1 X125.366 Y138.625 E-0.12010
G1 X125.835 Y138.778 E-0.11392
G1 X126.250 Y139.041 E-0.11354
G1 X126.587 Y139.399 E-0.11354
G1 X126.824 Y139.830 E-0.11354
G1 X126.891 Y140.093 E-0.06270
G1 E-0.04000 F2100.00000
G1 Z0.800 F10800.000
G1 X113.913 Y97.565
G1 Z0.200
G1 E0.80000 F2100.00000
G1 F1200
G1 X136.087 Y97.565 E0.69526
G1 X136.087 Y105.740 E0.25629
G1 X113.913 Y105.740 E0.69526
G1 X113.913 Y97.625 E0.25441
G1 X114.290 Y97.943 F10800.000
G1 F1200
G1 X135.710 Y97.943 E0.67161
G1 X135.710 Y105.363 E0.23265
G1 X114.290 Y105.363 E0.67161
G1 X114.290 Y98.003 E0.23077
G1 X114.130 Y97.576 F10800.000
G1 F8640
G1 X117.581 Y97.993 E-0.76000
G1 E-0.04000 F2100.00000
G1 Z0.800 F10800.000
G1 X124.276 Y71.675
G1 Z0.200
G1 E0.80000 F2100.00000
G1 F1200
G1 X123.745 Y71.425 E0.01840
G1 X123.293 Y71.051 E0.01840
G1 X122.948 Y70.576 E0.01840
G1 X122.732 Y70.030 E0.01840
G1 X122.658 Y69.447 E0.01840
G1 X122.732 Y68.865 E0.01841
G1 X122.948 Y68.319 E0.01840
G1 X123.293 Y67.844 E0.01840
G1 X123.745 Y67.470 E0.01840
G1 X124.276 Y67.220 E0.01840
G1 X124.820 Y67.117 E0.01734
G1 X125.434 Y67.146 E0.01930
G1 X125.997 Y67.329 E0.01855
G1 X126.493 Y67.643 E0.01840
G1 X126.895 Y68.071 E0.01840
G1 X127.177 Y68.585 E0.01840
G1 X127.323 Y69.154 E0.01840
G1 X127.323 Y69.741 E0.01840
G1 X127.177 Y70.310 E0.01841
G1 X126.895 Y70.824 E0.01840
G1 X126.493 Y71.252 E0.01840
G1 X125.997 Y71.566 E0.01840
G1 X125.439 Y71.748 E0.01840
G1 X124.853 Y71.785 E0.01841
G1 X124.335 Y71.686 E0.01652
G1 X124.406 Y71.315 F10800.000
G1 F1200
G1 X123.949 Y71.104 E0.01579
G1 X123.570 Y70.790 E0.01542
G1 X123.281 Y70.393 E0.01542
G1 X123.100 Y69.935 E0.01542
G1 X123.038 Y69.447 E0.01542
G1 X123.100 Y68.960 E0.01542
G1 X123.281 Y68.502 E0.01542
G1 X123.570 Y68.105 E0.01542
G1 X123.949 Y67.791 E0.01542
G1 X124.394 Y67.582 E0.01542
G1 X124.846 Y67.495 E0.01445
G1 X125.366 Y67.520 E0.01631
G1 X125.835 Y67.673 E0.01547
G1 X126.250 Y67.936 E0.01542
G1 X126.587 Y68.294 E0.01542
G1 X126.824 Y68.725 E0.01542
G1 X126.946 Y69.202 E0.01542
G1 X126.946 Y69.693 E0.01542
G1 X126.824 Y70.170 E0.01542
G1 X126.587 Y70.601 E0.01542
G1 X126.250 Y70.959 E0.01542
G1 X125.835 Y71.222 E0.01542
G1 X125.368 Y71.374 E0.01542
G1 X124.877 Y71.405 E0.01542
G1 X124.465 Y71.327 E0.01315
G1 X124.110 Y71.584 F10800.000
G1 F8640
G1 X123.949 Y71.104 E-0.12979
G1 X123.570 Y70.790 E-0.11354
G1 X123.281 Y70.393 E-0.11354
G1 X123.100 Y69.935 E-0.11354
G1 X123.038 Y69.447 E-0.11354
G1 X123.100 Y68.960 E-0.11354
G1 X123.200 Y68.708 E-0.06251
G1 E-0.04000 F2100.00000
G1 Z0.800 F10800.000
G1 X127.913 Y72.735
G1 Z0.200
G1 E0.80000 F2100.00000
G1 F1200
G1 X143.730 Y72.735 E0.49593
G1 X144.175 Y72.774 E0.01400
G1 X144.581 Y72.883 E0.01320
G1 X144.957 Y73.058 E0.01299
G1 X145.307 Y73.303 E0.01341
G1 X145.600 Y73.596 E0.01299
G1 X145.842 Y73.940 E0.01319
G1 X146.022 Y74.328 E0.01340
G1 X146.129 Y74.728 E0.01299
G1 X146.168 Y75.173 E0.01401
G1 X146.168 Y134.827 E1.87040
G1 X146.129 Y135.272 E0.01400
G1 X146.020 Y135.678 E0.01319
G1 X145.842 Y136.059 E0.01319
G1 X145.600 Y136.404 E0.01321
G1 X145.307 Y136.697 E0.01300
G1 X144.962 Y136.939 E0.01321
G1 X144.581 Y137.117 E0.01319
G1 X144.175 Y137.226 E0.01319
G1 X143.730 Y137.265 E0.01400
G1 X127.913 Y137.265 E0.49593
G1 X127.913 Y141.820 E0.14279
G1 X127.874 Y142.166 E0.01093
G1 X127.770 Y142.464 E0.00989
G1 X127.602 Y142.731 E0.00989
G1 X127.379 Y142.954 E0.00989
G1 X127.111 Y143.122 E0.00989
G1 X126.814 Y143.226 E0.00989
G1 X126.467 Y143.265 E0.01093
G1 X123.533 Y143.265 E0.09200
G1 X123.186 Y143.226 E0.01093
G1 X122.889 Y143.122 E0.00989
G1 X122.621 Y142.954 E0.00989
G1 X122.398 Y142.731 E0.00989
G1 X122.244 Y142.486 E0.00909
G1 X122.126 Y142.162 E0.01081
G1 X122.087 Y141.820 E0.01080
G1 X122.087 Y137.265 E0.14279
G1 X106.270 Y137.265 E0.49593
G1 X105.825 Y137.226 E0.01400
G1 X105.419 Y137.117 E0.01320
G1 X105.043 Y136.942 E0.01299
G1 X104.693 Y136.697 E0.01341
G1 X104.400 Y136.404 E0.01299
G1 X104.158 Y136.060 E0.01319
G1 X103.978 Y135.672 E0.01340
G1 X103.871 Y135.272 E0.01299
G1 X103.832 Y134.827 E0.01401
G1 X103.832 Y75.173 E1.87040
G1 X103.871 Y74.728 E0.01400
G1 X103.980 Y74.322 E0.01319
G1 X104.158 Y73.941 E0.01319
G1 X104.400 Y73.596 E0.01321
G1 X104.693 Y73.303 E0.01300
G1 X105.038 Y73.061 E0.01321
G1 X105.419 Y72.883 E0.01319
G1 X105.825 Y72.774 E0.01319
G1 X106.270 Y72.735 E0.01400
G1 X122.087 Y72.735 E0.49593
G1 X122.087 Y68.180 E0.14279
G1 X122.126 Y67.834 E0.01093
G1 X122.230 Y67.536 E0.00989
G1 X122.398 Y67.269 E0.00989
G1 X122.621 Y67.046 E0.00989
G1 X122.867 Y66.892 E0.00909
G1 X123.191 Y66.773 E0.01081
G1 X123.533 Y66.735 E0.01080
G1 X126.467 Y66.735 E0.09200
G1 X126.788 Y66.771 E0.01013
G1 X127.115 Y66.880 E0.01081
G1 X127.379 Y67.046 E0.00976
G1 X127.602 Y67.269 E0.00989
G1 X127.770 Y67.536 E0.00989
G1 X127.874 Y67.834 E0.00989
G1 X127.913 Y68.180 E0.01093
G1 X127.913 Y72.675 E0.14091
G1 X128.290 Y72.357 F10800.000
G1 F1200
G1 X143.746 Y72.357 E0.48462
G1 X144.241 Y72.401 E0.01556
G1 X144.711 Y72.527 E0.01527
G1 X145.146 Y72.730 E0.01505
G1 X145.551 Y73.013 E0.01548
G1 X145.890 Y73.352 E0.01505
G1 X146.170 Y73.751 E0.01526
G1 X146.378 Y74.199 E0.01548
G1 X146.502 Y74.662 E0.01506
G1 X146.546 Y75.157 E0.01556
G1 X146.546 Y134.843 E1.87143
G1 X146.502 Y135.338 E0.01556
G1 X146.376 Y135.808 E0.01527
G1 X146.170 Y136.249 E0.01527
G1 X145.890 Y136.648 E0.01527
G1 X145.551 Y136.987 E0.01506
G1 X145.152 Y137.267 E0.01527
G1 X144.711 Y137.473 E0.01527
G1 X144.241 Y137.599 E0.01527
G1 X143.746 Y137.643 E0.01556
G1 X128.290 Y137.643 E0.48462
G1 X128.290 Y141.841 E0.13163
G1 X128.244 Y142.251 E0.01293
G1 X128.112 Y142.629 E0.01256
G1 X127.898 Y142.968 E0.01256
G1 X127.615 Y143.251 E0.01256
G1 X127.276 Y143.464 E0.01256
G1 X126.898 Y143.596 E0.01256
G1 X126.488 Y143.643 E0.01293
G1 X123.512 Y143.643 E0.09332
G1 X123.102 Y143.596 E0.01293
G1 X122.724 Y143.464 E0.01256
G1 X122.385 Y143.251 E0.01256
G1 X122.102 Y142.968 E0.01256
G1 X121.904 Y142.653 E0.01167
G1 X121.756 Y142.249 E0.01347
G1 X121.710 Y141.841 E0.01288
G1 X121.710 Y137.643 E0.13163
G1 X106.254 Y137.643 E0.48462
G1 X105.759 Y137.599 E0.01556
G1 X105.289 Y137.473 E0.01527
G1 X104.854 Y137.270 E0.01505
G1 X104.449 Y136.987 E0.01548
G1 X104.110 Y136.648 E0.01505
G1 X103.830 Y136.249 E0.01526
G1 X103.622 Y135.801 E0.01548
G1 X103.498 Y135.338 E0.01506
G1 X103.454 Y134.843 E0.01556
G1 X103.454 Y75.157 E1.87143
G1 X103.498 Y74.662 E0.01556
G1 X103.624 Y74.192 E0.01527
G1 X103.830 Y73.751 E0.01527
G1 X104.110 Y73.352 E0.01527
G1 X104.449 Y73.013 E0.01506
G1 X104.848 Y72.733 E0.01527
G1 X105.289 Y72.527 E0.01527
G1 X105.759 Y72.401 E0.01527
G1 X106.254 Y72.357 E0.01556
G1 X121.710 Y72.357 E0.48462
G1 X121.710 Y68.159 E0.13163
G1 X121.756 Y67.749 E0.01293
G1 X121.888 Y67.371 E0.01256
G1 X122.102 Y67.032 E0.01256
G1 X122.385 Y66.749 E0.01256
G1 X122.700 Y66.551 E0.01167
G1 X123.103 Y66.403 E0.01347
G1 X123.512 Y66.357 E0.01288
G1 X126.488 Y66.357 E0.09332
G1 X126.870 Y66.400 E0.01204
G1 X127.277 Y66.537 E0.01347
G1 X127.615 Y66.749 E0.01251
G1 X127.898 Y67.032 E0.01256
G1 X128.112 Y67.371 E0.01256
G1 X128.244 Y67.749 E0.01256
G1 X128.290 Y68.159 E0.01293
G1 X128.290 Y72.297 E0.12975
G1 X128.291 Y72.757 F10800.000
G1 F8640
G1 X131.581 Y72.310 E-0.76000
G1 E-0.04000 F2100.00000
G1 Z0.800 F10800.000
G1 X127.176 Y70.546
G1 Z0.200
G1 E0.80000 F2100.00000
G1 F1200
G1 X127.630 Y71.000 E0.02017
G1 X127.630 Y71.534 E0.01681
G1 X127.107 Y71.011 E0.02327
G1 X126.848 Y71.287 E0.01189
G1 X127.630 Y72.069 E0.03478
G1 X127.630 Y72.604 E0.01681
G1 X126.566 Y71.540 E0.04730
G1 X126.239 Y71.748 E0.01218
G1 X145.886 Y91.394 E0.87358
G1 X145.886 Y90.859 E0.01681
G1 X128.044 Y73.017 E0.79334
G1 X128.578 Y73.017 E0.01681
G1 X145.886 Y90.325 E0.76956
G1 X145.886 Y89.790 E0.01681
G1 X129.113 Y73.017 E0.74579
G1 X129.648 Y73.017 E0.01681
G1 X145.886 Y89.255 E0.72201
G1 X145.886 Y88.720 E0.01681
G1 X130.183 Y73.017 E0.69823
G1 X130.717 Y73.017 E0.01681
G1 X145.886 Y88.186 E0.67445
G1 X145.886 Y87.651 E0.01681
G1 X131.252 Y73.017 E0.65067
M73 Q1 S60
M73 P1 R59
G1 X131.787 Y73.017 E0.01681
G1 X145.886 Y87.116 E0.62690
G1 X145.886 Y86.581 E0.01681
G1 X132.322 Y73.017 E0.60312
G1 X132.856 Y73.017 E0.01681
G1 X145.886 Y86.046 E0.57934
G1 X145.886 Y85.512 E0.01681
G1 X133.391 Y73.017 E0.55556
G1 X133.926 Y73.017 E0.01681
G1 X145.886 Y84.977 E0.53179
G1 X145.886 Y84.442 E0.01681
G1 X134.461 Y73.017 E0.50801
G1 X134.995 Y73.017 E0.01681
G1 X145.886 Y83.907 E0.48423
G1 X145.886 Y83.373 E0.01681
G1 X135.530 Y73.017 E0.46045
G1 X136.065 Y73.017 E0.01681
G1 X145.886 Y82.838 E0.43667
G1 X145.886 Y82.303 E0.01681
G1 X136.600 Y73.017 E0.41290
G1 X137.135 Y73.017 E0.01681
G1 X145.886 Y81.768 E0.38912
G1 X145.886 Y81.234 E0.01681
G1 X137.669 Y73.017 E0.36534
G1 X138.204 Y73.017 E0.01681
G1 X145.886 Y80.699 E0.34156
G1 X145.886 Y80.164 E0.01681
G1 X138.739 Y73.017 E0.31778
G1 X139.274 Y73.017 E0.01681
G1 X145.886 Y79.629 E0.29401
G1 X145.886 Y79.095 E0.01681
G1 X139.808 Y73.017 E0.27023
G1 X140.343 Y73.017 E0.01681
G1 X145.886 Y78.560 E0.24645
G1 X145.886 Y78.025 E0.01681
G1 X140.878 Y73.017 E0.22267
G1 X141.413 Y73.017 E0.01681
G1 X145.886 Y77.490 E0.19890
G1 X145.886 Y76.956 E0.01681
G1 X141.947 Y73.017 E0.17512
G1 X142.482 Y73.017 E0.01681
G1 X145.886 Y76.421 E0.15134
G1 X145.886 Y75.886 E0.01681
G1 X143.017 Y73.017 E0.12756
G1 X143.552 Y73.017 E0.01681
G1 X145.886 Y75.351 E0.10378
G1 X145.850 Y74.781 E0.01796
G1 X144.122 Y73.053 E0.07686
G1 X144.484 Y73.149 E0.01179
G1 X144.815 Y73.304 E0.01148
G1 X145.122 Y73.519 E0.01179
G1 X145.868 Y74.264 E0.03315
G1 F8640
G1 X145.122 Y73.519 E-0.24342
G1 X144.815 Y73.304 E-0.08660
G1 X144.484 Y73.149 E-0.08428
G1 X144.122 Y73.053 E-0.08661
G1 X144.915 Y73.846 E-0.25909
G1 E-0.04000 F2100.00000
G1 Z0.800 F10800.000
G1 X146.055 Y92.098
G1 Z0.200
G1 E0.80000 F2100.00000
G1 F1200
G1 X125.864 Y71.907 E0.89781
G1 X125.452 Y72.030 E0.01351
G1 X145.886 Y92.464 E0.90857
G1 X145.886 Y92.998 E0.01681
G1 X124.949 Y72.062 E0.93094
G1 X124.835 Y72.069 E0.00360
G1 X124.324 Y71.972 E0.01635
G1 X145.886 Y93.533 E0.95873
G1 X145.886 Y94.068 E0.01681
G1 X122.370 Y70.552 E1.04563
G1 X122.370 Y71.087 E0.01681
G1 X145.886 Y94.603 E1.04563
G1 X145.886 Y95.137 E0.01681
G1 X122.370 Y71.622 E1.04563
G1 X122.370 Y72.156 E0.01681
G1 X145.886 Y95.672 E1.04563
G1 X145.886 Y96.207 E0.01681
G1 X122.370 Y72.691 E1.04563
G1 X122.370 Y73.017 E0.01026
G1 X122.161 Y73.017 E0.00655
G1 X145.886 Y96.742 E1.05490
G1 X145.886 Y97.276 E0.01681
G1 X121.627 Y73.017 E1.07867
G1 X121.092 Y73.017 E0.01681
G1 X145.886 Y97.811 E1.10245
G1 X145.886 Y98.346 E0.01681
G1 X120.557 Y73.017 E1.12623
G1 X120.022 Y73.017 E0.01681
G1 X145.886 Y98.881 E1.15001
G1 X145.886 Y99.415 E0.01681
G1 X119.488 Y73.017 E1.17379
G1 X118.953 Y73.017 E0.01681
G1 X145.886 Y99.950 E1.19756
G1 X145.886 Y100.485 E0.01681
G1 X118.418 Y73.017 E1.22134
G1 X117.883 Y73.017 E0.01681
G1 X145.886 Y101.020 E1.24512
G1 X145.886 Y101.554 E0.01681
G1 X117.349 Y73.017 E1.26890
G1 X116.814 Y73.017 E0.01681
G1 X145.886 Y102.089 E1.29267
G1 X145.886 Y102.624 E0.01681
G1 X116.279 Y73.017 E1.31645
G1 X115.744 Y73.017 E0.01681
G1 X145.886 Y103.159 E1.34023
G1 X145.886 Y103.693 E0.01681
G1 X115.210 Y73.017 E1.36401
G1 X114.675 Y73.017 E0.01681
G1 X145.886 Y104.228 E1.38779
G1 X145.886 Y104.763 E0.01681
G1 X114.140 Y73.017 E1.41156
M73 Q3 S59
M73 P3 R58
G1 X113.605 Y73.017 E0.01681
G1 X145.886 Y105.298 E1.43534
G1 X145.886 Y105.832 E0.01681
G1 X113.071 Y73.017 E1.45912
G1 X112.536 Y73.017 E0.01681
G1 X145.886 Y106.367 E1.48290
G1 X145.886 Y106.902 E0.01681
G1 X112.001 Y73.017 E1.50667
