; generated by PrusaSlicer 2.0.0+win64 on 2019-11-14 at 11:40:29

; 

; external perimeters extrusion width = 0.45mm
; perimeters extrusion width = 0.45mm
; infill extrusion width = 0.45mm
; solid infill extrusion width = 0.45mm
; top infill extrusion width = 0.40mm
; first layer extrusion width = 0.42mm

M73 P0 R15
M73 Q0 S15
M201 X1000 Y1000 Z1000 E5000 ; sets maximum accelerations, mm/sec^2
M203 X200 Y200 Z12 E120 ; sets maximum feedrates, mm/sec
M204 P1250 R1250 T1250 ; sets acceleration (P, T) and retract acceleration (R), mm/sec^2
M205 X8.00 Y8.00 Z0.40 E1.50 ; sets the jerk limits, mm/sec
M205 S0 T0 ; sets the minimum extruding and travel feed rate, mm/sec
M107
M115 U3.8.1 ; tell printer latest fw version
G90 ; use absolute coordinates
M83 ; extruder relative mode
M104 S215 ; set extruder temp
M140 S60 ; set bed temp
M190 S60 ; wait for bed temp
M109 S215 ; wait for extruder temp
G28 W ; home all without mesh bed level
G80 ; mesh bed leveling
G1 Y-3.0 F1000.0 ; go outside print area
G92 E0.0
G1 X60.0 E9.0 F1000.0 ; intro line
M73 Q0 S15
M73 P0 R15
G1 X100.0 E12.5 F1000.0 ; intro line
G92 E0.0
M221 S95
M900 K30 ; Filament gcode
G21 ; set units to millimeters
G90 ; use absolute coordinates
M83 ; use relative distances for extrusion
;BEFORE_LAYER_CHANGE
G92 E0.0
;0.2


G1 E-0.80000 F2100.00000
G1 Z0.600 F10800.000
;AFTER_LAYER_CHANGE
;0.2
G1 X115.004 Y96.588
G1 Z0.200
G1 E0.80000 F2100.00000
M204 S1000
G1 F1200
G1 X115.672 Y95.852 E0.03116
G1 X116.848 Y94.789 E0.04970
G1 X118.101 Y93.908 E0.04803
G1 X119.007 Y93.391 E0.03271
G1 X120.411 Y92.768 E0.04816
G1 X121.352 Y92.455 E0.03109
G1 X122.900 Y92.104 E0.04977
G1 X123.817 Y91.989 E0.02899
G1 X125.340 Y91.940 E0.04779
G1 X126.326 Y92.003 E0.03097
G1 X127.901 Y92.260 E0.05002
G1 X128.794 Y92.498 E0.02899
G1 X130.282 Y93.050 E0.04977
G1 X131.116 Y93.455 E0.02906
G1 X132.476 Y94.284 E0.04995
G1 X133.722 Y95.274 E0.04989
G1 X134.386 Y95.911 E0.02886
G1 X135.421 Y97.120 E0.04989
G1 X135.951 Y97.873 E0.02886
G1 X136.735 Y99.258 E0.04989
G1 X137.114 Y100.105 E0.02911
G1 X137.616 Y101.607 E0.04964
G1 X137.826 Y102.511 E0.02911
G1 X138.033 Y104.089 E0.04989
G1 X138.065 Y105.072 E0.03085
G1 X137.967 Y106.597 E0.04791
G1 X137.821 Y107.514 E0.02911
G1 X137.421 Y109.050 E0.04977
G1 X137.079 Y109.979 E0.03104
G1 X136.384 Y111.412 E0.04995
G1 X135.519 Y112.748 E0.04989
G1 X134.904 Y113.521 E0.03097
G1 X133.838 Y114.621 E0.04803
G1 X133.089 Y115.259 E0.03085
G1 X131.779 Y116.169 E0.05002
G1 X130.972 Y116.620 E0.02899
G1 X129.519 Y117.259 E0.04977
G1 X128.638 Y117.548 E0.02906
G1 X127.084 Y117.898 E0.04995
G1 X126.173 Y118.012 E0.02881
G1 X124.588 Y118.059 E0.04970
G1 X123.664 Y117.996 E0.02906
G1 X122.092 Y117.738 E0.04995
G1 X120.565 Y117.289 E0.04989
G1 X119.710 Y116.947 E0.02886
G1 X118.298 Y116.214 E0.04989
G1 X117.524 Y115.716 E0.02886
G1 X116.278 Y114.727 E0.04989
G1 X115.611 Y114.086 E0.02899
G1 X114.579 Y112.880 E0.04977
G1 X114.049 Y112.127 E0.02886
G1 X113.265 Y110.742 E0.04989
G1 X112.886 Y109.895 E0.02911
G1 X112.384 Y108.393 E0.04964
G1 X112.174 Y107.489 E0.02911
G1 X111.967 Y105.911 E0.04989
G1 X111.935 Y104.928 E0.03085
G1 X112.033 Y103.403 E0.04791
G1 X112.177 Y102.494 E0.02886
G1 X112.576 Y100.958 E0.04977
G1 X112.896 Y100.081 E0.02924
G1 X113.578 Y98.657 E0.04952
G1 X114.055 Y97.865 E0.02899
G1 X114.968 Y96.636 E0.04801
G1 X115.270 Y96.861 F10800.000
G1 F1200
G1 X115.935 Y96.123 E0.03112
G1 X117.085 Y95.082 E0.04865
G1 X118.307 Y94.224 E0.04681
G1 X119.176 Y93.728 E0.03139
G1 X120.552 Y93.117 E0.04720
G1 X121.449 Y92.819 E0.02962
G1 X122.963 Y92.476 E0.04869
G1 X123.846 Y92.365 E0.02791
G1 X125.340 Y92.317 E0.04686
G1 X126.279 Y92.377 E0.02951
G1 X127.816 Y92.628 E0.04881
G1 X128.677 Y92.857 E0.02795
G1 X130.132 Y93.396 E0.04865
G1 X130.931 Y93.784 E0.02784
G1 X132.259 Y94.593 E0.04876
G1 X132.965 Y95.124 E0.02772
G1 X134.114 Y96.172 E0.04876
G1 X134.706 Y96.829 E0.02772
G1 X135.634 Y98.077 E0.04876
G1 X136.401 Y99.432 E0.04880
G1 X136.764 Y100.245 E0.02791
G1 X137.255 Y101.714 E0.04858
G1 X137.456 Y102.581 E0.02791
G1 X137.658 Y104.124 E0.04880
G1 X137.688 Y105.065 E0.02951
G1 X137.592 Y106.560 E0.04697
G1 X137.453 Y107.436 E0.02779
G1 X137.061 Y108.938 E0.04869
G1 X136.734 Y109.826 E0.02967
G1 X136.056 Y111.226 E0.04876
G1 X135.210 Y112.532 E0.04880
G1 X134.624 Y113.269 E0.02951
G1 X133.579 Y114.348 E0.04709
G1 X132.863 Y114.958 E0.02951
G1 X131.584 Y115.846 E0.04881
G1 X130.806 Y116.281 E0.02795
G1 X129.390 Y116.905 E0.04853
G1 X128.543 Y117.183 E0.02795
G1 X127.026 Y117.526 E0.04876
G1 X126.148 Y117.636 E0.02772
G1 X124.601 Y117.682 E0.04853
G1 X123.712 Y117.622 E0.02795
G1 X122.177 Y117.371 E0.04876
G1 X121.323 Y117.143 E0.02772
G1 X119.865 Y116.603 E0.04876
G1 X119.069 Y116.216 E0.02772
G1 X117.741 Y115.407 E0.04876
G1 X116.522 Y114.439 E0.04880
G1 X115.881 Y113.822 E0.02791
G1 X114.874 Y112.645 E0.04858
G1 X114.366 Y111.923 E0.02768
G1 X113.599 Y110.568 E0.04880
G1 X113.236 Y109.755 E0.02791
G1 X112.745 Y108.286 E0.04858
G1 X112.544 Y107.419 E0.02791
G1 X112.342 Y105.876 E0.04881
G1 X112.312 Y104.935 E0.02951
G1 X112.408 Y103.443 E0.04686
G1 X112.547 Y102.568 E0.02779
G1 X112.937 Y101.069 E0.04858
G1 X113.243 Y100.229 E0.02802
G1 X113.911 Y98.835 E0.04846
G1 X114.369 Y98.072 E0.02791
G1 X115.235 Y96.909 E0.04546
G1 F8640
G1 X115.935 Y96.123 E-0.24300
G1 X117.085 Y95.082 E-0.35824
G1 X117.648 Y94.687 E-0.15876
G1 E-0.04000 F2100.00000
G1 Z0.800 F10800.000
G1 X118.037 Y99.167
G1 Z0.200
G1 E0.80000 F2100.00000
G1 F1200
G1 X118.574 Y98.574 E0.02508
G1 X119.049 Y98.132 E0.02035
G1 X119.554 Y97.725 E0.02034
G1 X120.087 Y97.355 E0.02034
G1 X120.645 Y97.024 E0.02034
G1 X121.225 Y96.734 E0.02034
G1 X121.824 Y96.486 E0.02034
G1 X122.429 Y96.284 E0.02000
G1 X123.068 Y96.120 E0.02067
G1 X123.707 Y96.005 E0.02035
G1 X124.352 Y95.936 E0.02034
G1 X124.989 Y95.913 E0.02000
G1 X125.648 Y95.936 E0.02067
G1 X126.293 Y96.005 E0.02035
G1 X126.932 Y96.120 E0.02034
G1 X127.550 Y96.278 E0.02000
G1 X128.175 Y96.485 E0.02067
G1 X128.775 Y96.734 E0.02035
G1 X129.355 Y97.024 E0.02034
G1 X129.913 Y97.355 E0.02034
G1 X130.446 Y97.725 E0.02034
G1 X130.943 Y98.125 E0.02000
G1 X131.426 Y98.574 E0.02067
G1 X131.868 Y99.049 E0.02035
G1 X132.275 Y99.554 E0.02034
G1 X132.645 Y100.087 E0.02034
G1 X132.976 Y100.645 E0.02034
G1 X133.266 Y101.225 E0.02034
G1 X133.514 Y101.824 E0.02034
G1 X133.719 Y102.440 E0.02034
G1 X133.880 Y103.068 E0.02034
G1 X133.993 Y103.696 E0.02000
G1 X134.064 Y104.351 E0.02067
G1 X134.087 Y105.000 E0.02035
G1 X134.064 Y105.648 E0.02034
G1 X133.995 Y106.293 E0.02034
G1 X133.880 Y106.932 E0.02034
G1 X133.719 Y107.560 E0.02034
G1 X133.514 Y108.176 E0.02034
G1 X133.266 Y108.775 E0.02034
G1 X132.981 Y109.345 E0.02000
G1 X132.645 Y109.913 E0.02067
G1 X132.275 Y110.446 E0.02035
G1 X131.868 Y110.951 E0.02034
G1 X131.426 Y111.426 E0.02034
G1 X130.951 Y111.868 E0.02034
G1 X130.454 Y112.268 E0.02000
G1 X129.913 Y112.645 E0.02067
G1 X129.355 Y112.976 E0.02035
G1 X128.775 Y113.266 E0.02034
G1 X128.176 Y113.514 E0.02034
G1 X127.560 Y113.719 E0.02034
G1 X126.932 Y113.880 E0.02034
G1 X126.304 Y113.993 E0.02000
G1 X125.649 Y114.064 E0.02067
G1 X125.000 Y114.087 E0.02035
G1 X124.352 Y114.064 E0.02034
G1 X123.707 Y113.995 E0.02034
G1 X123.068 Y113.880 E0.02034
G1 X122.440 Y113.719 E0.02034
G1 X121.824 Y113.514 E0.02034
G1 X121.225 Y113.266 E0.02034
G1 X120.655 Y112.981 E0.02000
G1 X120.087 Y112.645 E0.02067
G1 X119.554 Y112.275 E0.02035
G1 X119.049 Y111.868 E0.02034
G1 X118.574 Y111.426 E0.02034
G1 X118.132 Y110.951 E0.02034
G1 X117.732 Y110.454 E0.02000
G1 X117.355 Y109.913 E0.02067
G1 X117.024 Y109.355 E0.02035
G1 X116.734 Y108.775 E0.02034
G1 X116.486 Y108.176 E0.02034
G1 X116.281 Y107.560 E0.02034
G1 X116.120 Y106.932 E0.02034
G1 X116.005 Y106.293 E0.02034
G1 X115.936 Y105.648 E0.02034
G1 X115.913 Y105.000 E0.02034
G1 X115.936 Y104.352 E0.02034
G1 X116.005 Y103.707 E0.02034
G1 X116.120 Y103.068 E0.02034
G1 X116.281 Y102.440 E0.02034
G1 X116.486 Y101.824 E0.02034
G1 X116.730 Y101.235 E0.02000
G1 X117.024 Y100.645 E0.02067
G1 X117.355 Y100.087 E0.02035
G1 X117.725 Y99.554 E0.02034
G1 X117.999 Y99.214 E0.01370
G1 X118.293 Y99.450 F10800.000
G1 F1200
G1 X118.841 Y98.841 E0.02570
G1 X119.296 Y98.417 E0.01950
G1 X119.780 Y98.027 E0.01950
G1 X120.291 Y97.673 E0.01950
G1 X120.826 Y97.355 E0.01950
G1 X121.382 Y97.077 E0.01950
G1 X121.956 Y96.839 E0.01950
G1 X122.536 Y96.646 E0.01916
G1 X123.148 Y96.489 E0.01982
G1 X123.760 Y96.379 E0.01950
G1 X124.379 Y96.312 E0.01950
G1 X124.989 Y96.290 E0.01916
G1 X125.621 Y96.312 E0.01982
G1 X126.240 Y96.379 E0.01950
G1 X126.851 Y96.489 E0.01950
G1 X127.444 Y96.640 E0.01916
G1 X128.044 Y96.839 E0.01982
G1 X128.618 Y97.077 E0.01950
G1 X129.174 Y97.355 E0.01950
G1 X129.709 Y97.673 E0.01950
G1 X130.220 Y98.027 E0.01950
G1 X130.696 Y98.411 E0.01916
G1 X131.159 Y98.841 E0.01982
G1 X131.583 Y99.296 E0.01950
G1 X131.973 Y99.780 E0.01950
G1 X132.327 Y100.291 E0.01950
G1 X132.645 Y100.826 E0.01950
G1 X132.923 Y101.382 E0.01950
G1 X133.161 Y101.956 E0.01950
G1 X133.357 Y102.546 E0.01950
G1 X133.511 Y103.149 E0.01950
G1 X133.620 Y103.750 E0.01916
G1 X133.688 Y104.378 E0.01982
G1 X133.710 Y105.000 E0.01950
G1 X133.688 Y105.621 E0.01950
G1 X133.621 Y106.240 E0.01950
G1 X133.511 Y106.851 E0.01950
G1 X133.357 Y107.454 E0.01950
G1 X133.161 Y108.044 E0.01950
G1 X132.923 Y108.618 E0.01950
G1 X132.649 Y109.165 E0.01916
G1 X132.328 Y109.709 E0.01982
G1 X131.973 Y110.220 E0.01950
G1 X131.583 Y110.704 E0.01950
G1 X131.159 Y111.159 E0.01950
G1 X130.704 Y111.583 E0.01950
G1 X130.228 Y111.966 E0.01916
G1 X129.709 Y112.327 E0.01982
G1 X129.174 Y112.645 E0.01950
G1 X128.618 Y112.923 E0.01950
G1 X128.044 Y113.161 E0.01950
G1 X127.454 Y113.357 E0.01950
G1 X126.851 Y113.511 E0.01950
G1 X126.250 Y113.620 E0.01916
G1 X125.622 Y113.688 E0.01982
G1 X125.000 Y113.710 E0.01950
G1 X124.379 Y113.688 E0.01950
G1 X123.760 Y113.621 E0.01950
G1 X123.149 Y113.511 E0.01950
G1 X122.546 Y113.357 E0.01950
G1 X121.956 Y113.161 E0.01950
G1 X121.382 Y112.923 E0.01950
G1 X120.835 Y112.649 E0.01916
G1 X120.291 Y112.328 E0.01982
G1 X119.780 Y111.973 E0.01950
G1 X119.296 Y111.583 E0.01950
G1 X118.841 Y111.159 E0.01950
G1 X118.417 Y110.704 E0.01950
G1 X118.034 Y110.228 E0.01916
G1 X117.673 Y109.709 E0.01982
G1 X117.355 Y109.174 E0.01950
G1 X117.077 Y108.618 E0.01950
G1 X116.839 Y108.044 E0.01950
G1 X116.643 Y107.454 E0.01950
G1 X116.489 Y106.851 E0.01950
G1 X116.379 Y106.240 E0.01950
G1 X116.312 Y105.621 E0.01950
G1 X116.290 Y105.000 E0.01950
G1 X116.312 Y104.379 E0.01950
G1 X116.379 Y103.760 E0.01950
G1 X116.489 Y103.149 E0.01950
G1 X116.643 Y102.546 E0.01950
G1 X116.839 Y101.956 E0.01950
G1 X117.073 Y101.391 E0.01916
G1 X117.355 Y100.826 E0.01982
G1 X117.673 Y100.291 E0.01950
G1 X118.027 Y99.780 E0.01950
G1 X118.255 Y99.497 E0.01140
G1 X118.157 Y99.074 F10800.000
G1 F8640
G1 X118.841 Y98.841 E-0.20307
G1 X119.296 Y98.417 E-0.14360
G1 X119.780 Y98.027 E-0.14357
G1 X120.291 Y97.673 E-0.14357
G1 X120.761 Y97.394 E-0.12620
G1 E-0.04000 F2100.00000
G1 Z0.800 F10800.000
G1 X117.314 Y98.747
G1 Z0.200
G1 E0.80000 F2100.00000
G1 F1200
G1 X117.835 Y98.153 E0.02478
G1 X118.337 Y97.661 E0.02203
G1 X118.820 Y97.250 E0.01987
G1 X119.329 Y96.870 E0.01992
G1 X119.861 Y96.523 E0.01992
G1 X120.415 Y96.211 E0.01992
G1 X120.928 Y95.964 E0.01787
G1 X121.578 Y95.697 E0.02203
G1 X122.180 Y95.497 E0.01987
G1 X122.731 Y95.353 E0.01787
G1 X123.420 Y95.214 E0.02203
G1 X124.048 Y95.133 E0.01987
G1 X124.682 Y95.092 E0.01992
G1 X125.318 Y95.092 E0.01992
G1 X125.886 Y95.129 E0.01787
G1 X126.584 Y95.215 E0.02203
G1 X127.206 Y95.336 E0.01987
G1 X127.820 Y95.497 E0.01992
G1 X128.423 Y95.697 E0.01992
G1 X129.012 Y95.936 E0.01992
G1 X129.585 Y96.211 E0.01992
G1 X130.139 Y96.523 E0.01992
G1 X130.671 Y96.870 E0.01992
G1 X131.180 Y97.250 E0.01992
G1 X131.664 Y97.662 E0.01992
G1 X132.121 Y98.104 E0.01992
G1 X132.548 Y98.574 E0.01992
G1 X132.944 Y99.071 E0.01992
G1 X133.270 Y99.539 E0.01787
G1 X133.638 Y100.137 E0.02203
G1 X133.931 Y100.699 E0.01987
G1 X134.188 Y101.280 E0.01992
G1 X134.408 Y101.876 E0.01992
G1 X134.588 Y102.486 E0.01992
G1 X134.730 Y103.105 E0.01992
G1 X134.831 Y103.732 E0.01992
G1 X134.892 Y104.365 E0.01992
G1 X134.913 Y105.000 E0.01992
G1 X134.892 Y105.635 E0.01992
G1 X134.831 Y106.268 E0.01992
G1 X134.730 Y106.895 E0.01992
G1 X134.588 Y107.514 E0.01992
G1 X134.408 Y108.124 E0.01992
G1 X134.188 Y108.720 E0.01992
G1 X133.931 Y109.301 E0.01992
G1 X133.637 Y109.864 E0.01992
G1 X133.308 Y110.408 E0.01992
G1 X132.944 Y110.929 E0.01992
G1 X132.548 Y111.426 E0.01992
G1 X132.165 Y111.847 E0.01787
G1 X131.663 Y112.339 E0.02203
G1 X131.180 Y112.750 E0.01987
G1 X130.671 Y113.130 E0.01992
G1 X130.139 Y113.477 E0.01992
G1 X129.585 Y113.789 E0.01992
G1 X129.012 Y114.064 E0.01992
G1 X128.423 Y114.303 E0.01992
G1 X127.820 Y114.503 E0.01992
G1 X127.206 Y114.664 E0.01992
G1 X126.582 Y114.786 E0.01992
G1 X125.952 Y114.867 E0.01992
G1 X125.318 Y114.908 E0.01992
G1 X124.682 Y114.908 E0.01992
G1 X124.048 Y114.867 E0.01992
G1 X123.418 Y114.786 E0.01992
G1 X122.859 Y114.677 E0.01787
G1 X122.178 Y114.502 E0.02203
G1 X121.577 Y114.303 E0.01987
G1 X121.048 Y114.089 E0.01787
G1 X120.414 Y113.788 E0.02203
G1 X119.861 Y113.477 E0.01987
G1 X119.329 Y113.130 E0.01992
G1 X118.820 Y112.750 E0.01992
G1 X118.336 Y112.338 E0.01992
G1 X117.879 Y111.896 E0.01992
G1 X117.452 Y111.426 E0.01992
G1 X117.056 Y110.929 E0.01992
G1 X116.692 Y110.408 E0.01992
G1 X116.363 Y109.864 E0.01992
G1 X116.069 Y109.301 E0.01992
G1 X115.812 Y108.720 E0.01992
G1 X115.592 Y108.124 E0.01992
G1 X115.412 Y107.514 E0.01992
G1 X115.270 Y106.895 E0.01992
G1 X115.169 Y106.268 E0.01992
G1 X115.108 Y105.635 E0.01992
G1 X115.087 Y105.000 E0.01992
G1 X115.108 Y104.365 E0.01992
G1 X115.169 Y103.732 E0.01992
G1 X115.270 Y103.105 E0.01992
G1 X115.412 Y102.486 E0.01992
G1 X115.592 Y101.876 E0.01992
G1 X115.812 Y101.280 E0.01992
G1 X116.069 Y100.699 E0.01992
G1 X116.363 Y100.136 E0.01992
G1 X116.692 Y99.592 E0.01992
G1 X117.056 Y99.071 E0.01992
G1 X117.277 Y98.794 E0.01112
G1 X116.982 Y98.559 F10800.000
G1 F1200
G1 X117.165 Y98.330 E0.00918
G1 X117.563 Y97.891 E0.01859
G1 X118.083 Y97.382 E0.02279
G1 X118.584 Y96.955 E0.02066
G1 X119.113 Y96.561 E0.02068
G1 X119.666 Y96.201 E0.02068
G1 X120.241 Y95.877 E0.02068
G1 X120.775 Y95.620 E0.01859
G1 X121.447 Y95.343 E0.02279
G1 X122.072 Y95.135 E0.02066
G1 X122.646 Y94.985 E0.01859
G1 X123.358 Y94.842 E0.02279
G1 X124.012 Y94.758 E0.02066
G1 X124.670 Y94.715 E0.02068
G1 X125.330 Y94.715 E0.02068
G1 X125.922 Y94.753 E0.01859
G1 X126.643 Y94.842 E0.02279
G1 X127.290 Y94.968 E0.02066
G1 X127.928 Y95.135 E0.02068
G1 X128.554 Y95.343 E0.02068
G1 X129.165 Y95.591 E0.02068
G1 X129.759 Y95.877 E0.02068
G1 X130.334 Y96.201 E0.02068
G1 X130.887 Y96.561 E0.02068
G1 X131.416 Y96.955 E0.02068
G1 X131.918 Y97.383 E0.02068
G1 X132.392 Y97.842 E0.02068
G1 X132.835 Y98.330 E0.02068
G1 X133.246 Y98.846 E0.02068
G1 X133.586 Y99.332 E0.01859
G1 X133.966 Y99.951 E0.02279
G1 X134.271 Y100.535 E0.02066
G1 X134.538 Y101.139 E0.02068
G1 X134.766 Y101.758 E0.02068
G1 X134.953 Y102.390 E0.02068
G1 X135.100 Y103.033 E0.02068
G1 X135.205 Y103.684 E0.02068
G1 X135.269 Y104.341 E0.02068
G1 X135.290 Y105.000 E0.02068
G1 X135.269 Y105.659 E0.02068
G1 X135.205 Y106.316 E0.02068
G1 X135.100 Y106.967 E0.02068
G1 X134.953 Y107.610 E0.02068
G1 X134.766 Y108.242 E0.02068
G1 X134.538 Y108.861 E0.02068
G1 X134.271 Y109.465 E0.02068
G1 X133.966 Y110.049 E0.02068
G1 X133.624 Y110.613 E0.02068
G1 X133.246 Y111.154 E0.02068
G1 X132.835 Y111.670 E0.02068
G1 X132.437 Y112.109 E0.01859
G1 X131.917 Y112.618 E0.02279
G1 X131.416 Y113.045 E0.02066
G1 X130.887 Y113.439 E0.02068
G1 X130.334 Y113.799 E0.02068
G1 X129.759 Y114.123 E0.02068
G1 X129.165 Y114.409 E0.02068
G1 X128.554 Y114.657 E0.02068
G1 X127.928 Y114.865 E0.02068
G1 X127.290 Y115.032 E0.02068
G1 X126.642 Y115.158 E0.02068
G1 X125.988 Y115.242 E0.02068
G1 X125.330 Y115.285 E0.02068
G1 X124.670 Y115.285 E0.02068
G1 X124.012 Y115.242 E0.02068
G1 X123.358 Y115.158 E0.02068
G1 X122.776 Y115.045 E0.01859
