; generated by PrusaSlicer 2.0.0+win64 on 2019-11-11 at 17:04:56

; 

; external perimeters extrusion width = 0.45mm
; perimeters extrusion width = 0.45mm
; infill extrusion width = 0.45mm
; solid infill extrusion width = 0.45mm
; top infill extrusion width = 0.40mm
; first layer extrusion width = 0.42mm

M73 P0 R7
M73 Q0 S7
M201 X1000 Y1000 Z1000 E5000 ; sets maximum accelerations, mm/sec^2
M203 X200 Y200 Z12 E120 ; sets maximum feedrates, mm/sec
M204 P1250 R1250 T1250 ; sets acceleration (P, T) and retract acceleration (R), mm/sec^2
M205 X8.00 Y8.00 Z0.40 E1.50 ; sets the jerk limits, mm/sec
M205 S0 T0 ; sets the minimum extruding and travel feed rate, mm/sec
M107
M115 U3.8.1 ; tell printer latest fw version
G90 ; use absolute coordinates
M83 ; extruder relative mode
M104 S215 ; set extruder temp
M140 S60 ; set bed temp
M190 S60 ; wait for bed temp
M109 S215 ; wait for extruder temp
G28 W ; home all without mesh bed level
G80 ; mesh bed leveling
G1 Y-3.0 F1000.0 ; go outside print area
G92 E0.0
G1 X60.0 E9.0 F1000.0 ; intro line
M73 Q0 S7
M73 P0 R7
G1 X100.0 E12.5 F1000.0 ; intro line
G92 E0.0
M221 S95
M900 K30 ; Filament gcode
G21 ; set units to millimeters
G90 ; use absolute coordinates
M83 ; use relative distances for extrusion
;BEFORE_LAYER_CHANGE
G92 E0.0
;0.2


G1 E-0.80000 F2100.00000
G1 Z0.600 F10800.000
;AFTER_LAYER_CHANGE
;0.2
G1 X118.610 Y95.068
G1 Z0.200
G1 E0.80000 F2100.00000
M204 S1000
G1 F900
G1 X118.931 Y94.484 E0.02091
G1 X119.391 Y94.001 E0.02091
G1 X119.961 Y93.654 E0.02091
G1 X120.600 Y93.466 E0.02091
G1 X129.004 Y93.434 E0.26349
G1 X129.921 Y93.605 E0.02924
G1 X130.713 Y94.090 E0.02912
G1 X131.281 Y94.825 E0.02912
G1 X131.550 Y95.718 E0.02924
G1 X131.566 Y114.020 E0.57384
G1 X131.390 Y114.932 E0.02912
G1 X131.058 Y115.532 E0.02152
G1 X130.581 Y116.021 E0.02140
G1 X129.992 Y116.366 E0.02140
G1 X129.329 Y116.544 E0.02152
G1 X120.956 Y116.565 E0.26252
G1 X120.068 Y116.390 E0.02839
G1 X119.439 Y116.036 E0.02263
G1 X118.931 Y115.518 E0.02275
G1 X118.591 Y114.882 E0.02263
G1 X118.440 Y114.176 E0.02263
G1 X118.434 Y95.976 E0.57063
G1 X118.598 Y95.127 E0.02712
G1 X118.964 Y95.199 F10800.000
G1 F900
G1 X119.246 Y94.691 E0.01821
G1 X119.648 Y94.279 E0.01805
G1 X120.147 Y93.984 E0.01817
G1 X120.703 Y93.832 E0.01805
G1 X129.004 Y93.811 E0.26027
G1 X129.793 Y93.960 E0.02518
G1 X130.473 Y94.381 E0.02507
G1 X130.956 Y95.018 E0.02507
G1 X131.178 Y95.790 E0.02518
G1 X131.188 Y114.018 E0.57154
G1 X131.035 Y114.807 E0.02518
G1 X130.745 Y115.321 E0.01851
G1 X130.331 Y115.737 E0.01839
G1 X129.819 Y116.030 E0.01851
G1 X129.247 Y116.175 E0.01851
G1 X120.967 Y116.188 E0.25960
G1 X120.193 Y116.035 E0.02473
G1 X119.659 Y115.729 E0.01930
G1 X119.228 Y115.285 E0.01942
G1 X118.939 Y114.737 E0.01942
G1 X118.815 Y114.130 E0.01942
G1 X118.812 Y95.982 E0.56903
G1 X118.953 Y95.257 E0.02314
G1 F8640
G1 X119.246 Y94.691 E-0.14733
G1 X119.648 Y94.279 E-0.13295
G1 X120.147 Y93.984 E-0.13379
G1 X120.703 Y93.832 E-0.13295
G1 X121.625 Y93.829 E-0.21298
G1 E-0.04000 F2100.00000
G1 Z0.800 F10800.000
G1 X125.000 Y112.519
G1 Z0.200
G1 E0.80000 F2100.00000
G1 F900
G1 X125.124 Y112.795 E0.00947
G1 X125.283 Y113.022 E0.00869
G1 X125.478 Y113.217 E0.00869
G1 X125.784 Y113.413 E0.01137
G1 X124.216 Y113.413 E0.04914
G1 X124.522 Y113.217 E0.01137
G1 X124.717 Y113.022 E0.00869
G1 X124.876 Y112.795 E0.00869
G1 X124.979 Y112.575 E0.00760
G1 F8640
G1 X125.124 Y112.795 E-0.06073
G1 X125.283 Y113.022 E-0.06397
G1 X125.478 Y113.217 E-0.06397
G1 X125.784 Y113.413 E-0.08370
G1 X124.216 Y113.413 E-0.36191
G1 X124.522 Y113.217 E-0.08370
G1 X124.650 Y113.089 E-0.04203
G1 E-0.04000 F2100.00000
G1 Z0.800 F10800.000
G1 X125.000 Y97.481
G1 Z0.200
G1 E0.80000 F2100.00000
G1 F900
G1 X124.876 Y97.205 E0.00947
G1 X124.717 Y96.978 E0.00869
G1 X124.522 Y96.783 E0.00869
G1 X124.216 Y96.587 E0.01137
G1 X125.784 Y96.587 E0.04914
G1 X125.478 Y96.783 E0.01137
G1 X125.283 Y96.978 E0.00869
G1 X125.136 Y97.187 E0.00799
G1 X125.021 Y97.425 E0.00828
G1 F8640
G1 X124.876 Y97.205 E-0.06068
G1 X124.717 Y96.978 E-0.06397
G1 X124.522 Y96.783 E-0.06397
G1 X124.216 Y96.587 E-0.08370
G1 X125.784 Y96.587 E-0.36191
G1 X125.478 Y96.783 E-0.08370
G1 X125.350 Y96.911 E-0.04209
G1 E-0.04000 F2100.00000
G1 Z0.800 F10800.000
G1 X128.790 Y96.790
G1 Z0.200
G1 E0.80000 F2100.00000
G1 F900
G1 X126.491 Y96.790 E0.07209
G1 X126.290 Y96.808 E0.00633
G1 X126.086 Y96.862 E0.00662
G1 X125.895 Y96.951 E0.00662
G1 X125.722 Y97.072 E0.00662
G1 X125.572 Y97.222 E0.00662
G1 X125.462 Y97.379 E0.00602
G1 X125.363 Y97.584 E0.00716
G1 X125.308 Y97.790 E0.00667
G1 X125.290 Y97.991 E0.00633
G1 X125.290 Y112.009 E0.43954
G1 X125.308 Y112.210 E0.00633
G1 X125.362 Y112.414 E0.00662
G1 X125.451 Y112.605 E0.00662
G1 X125.572 Y112.778 E0.00662
G1 X125.722 Y112.928 E0.00662
G1 X125.895 Y113.049 E0.00662
G1 X126.086 Y113.138 E0.00662
G1 X126.290 Y113.192 E0.00662
G1 X126.491 Y113.210 E0.00633
G1 X128.790 Y113.210 E0.07209
G1 X128.790 Y113.790 E0.01819
G1 X121.210 Y113.790 E0.23767
G1 X121.210 Y113.210 E0.01819
G1 X123.509 Y113.210 E0.07209
G1 X123.710 Y113.192 E0.00633
G1 X123.914 Y113.138 E0.00662
G1 X124.105 Y113.049 E0.00662
G1 X124.278 Y112.928 E0.00662
G1 X124.428 Y112.778 E0.00662
G1 X124.549 Y112.605 E0.00662
G1 X124.638 Y112.414 E0.00662
G1 X124.692 Y112.210 E0.00662
G1 X124.710 Y112.009 E0.00633
G1 X124.710 Y97.991 E0.43954
G1 X124.692 Y97.790 E0.00633
G1 X124.638 Y97.586 E0.00662
G1 X124.549 Y97.395 E0.00662
G1 X124.428 Y97.222 E0.00662
G1 X124.278 Y97.072 E0.00662
G1 X124.105 Y96.951 E0.00662
G1 X123.931 Y96.870 E0.00602
G1 X123.712 Y96.808 E0.00716
G1 X123.509 Y96.790 E0.00638
G1 X121.210 Y96.790 E0.07209
G1 X121.210 Y96.210 E0.01819
G1 X128.790 Y96.210 E0.23767
G1 X128.790 Y96.730 E0.01630
G1 X128.390 Y96.780 F10800.000
G1 X128.601 Y96.500
G1 F900
G1 X126.483 Y96.500 E0.03575
G1 X125.968 Y96.546 E0.00872
G1 X125.206 Y96.776 F10800.000
G1 F900
G1 X124.904 Y96.916 E0.00285
G1 X124.794 Y96.776 F10800.000
G1 F900
G1 X125.096 Y96.916 E0.00285
G1 X125.000 Y97.669 F10800.000
G1 F900
G1 X125.000 Y97.974 E0.00598
G1 X125.000 Y97.974 F10800.000
G1 F900
G1 X125.000 Y112.331 E0.24317
G1 X125.096 Y113.084 F10800.000
G1 F900
G1 X124.794 Y113.224 E0.00285
G1 X124.904 Y113.084 F10800.000
G1 F900
G1 X125.206 Y113.224 E0.00285
G1 X125.968 Y113.454 F10800.000
G1 F900
G1 X126.483 Y113.500 E0.00872
G1 X128.601 Y113.500 E0.03575
G1 F8640
G1 X126.483 Y113.500 E-0.48925
G1 X125.968 Y113.454 E-0.11937
G1 E-0.19138 F2100.00000
G1 Z0.800 F10800.000
G1 X124.032 Y113.454
G1 Z0.200
G1 E0.80000 F2100.00000
G1 F900
G1 X123.772 Y113.488 E0.00568
G1
G1 X123.526 Y113.500 E0.00464
G1
G1 X121.399 Y113.500 E0.03597
G1 F8640
G1 X123.526 Y113.500 E-0.49130
G1 E-0.30870 F2100.00000
G1 Z0.800 F10800.000
G1 X121.399 Y96.500
G1 Z0.200
G1 E0.80000 F2100.00000
G1 F900
G1 X123.526 Y96.500 E0.03597
G1
G1 X123.777 Y96.512 E0.00475
G1
G1 X124.032 Y96.548 E0.00560
M106 S255
;BEFORE_LAYER_CHANGE
G92 E0.0
;0.4


G1 F8640
G1 X123.777 Y96.512 E-0.05933
G1 E-0.74067 F2100.00000
G1 Z0.800 F10800.000
;AFTER_LAYER_CHANGE
;0.4
G1 X129.921 Y93.605
G1 Z0.400
G1 E0.80000 F2100.00000
G1 F900
G1 X130.713 Y94.090 E0.02912
G1 X131.281 Y94.825 E0.02912
G1 X131.550 Y95.718 E0.02924
G1 X131.566 Y114.020 E0.57384
G1 X131.390 Y114.932 E0.02912
G1 X131.058 Y115.532 E0.02152
G1 X130.581 Y116.021 E0.02140
G1 X129.992 Y116.366 E0.02140
G1 X129.329 Y116.544 E0.02152
G1 X120.956 Y116.565 E0.26252
G1 X120.068 Y116.390 E0.02839
G1 X119.439 Y116.036 E0.02263
G1 X118.931 Y115.518 E0.02275
G1 X118.591 Y114.882 E0.02263
G1 X118.440 Y114.176 E0.02263
G1 X118.434 Y95.976 E0.57063
G1 X118.610 Y95.068 E0.02900
G1 X118.931 Y94.484 E0.02091
G1 X119.391 Y94.001 E0.02091
G1 X119.961 Y93.654 E0.02091
G1 X120.600 Y93.466 E0.02091
G1 X129.004 Y93.434 E0.26349
G1 X129.862 Y93.594 E0.02736
G1 F8640
G1 X130.713 Y94.090 E-0.22745
G1 X131.281 Y94.825 E-0.21445
G1 X131.550 Y95.718 E-0.21535
G1 X131.550 Y96.163 E-0.10275
G1 E-0.04000 F2100.00000
G1 Z1.000 F10800.000
G1 X125.000 Y112.636
G1 Z0.400
G1 E0.80000 F2100.00000
M204 S800
G1 F900
G1 X125.084 Y112.817 E0.00677
G1 X125.248 Y113.051 E0.00964
G1 X125.449 Y113.252 E0.00964
G1 X125.615 Y113.368 E0.00684
G1 X124.385 Y113.368 E0.04162
G1 X124.551 Y113.252 E0.00684
G1 X124.752 Y113.051 E0.00964
G1 X124.916 Y112.817 E0.00964
G1 X124.975 Y112.690 E0.00474
M204 S1000
G1 F8640
G1 X125.084 Y112.817 E-0.03874
G1 X125.248 Y113.051 E-0.06579
G1 X125.449 Y113.252 E-0.06579
G1 X125.615 Y113.368 E-0.04663
G1 X124.385 Y113.368 E-0.28391
G1 X124.551 Y113.252 E-0.04663
G1 X124.752 Y113.051 E-0.06579
G1 X124.916 Y112.817 E-0.06579
G1 X124.975 Y112.690 E-0.03231
G1 E-0.08864 F2100.00000
G1 Z1.000 F10800.000
G1 X125.000 Y97.365
G1 Z0.400
G1 E0.80000 F2100.00000
M204 S800
G1 F900
G1 X124.916 Y97.183 E0.00680
G1 X124.752 Y96.949 E0.00964
G1 X124.551 Y96.748 E0.00964
G1 X124.385 Y96.632 E0.00684
G1 X125.615 Y96.632 E0.04162
G1 X125.449 Y96.748 E0.00684
G1 X125.248 Y96.949 E0.00964
G1 X125.122 Y97.129 E0.00744
G1 X125.028 Y97.311 E0.00693
M204 S1000
G1 F8640
G1 X124.916 Y97.183 E-0.03944
G1 X124.752 Y96.949 E-0.06579
G1 X124.551 Y96.748 E-0.06579
G1 X124.385 Y96.632 E-0.04663
G1 X125.615 Y96.632 E-0.28391
G1 X125.449 Y96.748 E-0.04663
G1 X125.248 Y96.949 E-0.06579
G1 X125.122 Y97.129 E-0.05076
G1 X125.028 Y97.311 E-0.04728
G1 E-0.08798 F2100.00000
G1 Z1.000 F10800.000
G1 X128.775 Y96.775
G1 Z0.400
G1 E0.80000 F2100.00000
M204 S800
G1 F900
G1 X126.490 Y96.775 E0.07734
G1 X126.287 Y96.793 E0.00690
G1 X126.081 Y96.848 E0.00723
G1 X125.887 Y96.938 E0.00723
G1 X125.712 Y97.061 E0.00723
G1 X125.561 Y97.212 E0.00723
G1 X125.471 Y97.341 E0.00531
G1 X125.349 Y97.576 E0.00898
G1 X125.293 Y97.787 E0.00739
G1 X125.275 Y97.990 E0.00690
G1 X125.275 Y112.010 E0.47455
G1 X125.293 Y112.213 E0.00690
G1 X125.348 Y112.419 E0.00723
G1 X125.438 Y112.613 E0.00723
G1 X125.561 Y112.788 E0.00723
G1 X125.712 Y112.939 E0.00723
G1 X125.887 Y113.062 E0.00723
G1 X126.029 Y113.128 E0.00531
G1 X126.283 Y113.207 E0.00898
G1 X126.490 Y113.225 E0.00705
G1 X128.775 Y113.225 E0.07734
G1 X128.775 Y113.775 E0.01862
G1 X121.225 Y113.775 E0.25556
G1 X121.225 Y113.225 E0.01862
G1 X123.510 Y113.225 E0.07734
G1 X123.713 Y113.207 E0.00690
G1 X123.919 Y113.152 E0.00723
G1 X124.113 Y113.062 E0.00723
G1 X124.288 Y112.939 E0.00723
G1 X124.439 Y112.788 E0.00723
G1 X124.562 Y112.613 E0.00723
G1 X124.652 Y112.419 E0.00723
G1 X124.707 Y112.213 E0.00723
G1 X124.725 Y112.010 E0.00690
G1 X124.725 Y97.990 E0.47455
G1 X124.707 Y97.787 E0.00690
G1 X124.652 Y97.581 E0.00723
G1 X124.562 Y97.387 E0.00723
G1 X124.439 Y97.212 E0.00723
G1 X124.288 Y97.061 E0.00723
G1 X124.113 Y96.938 E0.00723
G1 X123.971 Y96.872 E0.00531
G1 X123.717 Y96.793 E0.00898
G1 X123.510 Y96.775 E0.00705
G1 X121.225 Y96.775 E0.07734
G1 X121.225 Y96.225 E0.01862
G1 X128.775 Y96.225 E0.25556
G1 X128.775 Y96.715 E0.01659
M204 S1000
G1 X128.375 Y96.765 F10800.000
G1 X128.571 Y96.500
G1 F900
G1 X126.481 Y96.500 E0.02484
G1 X125.981 Y96.544 E0.00597
G1
G1 X125.812 Y96.581 E0.00343
G1 F8640
G1 X125.981 Y96.544 E-0.03989
G1 E-0.76011 F2100.00000
G1 Z1.000 F10800.000
G1 X125.000 Y97.904
G1 Z0.400
G1 E0.80000 F2100.00000
G1 F900
G1 X125.000 Y97.975 E0.00092
G1
G1 X125.000 Y112.078 E0.16824
G1 F8640
G1 X125.000 Y108.787 E-0.76000
G1 E-0.04000 F2100.00000
G1 Z1.000 F10800.000
G1 X125.856 Y113.280
G1 Z0.400
G1 E0.80000 F2100.00000
G1 F900
G1 X125.924 Y113.420 E0.00277
G1
G1 X125.937 Y113.445 E0.00059
G1 X126.077 Y113.466 E0.00300
G1
G1 X126.481 Y113.500 E0.00482
G1 X128.571 Y113.500 E0.02484
G1 F8640
G1 X126.481 Y113.500 E-0.48263
G1 X126.077 Y113.466 E-0.09359
G1 E-0.22379 F2100.00000
G1 Z1.000 F10800.000
G1 X124.188 Y113.419
G1 Z0.400
G1 E0.80000 F2100.00000
G1 F900
G1 X124.040 Y113.452 E0.00316
G1
G1 X124.019 Y113.456 E0.00041
G1
G1 X123.894 Y113.472 E0.00242
G1
G1 X123.770 Y113.489 E0.00208
G1
G1 X123.525 Y113.500 E0.00338
G1
G1 X121.429 Y113.500 E0.02496
G1 F8640
G1 X123.525 Y113.500 E-0.48407
G1 E-0.31593 F2100.00000
G1 Z1.000 F10800.000
G1 X124.144 Y96.720
G1 Z0.400
G1 E0.80000 F2100.00000
G1 F900
G1 X124.063 Y96.555 E0.00327
G1 X123.782 Y96.512 E0.00506
G1
G1 X123.525 Y96.500 E0.00358
G1
G1 X121.429 Y96.500 E0.02496
;BEFORE_LAYER_CHANGE
G92 E0.0
;0.6


G1 F8640
G1 X123.525 Y96.500 E-0.48407
G1 E-0.31593 F2100.00000
G1 Z1.000 F10800.000
;AFTER_LAYER_CHANGE
;0.6
G1 X129.921 Y93.605
G1 Z0.600
G1 E0.80000 F2100.00000
G1 F900
G1 X130.713 Y94.090 E0.02912
G1 X131.281 Y94.825 E0.02912
G1 X131.550 Y95.718 E0.02924
G1 X131.566 Y114.020 E0.57384
G1 X131.390 Y114.932 E0.02912
G1 X131.058 Y115.532 E0.02152
G1 X130.581 Y116.021 E0.02140
G1 X129.992 Y116.366 E0.02140
G1 X129.329 Y116.544 E0.02152
G1 X120.956 Y116.565 E0.26252
G1 X120.068 Y116.390 E0.02839
G1 X119.439 Y116.036 E0.02263
G1 X118.931 Y115.518 E0.02275
G1 X118.591 Y114.882 E0.02263
G1 X118.440 Y114.176 E0.02263
G1 X118.434 Y95.976 E0.57063
G1 X118.610 Y95.068 E0.02900
G1 X118.931 Y94.484 E0.02091
G1 X119.391 Y94.001 E0.02091
G1 X119.961 Y93.654 E0.02091
G1 X120.600 Y93.466 E0.02091
G1 X129.004 Y93.434 E0.26349
G1 X129.862 Y93.594 E0.02736
G1 F8640
G1 X130.713 Y94.090 E-0.22745
G1 X131.281 Y94.825 E-0.21445
G1 X131.550 Y95.718 E-0.21535
G1 X131.550 Y96.163 E-0.10275
G1 E-0.04000 F2100.00000
G1 Z1.200 F10800.000
G1 X125.000 Y112.636
G1 Z0.600
G1 E0.80000 F2100.00000
M204 S800
G1 F900
G1 X125.092 Y112.834 E0.00740
G1 X125.346 Y113.154 E0.01382
G1 X125.616 Y113.368 E0.01165
G1 X124.380 Y113.368 E0.04184
G1 X124.436 Y113.337 E0.00218
G1 X124.741 Y113.066 E0.01382
G1 X124.916 Y112.817 E0.01027
G1 X124.975 Y112.690 E0.00474
M204 S1000
G1 F8640
G1 X125.092 Y112.834 E-0.04288
G1 X125.346 Y113.154 E-0.09429
G1 X125.616 Y113.368 E-0.07949
G1 X124.380 Y113.368 E-0.28539
G1 X124.436 Y113.337 E-0.01488
G1 X124.741 Y113.066 E-0.09429
G1 X124.916 Y112.817 E-0.07007
G1 X124.975 Y112.690 E-0.03231
G1 E-0.08639 F2100.00000
G1 Z1.200 F10800.000
G1 X125.000 Y97.365
G1 Z0.600
G1 E0.80000 F2100.00000
M204 S800
G1 F900
G1 X124.916 Y97.183 E0.00679
G1 X124.752 Y96.949 E0.00964
G1 X124.538 Y96.735 E0.01027
G1 X124.371 Y96.632 E0.00662
G1 X125.615 Y96.632 E0.04210
G1 X125.434 Y96.759 E0.00746
G1 X125.163 Y97.064 E0.01382
G1 X125.029 Y97.312 E0.00955
M204 S1000
G1 F8640
G1 X124.916 Y97.183 E-0.03966
G1 X124.752 Y96.949 E-0.06579
G1 X124.538 Y96.735 E-0.07007
G1 X124.371 Y96.632 E-0.04517
G1 X125.615 Y96.632 E-0.28719
G1 X125.434 Y96.759 E-0.05091
G1 X125.163 Y97.064 E-0.09429
G1 X125.029 Y97.312 E-0.06513
G1 E-0.08179 F2100.00000
G1 Z1.200 F10800.000
G1 X128.775 Y96.775
G1 Z0.600
G1 E0.80000 F2100.00000
M204 S800
G1 F900
G1 X126.490 Y96.775 E0.07734
G1 X126.287 Y96.793 E0.00690
G1 X126.081 Y96.848 E0.00723
G1 X125.887 Y96.938 E0.00723
G1 X125.707 Y97.065 E0.00746
G1 X125.498 Y97.299 E0.01060
G1 X125.350 Y97.574 E0.01060
G1 X125.293 Y97.787 E0.00746
G1 X125.275 Y97.990 E0.00690
G1 X125.275 Y112.010 E0.47455
G1 X125.293 Y112.213 E0.00690
G1 X125.348 Y112.419 E0.00723
G1 X125.441 Y112.619 E0.00746
G1 X125.635 Y112.865 E0.01060
G1 X125.881 Y113.059 E0.01060
G1 X126.081 Y113.152 E0.00746
G1 X126.287 Y113.207 E0.00723
G1 X126.490 Y113.225 E0.00690
G1 X128.775 Y113.225 E0.07734
G1 X128.775 Y113.775 E0.01862
G1 X121.225 Y113.775 E0.25556
G1 X121.225 Y113.225 E0.01862
G1 X123.510 Y113.225 E0.07734
G1 X123.713 Y113.207 E0.00690
G1 X123.926 Y113.150 E0.00746
G1 X124.201 Y113.002 E0.01060
G1 X124.435 Y112.793 E0.01060
G1 X124.562 Y112.613 E0.00746
G1 X124.652 Y112.419 E0.00723
G1 X124.707 Y112.213 E0.00723
G1 X124.725 Y112.010 E0.00690
G1 X124.725 Y97.990 E0.47455
G1 X124.707 Y97.787 E0.00690
G1 X124.652 Y97.581 E0.00723
G1 X124.562 Y97.387 E0.00723
G1 X124.439 Y97.212 E0.00723
G1 X124.283 Y97.056 E0.00746
G1 X124.017 Y96.892 E0.01060
G1 X123.719 Y96.793 E0.01060
G1 X123.510 Y96.775 E0.00712
G1 X121.225 Y96.775 E0.07734
G1 X121.225 Y96.225 E0.01862
G1 X128.775 Y96.225 E0.25556
G1 X128.775 Y96.715 E0.01659
M204 S1000
G1 X128.375 Y96.765 F10800.000
G1 X128.571 Y96.500
G1 F900
G1 X126.481 Y96.500 E0.02484
G1 X125.981 Y96.544 E0.00597
G1
G1 X125.812 Y96.581 E0.00343
G1 F8640
G1 X125.981 Y96.544 E-0.03989
G1 E-0.76011 F2100.00000
