; generated by PrusaSlicer 2.0.0+win64 on 2019-11-15 at 15:28:56

; 

; external perimeters extrusion width = 0.45mm
; perimeters extrusion width = 0.45mm
; infill extrusion width = 0.45mm
; solid infill extrusion width = 0.45mm
; top infill extrusion width = 0.40mm
; first layer extrusion width = 0.42mm

M73 P0 R3
M73 Q0 S3
M201 X1000 Y1000 Z1000 E5000 ; sets maximum accelerations, mm/sec^2
M203 X200 Y200 Z12 E120 ; sets maximum feedrates, mm/sec
M204 P1250 R1250 T1250 ; sets acceleration (P, T) and retract acceleration (R), mm/sec^2
M205 X8.00 Y8.00 Z0.40 E1.50 ; sets the jerk limits, mm/sec
M205 S0 T0 ; sets the minimum extruding and travel feed rate, mm/sec
M107
M115 U3.8.1 ; tell printer latest fw version
G90 ; use absolute coordinates
M83 ; extruder relative mode
M104 S215 ; set extruder temp
M140 S60 ; set bed temp
M190 S60 ; wait for bed temp
M109 S215 ; wait for extruder temp
G28 W ; home all without mesh bed level
G80 ; mesh bed leveling
G1 Y-3.0 F1000.0 ; go outside print area
G92 E0.0
G1 X60.0 E9.0 F1000.0 ; intro line
M73 Q1 S3
M73 P1 R3
G1 X100.0 E12.5 F1000.0 ; intro line
G92 E0.0
M221 S95
M900 K30 ; Filament gcode
G21 ; set units to millimeters
G90 ; use absolute coordinates
M83 ; use relative distances for extrusion
;BEFORE_LAYER_CHANGE
G92 E0.0
;0.2


G1 E-0.80000 F2100.00000
G1 Z0.600 F10800.000
;AFTER_LAYER_CHANGE
;0.2
G1 X120.126 Y98.761
G1 Z0.200
G1 E0.80000 F2100.00000
M204 S1000
G1 F900
G1 X120.599 Y98.254 E0.02174
G1 X121.177 Y97.871 E0.02174
G1 X121.829 Y97.635 E0.02174
G1 X122.459 Y97.558 E0.01989
G1 X127.504 Y97.557 E0.15819
G1 X128.489 Y97.728 E0.03134
G1 X129.360 Y98.219 E0.03134
G1 X130.016 Y98.973 E0.03134
G1 X130.382 Y99.904 E0.03134
G1 X130.443 Y100.480 E0.01818
G1 X130.442 Y109.547 E0.28427
G1 X130.381 Y110.102 E0.01751
G1 X130.215 Y110.635 E0.01751
G1 X129.849 Y111.273 E0.02306
G1 X129.339 Y111.797 E0.02293
G1 X128.716 Y112.180 E0.02293
G1 X128.017 Y112.397 E0.02293
G1 X122.419 Y112.442 E0.17552
G1 X121.365 Y112.215 E0.03382
G1 X120.697 Y111.825 E0.02425
G1 X120.156 Y111.279 E0.02412
G1 X119.773 Y110.607 E0.02425
G1 X119.579 Y109.858 E0.02425
G1 X119.558 Y100.441 E0.29528
G1 X119.621 Y99.890 E0.01738
G1 X119.785 Y99.365 E0.01725
G1 X120.097 Y98.813 E0.01986
G1 X120.146 Y99.480 F10800.000
G1 F900
G1 X120.452 Y98.955 E0.01906
G1 X120.876 Y98.514 E0.01919
G1 X121.392 Y98.186 E0.01919
G1 X121.972 Y97.989 E0.01919
G1 X127.504 Y97.934 E0.17346
G1 X128.376 Y98.089 E0.02778
G1 X129.141 Y98.528 E0.02765
G1 X129.714 Y99.204 E0.02778
G1 X130.022 Y100.030 E0.02765
G1 X130.065 Y109.540 E0.29817
G1 X129.854 Y110.520 E0.03144
G1 X129.527 Y111.073 E0.02017
G1 X129.071 Y111.528 E0.02017
G1 X128.518 Y111.855 E0.02017
G1 X127.904 Y112.034 E0.02005
G1 X122.429 Y112.065 E0.17166
G1 X121.480 Y111.854 E0.03046
G1 X120.902 Y111.507 E0.02116
G1 X120.434 Y111.021 E0.02116
G1 X120.109 Y110.430 E0.02116
G1 X119.949 Y109.774 E0.02116
G1 X119.935 Y100.453 E0.29227
G1 X120.133 Y99.539 E0.02931
G1 X120.499 Y99.621 F10800.000
G1 F900
G1 X120.773 Y99.156 E0.01691
G1 X121.146 Y98.781 E0.01658
G1 X121.597 Y98.506 E0.01658
G1 X122.102 Y98.348 E0.01658
G1 X127.504 Y98.311 E0.16938
G1 X128.255 Y98.446 E0.02394
G1 X128.918 Y98.833 E0.02405
G1 X129.406 Y99.425 E0.02405
G1 X129.660 Y100.145 E0.02394
G1 X129.688 Y109.533 E0.29436
G1 X129.498 Y110.394 E0.02766
G1 X129.211 Y110.864 E0.01726
G1 X128.817 Y111.248 E0.01726
G1 X128.339 Y111.521 E0.01726
G1 X127.805 Y111.667 E0.01737
G1 X122.442 Y111.688 E0.16816
G1 X121.606 Y111.498 E0.02687
G1 X121.116 Y111.195 E0.01805
G1 X120.722 Y110.776 E0.01805
G1 X120.451 Y110.268 E0.01805
G1 X120.321 Y109.703 E0.01817
G1 X120.312 Y100.460 E0.28981
G1 X120.486 Y99.679 E0.02508
G1 F8640
G1 X120.773 Y99.156 E-0.13779
G1 X121.146 Y98.781 E-0.12207
G1 X121.597 Y98.506 E-0.12207
G1 X122.102 Y98.348 E-0.12207
G1 X123.210 Y98.341 E-0.25600
G1 E-0.04000 F2100.00000
G1 Z0.800 F10800.000
G1 X125.000 Y108.011
G1 Z0.200
G1 E0.80000 F2100.00000
G1 F900
G1 X125.160 Y108.361 E0.01206
G1 X125.443 Y108.688 E0.01355
G1 X125.658 Y108.849 E0.00843
G1 X125.798 Y108.913 E0.00482
G1 X124.218 Y108.913 E0.04953
G1 X124.543 Y108.704 E0.01212
G1 X124.840 Y108.361 E0.01422
G1 X124.975 Y108.066 E0.01018
G1 F8640
G1 X125.160 Y108.361 E-0.08043
G1 X125.443 Y108.688 E-0.09979
G1 X125.658 Y108.849 E-0.06209
G1 X125.798 Y108.913 E-0.03550
G1 X124.218 Y108.913 E-0.36476
G1 X124.543 Y108.704 E-0.08923
G1 X124.623 Y108.612 E-0.02820
G1 E-0.04000 F2100.00000
G1 Z0.800 F10800.000
G1 X125.000 Y101.988
G1 Z0.200
G1 E0.80000 F2100.00000
G1 F900
G1 X124.938 Y101.820 E0.00562
G1 X124.704 Y101.457 E0.01355
G1 X124.361 Y101.160 E0.01422
G1 X124.202 Y101.087 E0.00549
G1 X125.782 Y101.087 E0.04953
G1 X125.457 Y101.296 E0.01212
G1 X125.160 Y101.639 E0.01422
G1 X125.025 Y101.934 E0.01016
G1 F8640
G1 X124.938 Y101.820 E-0.03304
G1 X124.704 Y101.457 E-0.09979
G1 X124.361 Y101.160 E-0.10470
G1 X124.202 Y101.087 E-0.04041
G1 X125.782 Y101.087 E-0.36476
G1 X125.457 Y101.296 E-0.08923
G1 X125.377 Y101.388 E-0.02806
G1 E-0.04000 F2100.00000
G1 Z0.800 F10800.000
G1 X127.290 Y101.290
G1 Z0.200
G1 E0.80000 F2100.00000
G1 F900
G1 X126.485 Y101.290 E0.02524
G1 X126.166 Y101.336 E0.01010
G1 X125.990 Y101.402 E0.00589
G1 X125.706 Y101.584 E0.01058
G1 X125.480 Y101.845 E0.01082
G1 X125.337 Y102.158 E0.01082
G1 X125.290 Y102.485 E0.01034
G1 X125.290 Y107.515 E0.15771
G1 X125.337 Y107.842 E0.01034
G1 X125.480 Y108.155 E0.01082
G1 X125.701 Y108.410 E0.01058
G1 X125.852 Y108.523 E0.00589
G1 X126.158 Y108.663 E0.01058
G1 X126.485 Y108.710 E0.01034
G1 X127.290 Y108.710 E0.02524
G1 X127.290 Y109.290 E0.01819
G1 X122.710 Y109.290 E0.14360
G1 X122.710 Y108.710 E0.01819
G1 X123.680 Y108.698 E0.03041
G1 X124.004 Y108.603 E0.01058
G1 X124.294 Y108.416 E0.01082
G1 X124.520 Y108.155 E0.01082
G1 X124.663 Y107.842 E0.01082
G1 X124.710 Y107.515 E0.01034
G1 X124.710 Y102.485 E0.15771
G1 X124.664 Y102.166 E0.01010
G1 X124.599 Y101.990 E0.00589
G1 X124.416 Y101.706 E0.01058
G1 X124.155 Y101.480 E0.01082
G1 X123.842 Y101.337 E0.01082
G1 X123.515 Y101.290 E0.01034
G1 X122.710 Y101.290 E0.02524
G1 X122.710 Y100.710 E0.01819
G1 X127.290 Y100.710 E0.14360
G1 X127.290 Y101.230 E0.01630
G1 X126.890 Y101.273 F10800.000
G1 X127.101 Y101.000
G1 F900
G1 X126.471 Y101.000 E0.01063
G1 X126.094 Y101.027 E0.00639
G1 X126.007 Y101.184 E0.00304
G1 X125.104 Y101.416 F10800.000
G1 F900
G1 X124.799 Y101.276 E0.00204
G1 X123.989 Y101.182 F10800.000
G1 F900
G1 X123.893 Y101.026 E0.00319
G1 X123.529 Y101.000 E0.00635
G1 X122.899 Y101.000 E0.01095
G1 F8640
G1 X123.529 Y101.000 E-0.14546
G1 X123.893 Y101.026 E-0.08427
G1 X123.989 Y101.182 E-0.04231
G1 E-0.52796 F2100.00000
G1 Z0.800 F10800.000
G1 X125.000 Y102.580
G1 Z0.200
G1 E0.80000 F2100.00000
G1 F900
G1 X125.000 Y107.456 E0.08227
G1 F8640
G1 X125.000 Y104.165 E-0.76000
G1 E-0.04000 F2100.00000
G1 Z0.800 F10800.000
G1 X126.011 Y108.818
G1 Z0.200
G1 E0.80000 F2100.00000
G1 F900
G1 X126.107 Y108.974 E0.00309
G1 X126.471 Y109.000 E0.00616
G1 X127.101 Y109.000 E0.01063
G1 F8640
G1 X126.471 Y109.000 E-0.14546
G1 X126.107 Y108.974 E-0.08427
G1 X126.011 Y108.818 E-0.04231
G1 E-0.52796 F2100.00000
G1 Z0.800 F10800.000
G1 X124.032 Y108.949
G1 Z0.200
G1 E0.80000 F2100.00000
G1 F900
G1 X123.745 Y108.991 E0.00643
G1
G1 X123.521 Y109.000 E0.00412
G1
G1 X122.899 Y109.000 E0.01052
M106 S255
;BEFORE_LAYER_CHANGE
G92 E0.0
;0.4


G1 F8640
G1 X123.521 Y109.000 E-0.14384
G1 E-0.65616 F2100.00000
G1 Z0.800 F10800.000
;AFTER_LAYER_CHANGE
;0.4
G1 X121.365 Y112.215
G1 Z0.400
G1 E0.80000 F2100.00000
G1 F900
G1 X120.697 Y111.825 E0.02425
G1 X120.156 Y111.279 E0.02412
G1 X119.773 Y110.607 E0.02425
G1 X119.579 Y109.858 E0.02425
G1 X119.558 Y100.441 E0.29528
G1 X119.621 Y99.890 E0.01738
G1 X119.785 Y99.365 E0.01725
G1 X120.126 Y98.761 E0.02174
G1 X120.599 Y98.254 E0.02174
G1 X121.177 Y97.871 E0.02174
G1 X121.829 Y97.635 E0.02174
G1 X122.459 Y97.558 E0.01989
G1 X127.504 Y97.557 E0.15819
G1 X128.489 Y97.728 E0.03134
G1 X129.360 Y98.219 E0.03134
G1 X130.016 Y98.973 E0.03134
G1 X130.382 Y99.904 E0.03134
G1 X130.443 Y100.480 E0.01818
G1 X130.442 Y109.547 E0.28427
G1 X130.381 Y110.102 E0.01751
G1 X130.215 Y110.635 E0.01751
G1 X129.849 Y111.273 E0.02306
G1 X129.339 Y111.797 E0.02293
G1 X128.716 Y112.180 E0.02293
G1 X128.017 Y112.397 E0.02293
G1 X122.419 Y112.442 E0.17552
G1 X121.423 Y112.228 E0.03194
G1 F8640
G1 X120.697 Y111.825 E-0.19178
G1 X120.156 Y111.279 E-0.17759
G1 X119.773 Y110.607 E-0.17856
G1 X119.579 Y109.858 E-0.17856
G1 X119.579 Y109.713 E-0.03351
G1 E-0.04000 F2100.00000
G1 Z1.000 F10800.000
G1 X124.371 Y108.868
G1 Z0.400
G1 E0.80000 F2100.00000
M204 S800
G1 F900
G1 X124.573 Y108.738 E0.00811
G1 X124.878 Y108.386 E0.01579
G1 X125.000 Y108.120 E0.00990
G1 X125.122 Y108.386 E0.00990
G1 X125.412 Y108.721 E0.01501
G1 X125.608 Y108.868 E0.00830
G1 X124.431 Y108.868 E0.03983
M204 S1000
G1 F8640
G1 X124.573 Y108.738 E-0.04432
G1 X124.878 Y108.386 E-0.10769
G1 X125.000 Y108.120 E-0.06756
G1 X125.122 Y108.386 E-0.06756
G1 X125.412 Y108.721 E-0.10240
G1 X125.608 Y108.868 E-0.05660
G1 X124.431 Y108.868 E-0.27171
G1 E-0.08217 F2100.00000
G1 Z1.000 F10800.000
G1 X125.004 Y101.871
G1 Z0.400
G1 E0.80000 F2100.00000
M204 S800
G1 F900
G1 X124.978 Y101.800 E0.00255
G1 X124.738 Y101.427 E0.01501
G1 X124.398 Y101.132 E0.01524
G1 X125.629 Y101.132 E0.04165
G1 X125.427 Y101.262 E0.00811
G1 X125.122 Y101.614 E0.01579
G1 X125.029 Y101.816 E0.00751
M204 S1000
G1 F8640
G1 X124.978 Y101.800 E-0.01239
G1 X124.738 Y101.427 E-0.10240
G1 X124.398 Y101.132 E-0.10397
G1 X125.629 Y101.132 E-0.28413
G1 X125.427 Y101.262 E-0.05534
G1 X125.122 Y101.614 E-0.10769
G1 X125.029 Y101.816 E-0.05124
G1 E-0.08283 F2100.00000
G1 Z1.000 F10800.000
G1 X127.275 Y101.275
G1 Z0.400
G1 E0.80000 F2100.00000
M204 S800
G1 F900
G1 X126.484 Y101.275 E0.02678
G1 X126.162 Y101.321 E0.01100
G1 X125.983 Y101.388 E0.00647
G1 X125.696 Y101.572 E0.01155
G1 X125.468 Y101.836 E0.01182
G1 X125.322 Y102.154 E0.01182
G1 X125.275 Y102.484 E0.01127
G1 X125.275 Y107.516 E0.17033
G1 X125.322 Y107.846 E0.01127
G1 X125.468 Y108.164 E0.01182
G1 X125.691 Y108.421 E0.01155
G1 X125.844 Y108.536 E0.00647
G1 X126.154 Y108.678 E0.01155
G1 X126.484 Y108.725 E0.01127
G1 X127.275 Y108.725 E0.02678
G1 X127.275 Y109.275 E0.01862
G1 X122.725 Y109.275 E0.15401
G1 X122.725 Y108.725 E0.01862
G1 X123.682 Y108.713 E0.03241
G1 X124.010 Y108.616 E0.01155
G1 X124.304 Y108.428 E0.01182
G1 X124.532 Y108.164 E0.01182
G1 X124.678 Y107.846 E0.01182
G1 X124.725 Y107.516 E0.01127
G1 X124.725 Y102.484 E0.17033
G1 X124.679 Y102.162 E0.01100
G1 X124.612 Y101.983 E0.00647
G1 X124.428 Y101.696 E0.01155
G1 X124.164 Y101.468 E0.01182
G1 X123.846 Y101.322 E0.01182
G1 X123.516 Y101.275 E0.01127
G1 X122.725 Y101.275 E0.02678
G1 X122.725 Y100.725 E0.01862
G1 X127.275 Y100.725 E0.15401
G1 X127.275 Y101.215 E0.01659
M204 S1000
G1 X126.875 Y101.259 F10800.000
G1 X127.071 Y101.000
G1 F900
G1 X126.469 Y101.000 E0.00716
G1 X126.077 Y101.029 E0.00468
G1
G1 X125.824 Y101.074 E0.00529
G1 F8640
G1 X126.077 Y101.029 E-0.05932
G1 E-0.74068 F2100.00000
G1 Z1.000 F10800.000
G1 X125.000 Y102.472
G1 Z0.400
G1 E0.80000 F2100.00000
G1 F900
G1 X125.000 Y107.555 E0.06279
G1 F8640
G1 X125.000 Y104.264 E-0.76000
G1 E-0.04000 F2100.00000
G1 Z1.000 F10800.000
G1 X125.801 Y108.932
G1 Z0.400
G1 E0.80000 F2100.00000
G1 F900
G1 X126.459 Y109.000 E0.00786
G1 X127.071 Y109.000 E0.00728
G1 F8640
G1 X126.459 Y109.000 E-0.14139
G1 X125.801 Y108.932 E-0.15268
G1 E-0.50593 F2100.00000
G1 Z1.000 F10800.000
G1 X124.177 Y108.928
G1 Z0.400
G1 E0.80000 F2100.00000
G1 F900
G1 X123.959 Y108.960 E0.00457
G1
G1 X123.741 Y108.991 E0.00376
G1
G1 X123.520 Y109.000 E0.00296
G1
G1 X122.929 Y109.000 E0.00704
G1 F8640
G1 X123.520 Y109.000 E-0.13666
G1 E-0.66334 F2100.00000
G1 Z1.000 F10800.000
G1 X124.138 Y101.207
G1 Z0.400
G1 E0.80000 F2100.00000
G1 F900
G1 X123.665 Y100.929 E0.00390
G1 X123.541 Y101.000 F10800.000
G1 F900
G1 X122.929 Y101.000 E0.00731
G1 X123.541 Y101.000 F10800.000
G1 F900
G1 X123.971 Y101.031 E0.00657
;BEFORE_LAYER_CHANGE
G92 E0.0
;0.6


G1 F8640
G1 X123.541 Y101.000 E-0.09950
G1 E-0.70050 F2100.00000
G1 Z1.000 F10800.000
;AFTER_LAYER_CHANGE
;0.6
G1 X128.489 Y97.728
G1 Z0.600
G1 E0.80000 F2100.00000
G1 F900
G1 X129.360 Y98.219 E0.03134
G1 X130.016 Y98.973 E0.03134
G1 X130.382 Y99.904 E0.03134
G1 X130.443 Y100.480 E0.01818
G1 X130.442 Y109.547 E0.28427
G1 X130.381 Y110.102 E0.01751
G1 X130.215 Y110.635 E0.01751
G1 X129.849 Y111.273 E0.02306
G1 X129.339 Y111.797 E0.02293
G1 X128.716 Y112.180 E0.02293
G1 X128.017 Y112.397 E0.02293
G1 X122.419 Y112.442 E0.17552
G1 X121.365 Y112.215 E0.03382
G1 X120.697 Y111.825 E0.02425
G1 X120.156 Y111.279 E0.02412
G1 X119.773 Y110.607 E0.02425
G1 X119.579 Y109.858 E0.02425
G1 X119.558 Y100.441 E0.29528
G1 X119.621 Y99.890 E0.01738
G1 X119.785 Y99.365 E0.01725
G1 X120.126 Y98.761 E0.02174
G1 X120.599 Y98.254 E0.02174
G1 X121.177 Y97.871 E0.02174
G1 X121.829 Y97.635 E0.02174
G1 X122.459 Y97.558 E0.01989
G1 X127.504 Y97.557 E0.15819
G1 X128.430 Y97.718 E0.02946
G1 F8640
G1 X129.360 Y98.219 E-0.24390
G1 X130.016 Y98.973 E-0.23080
G1 X130.382 Y99.904 E-0.23080
G1 X130.406 Y100.138 E-0.05451
G1 E-0.04000 F2100.00000
G1 Z1.200 F10800.000
G1 X125.000 Y108.120
G1 Z0.600
G1 E0.80000 F2100.00000
M204 S800
G1 F900
G1 X125.122 Y108.386 E0.00990
G1 X125.412 Y108.721 E0.01501
G1 X125.608 Y108.868 E0.00830
G1 X124.371 Y108.868 E0.04186
G1 X124.573 Y108.738 E0.00811
G1 X124.878 Y108.386 E0.01579
G1 X124.975 Y108.174 E0.00787
M204 S1000
G1 F8640
G1 X125.122 Y108.386 E-0.05941
G1 X125.412 Y108.721 E-0.10240
G1 X125.608 Y108.868 E-0.05660
G1 X124.371 Y108.868 E-0.28557
G1 X124.573 Y108.738 E-0.05534
G1 X124.878 Y108.386 E-0.10769
G1 X124.975 Y108.174 E-0.05370
G1 E-0.07929 F2100.00000
G1 Z1.200 F10800.000
G1 X125.004 Y101.871
G1 Z0.600
G1 E0.80000 F2100.00000
M204 S800
G1 F900
G1 X124.978 Y101.800 E0.00255
G1 X124.738 Y101.427 E0.01501
G1 X124.398 Y101.132 E0.01524
G1 X125.629 Y101.132 E0.04165
G1 X125.427 Y101.262 E0.00811
G1 X125.122 Y101.614 E0.01579
G1 X125.029 Y101.816 E0.00751
M204 S1000
G1 F8640
G1 X124.978 Y101.800 E-0.01239
G1 X124.738 Y101.427 E-0.10240
G1 X124.398 Y101.132 E-0.10397
G1 X125.629 Y101.132 E-0.28413
G1 X125.427 Y101.262 E-0.05534
G1 X125.122 Y101.614 E-0.10769
G1 X125.029 Y101.816 E-0.05124
G1 E-0.08283 F2100.00000
G1 Z1.200 F10800.000
G1 X127.275 Y101.275
G1 Z0.600
G1 E0.80000 F2100.00000
M204 S800
G1 F900
G1 X126.484 Y101.275 E0.02678
G1 X126.162 Y101.321 E0.01100
G1 X125.983 Y101.388 E0.00647
G1 X125.696 Y101.572 E0.01155
G1 X125.468 Y101.836 E0.01182
G1 X125.322 Y102.154 E0.01182
G1 X125.275 Y102.484 E0.01127
G1 X125.275 Y107.516 E0.17033
G1 X125.322 Y107.846 E0.01127
G1 X125.468 Y108.164 E0.01182
G1 X125.691 Y108.421 E0.01155
G1 X125.844 Y108.536 E0.00647
G1 X126.154 Y108.678 E0.01155
G1 X126.484 Y108.725 E0.01127
G1 X127.275 Y108.725 E0.02678
G1 X127.275 Y109.275 E0.01862
G1 X122.725 Y109.275 E0.15401
G1 X122.725 Y108.725 E0.01862
G1 X123.682 Y108.713 E0.03241
G1 X124.010 Y108.616 E0.01155
G1 X124.304 Y108.428 E0.01182
G1 X124.532 Y108.164 E0.01182
G1 X124.678 Y107.846 E0.01182
G1 X124.725 Y107.516 E0.01127
G1 X124.725 Y102.484 E0.17033
G1 X124.679 Y102.162 E0.01100
G1 X124.612 Y101.983 E0.00647
G1 X124.428 Y101.696 E0.01155
G1 X124.164 Y101.468 E0.01182
G1 X123.846 Y101.322 E0.01182
G1 X123.516 Y101.275 E0.01127
G1 X122.725 Y101.275 E0.02678
G1 X122.725 Y100.725 E0.01862
G1 X127.275 Y100.725 E0.15401
G1 X127.275 Y101.215 E0.01659
M204 S1000
G1 X126.875 Y101.259 F10800.000
G1 X127.071 Y101.000
G1 F900
G1 X126.469 Y101.000 E0.00716
G1 X126.077 Y101.029 E0.00468
G1
G1 X125.824 Y101.074 E0.00529
G1 F8640
G1 X126.077 Y101.029 E-0.05932
G1 E-0.74068 F2100.00000
G1 Z1.200 F10800.000
G1 X125.000 Y102.472
G1 Z0.600
G1 E0.80000 F2100.00000
G1 F900
G1 X125.000 Y107.555 E0.06279
G1 F8640
G1 X125.000 Y104.264 E-0.76000
G1 E-0.04000 F2100.00000
G1 Z1.200 F10800.000
G1 X125.801 Y108.932
G1 Z0.600
G1 E0.80000 F2100.00000
G1 F900
G1 X126.459 Y109.000 E0.00786
G1 X127.071 Y109.000 E0.00728
G1 F8640
G1 X126.459 Y109.000 E-0.14139
