; generated by PrusaSlicer 2.0.0+win64 on 2019-10-28 at 17:15:40

; 

; external perimeters extrusion width = 0.45mm
; perimeters extrusion width = 0.45mm
; infill extrusion width = 0.45mm
; solid infill extrusion width = 0.45mm
; top infill extrusion width = 0.40mm
; first layer extrusion width = 0.42mm

M73 P0 R8
M73 Q0 S8
M201 X1000 Y1000 Z1000 E5000 ; sets maximum accelerations, mm/sec^2
M203 X200 Y200 Z12 E120 ; sets maximum feedrates, mm/sec
M204 P1250 R1250 T1250 ; sets acceleration (P, T) and retract acceleration (R), mm/sec^2
M205 X8.00 Y8.00 Z0.40 E1.50 ; sets the jerk limits, mm/sec
M205 S0 T0 ; sets the minimum extruding and travel feed rate, mm/sec
M107
M115 U3.8.0 ; tell printer latest fw version
G90 ; use absolute coordinates
M83 ; extruder relative mode
M104 S200 ; set extruder temp
M140 S50 ; set bed temp
M190 S50 ; wait for bed temp
M109 S200 ; wait for extruder temp
G28 W ; home all without mesh bed level
G80 ; mesh bed leveling
G1 Y-3.0 F1000.0 ; go outside print area
G92 E0.0
G1 X60.0 E9.0 F1000.0 ; intro line
M73 Q0 S8
M73 P0 R8
G1 X100.0 E12.5 F1000.0 ; intro line
G92 E0.0
M221 S95
M900 K10; Filament gcode
G21 ; set units to millimeters
G90 ; use absolute coordinates
M83 ; use relative distances for extrusion
;BEFORE_LAYER_CHANGE
G92 E0.0
;0.2


G1 E-0.80000 F2100.00000
G1 Z0.600 F10800.000
;AFTER_LAYER_CHANGE
;0.2
G1 X120.597 Y100.502
G1 Z0.200
G1 E0.80000 F2100.00000
M204 S1000
G1 F1193.38
G1 X121.624 Y99.690 E0.04927
G1 X122.534 Y99.211 E0.03869
G1 X123.767 Y98.828 E0.04860
G1 X125.089 Y98.707 E0.04995
G1 X126.433 Y98.873 E0.05095
G1 X127.420 Y99.191 E0.03902
G1 X128.567 Y99.814 E0.04910
G1 X129.588 Y100.691 E0.05062
G1 X130.390 Y101.754 E0.05011
G1 X130.843 Y102.662 E0.03818
G1 X131.199 Y103.908 E0.04877
G1 X131.289 Y105.170 E0.04758
G1 X131.176 Y106.205 E0.03919
G1 X130.800 Y107.445 E0.04877
G1 X130.175 Y108.581 E0.04877
G1 X129.522 Y109.375 E0.03869
G1 X128.546 Y110.200 E0.04809
G1 X127.397 Y110.819 E0.04910
G1 X126.421 Y111.129 E0.03852
G1 X125.081 Y111.293 E0.05078
G1 X123.764 Y111.172 E0.04978
G1 X122.531 Y110.788 E0.04860
G1 X121.621 Y110.308 E0.03869
G1 X120.594 Y109.495 E0.04927
G1 X119.725 Y108.434 E0.05164
G1 X119.137 Y107.284 E0.04859
G1 X118.841 Y106.290 E0.03902
G1 X118.706 Y104.996 E0.04893
G1 X118.841 Y103.707 E0.04877
G1 X119.138 Y102.713 E0.03902
G1 X119.727 Y101.564 E0.04859
G1 X120.559 Y100.549 E0.04938
G1 X120.849 Y100.786 F10800.000
G1 F1193.38
G1 X121.831 Y100.005 E0.04723
G1 X122.676 Y99.560 E0.03591
G1 X123.839 Y99.198 E0.04584
G1 X125.090 Y99.084 E0.04727
G1 X126.357 Y99.243 E0.04805
G1 X127.269 Y99.537 E0.03607
G1 X128.352 Y100.124 E0.04631
G1 X129.317 Y100.954 E0.04790
G1 X130.072 Y101.957 E0.04726
G1 X130.492 Y102.800 E0.03543
G1 X130.829 Y103.980 E0.04616
G1 X130.912 Y105.170 E0.04488
G1 X130.808 Y106.127 E0.03623
G1 X130.453 Y107.297 E0.04600
G1 X129.861 Y108.371 E0.04615
G1 X129.258 Y109.106 E0.03575
G1 X128.332 Y109.890 E0.04568
G1 X127.247 Y110.473 E0.04631
G1 X126.346 Y110.760 E0.03559
G1 X125.083 Y110.916 E0.04789
G1 X123.836 Y110.801 E0.04711
G1 X122.673 Y110.439 E0.04583
G1 X121.829 Y109.994 E0.03591
G1 X120.860 Y109.228 E0.04647
G1 X120.040 Y108.226 E0.04870
G1 X119.486 Y107.141 E0.04583
G1 X119.211 Y106.219 E0.03623
G1 X119.083 Y104.999 E0.04615
G1 X119.211 Y103.783 E0.04600
G1 X119.486 Y102.860 E0.03623
G1 X120.039 Y101.775 E0.04583
G1 X120.811 Y100.833 E0.04582
G1 X121.101 Y101.071 F10800.000
G1 F1193.38
G1 X122.039 Y100.319 E0.04521
G1 X122.815 Y99.911 E0.03300
G1 X123.911 Y99.568 E0.04322
G1 X125.091 Y99.461 E0.04456
G1 X126.277 Y99.611 E0.04500
G1 X127.119 Y99.883 E0.03330
G1 X128.140 Y100.436 E0.04367
G1 X129.049 Y101.219 E0.04515
G1 X129.757 Y102.164 E0.04441
G1 X130.141 Y102.939 E0.03256
G1 X130.458 Y104.047 E0.04337
G1 X130.535 Y105.170 E0.04233
G1 X130.439 Y106.049 E0.03330
G1 X130.105 Y107.153 E0.04337
G1 X129.547 Y108.162 E0.04337
G1 X128.991 Y108.840 E0.03300
G1 X128.121 Y109.578 E0.04293
G1 X127.102 Y110.125 E0.04352
G1 X126.270 Y110.390 E0.03285
G1 X125.083 Y110.539 E0.04500
G1 X123.912 Y110.432 E0.04426
G1 X122.815 Y110.089 E0.04322
G1 X122.039 Y109.681 E0.03300
G1 X121.128 Y108.962 E0.04367
G1 X120.355 Y108.018 E0.04590
G1 X119.834 Y106.995 E0.04322
G1 X119.581 Y106.146 E0.03330
G1 X119.460 Y105.000 E0.04337
G1 X119.581 Y103.854 E0.04337
G1 X119.834 Y103.006 E0.03330
G1 X120.354 Y101.982 E0.04322
G1 X121.063 Y101.117 E0.04206
G1 X121.353 Y101.355 F10800.000
G1 F1193.38
G1 X121.393 Y101.306 E0.00238
G1 X122.247 Y100.634 E0.04086
G1 X122.955 Y100.261 E0.03013
G1 X123.985 Y99.938 E0.04059
G1 X125.088 Y99.838 E0.04169
G1 X126.202 Y99.981 E0.04223
G1 X126.970 Y100.229 E0.03040
G1 X127.926 Y100.746 E0.04086
G1 X128.778 Y101.482 E0.04237
G1 X129.437 Y102.363 E0.04141
G1 X129.789 Y103.074 E0.02985
G1 X130.086 Y104.112 E0.04059
G1 X130.158 Y105.170 E0.03991
G1 X130.069 Y105.973 E0.03040
G1 X129.756 Y107.009 E0.04073
G1 X129.234 Y107.953 E0.04059
G1 X128.726 Y108.572 E0.03013
G1 X127.912 Y109.264 E0.04018
G1 X126.955 Y109.777 E0.04087
G1 X126.196 Y110.021 E0.02999
G1 X125.082 Y110.162 E0.04223
G1 X123.983 Y110.062 E0.04155
G1 X122.957 Y109.740 E0.04045
G1 X122.248 Y109.367 E0.03013
G1 X121.392 Y108.693 E0.04100
G1 X120.669 Y107.810 E0.04292
G1 X120.181 Y106.848 E0.04059
G1 X119.951 Y106.074 E0.03040
G1 X119.837 Y104.997 E0.04073
G1 X119.952 Y103.924 E0.04059
G1 X120.183 Y103.149 E0.03046
G1 X120.668 Y102.191 E0.04040
G1 X121.315 Y101.401 E0.03842
G1 F8640
G1 X121.393 Y101.306 E-0.02849
G1 X122.247 Y100.634 E-0.25078
G1 X122.955 Y100.261 E-0.18490
G1 X123.985 Y99.938 E-0.24911
G1 X124.186 Y99.920 E-0.04673
G1 E-0.04000 F2100.00000
G1 Z0.800 F10800.000
G1 X123.463 Y103.419
G1 Z0.200
G1 E0.80000 F2100.00000
G1 F1193.38
G1 X123.654 Y103.254 E0.00947
G1 X123.861 Y103.112 E0.00947
G1 X124.084 Y102.994 E0.00947
G1 X124.319 Y102.903 E0.00947
G1 X124.562 Y102.839 E0.00947
G1 X124.801 Y102.805 E0.00910
G1 X125.188 Y102.807 E0.01454
G1 X125.561 Y102.867 E0.01421
G1 X125.800 Y102.945 E0.00947
G1 X126.020 Y103.046 E0.00910
G1 X126.444 Y103.334 E0.01929
G1 X126.625 Y103.509 E0.00947
G1 X126.784 Y103.704 E0.00947
G1 X126.920 Y103.916 E0.00947
G1 X127.031 Y104.142 E0.00947
G1 X127.116 Y104.379 E0.00947
G1 X127.173 Y104.624 E0.00947
G1 X127.201 Y104.874 E0.00947
G1 X127.201 Y105.126 E0.00947
G1 X127.173 Y105.376 E0.00947
G1 X127.118 Y105.611 E0.00910
G1 X126.920 Y106.084 E0.01929
G1 X126.784 Y106.296 E0.00947
G1 X126.625 Y106.491 E0.00947
G1 X126.444 Y106.666 E0.00947
G1 X126.245 Y106.820 E0.00947
G1 X126.029 Y106.950 E0.00947
G1 X125.800 Y107.055 E0.00947
G1 X125.570 Y107.129 E0.00910
G1 X125.063 Y107.204 E0.01929
G1 X124.811 Y107.197 E0.00947
G1 X124.562 Y107.161 E0.00947
G1 X124.319 Y107.097 E0.00947
G1 X124.084 Y107.006 E0.00947
G1 X123.861 Y106.888 E0.00947
G1 X123.654 Y106.746 E0.00947
G1 X123.463 Y106.581 E0.00947
G1 X123.293 Y106.396 E0.00947
G1 X123.145 Y106.192 E0.00947
G1 X123.021 Y105.973 E0.00947
G1 X122.923 Y105.741 E0.00947
G1 X122.855 Y105.509 E0.00910
G1 X122.795 Y105.000 E0.01929
G1 X122.809 Y104.749 E0.00947
G1 X122.852 Y104.501 E0.00947
G1 X122.923 Y104.259 E0.00947
G1 X123.021 Y104.027 E0.00947
G1 X123.145 Y103.808 E0.00947
G1 X123.423 Y103.463 E0.01666
G1 X123.145 Y103.208 F10800.000
G1 F1193.38
G1 X123.423 Y102.955 E0.01415
G1 X123.666 Y102.788 E0.01110
G1 X123.927 Y102.651 E0.01110
G1 X124.202 Y102.544 E0.01110
G1 X124.487 Y102.469 E0.01110
G1 X124.775 Y102.427 E0.01096
G1 X125.205 Y102.430 E0.01616
G1 X125.657 Y102.502 E0.01721
G1 X125.937 Y102.593 E0.01110
G1 X126.202 Y102.714 E0.01096
G1 X126.691 Y103.048 E0.02229
G1 X126.903 Y103.254 E0.01110
G1 X127.089 Y103.482 E0.01110
G1 X127.249 Y103.730 E0.01110
G1 X127.379 Y103.995 E0.01110
G1 X127.478 Y104.272 E0.01110
G1 X127.545 Y104.560 E0.01110
G1 X127.578 Y104.853 E0.01110
G1 X127.578 Y105.147 E0.01110
G1 X127.545 Y105.440 E0.01110
G1 X127.479 Y105.724 E0.01096
G1 X127.249 Y106.270 E0.02229
G1 X127.089 Y106.518 E0.01110
G1 X126.903 Y106.746 E0.01110
G1 X126.691 Y106.952 E0.01110
G1 X126.458 Y107.132 E0.01110
G1 X126.205 Y107.284 E0.01110
G1 X125.937 Y107.407 E0.01110
G1 X125.660 Y107.497 E0.01096
G1 X125.074 Y107.582 E0.02229
G1 X124.779 Y107.573 E0.01110
G1 X124.487 Y107.531 E0.01110
G1 X124.202 Y107.456 E0.01110
G1 X123.927 Y107.349 E0.01110
G1 X123.666 Y107.212 E0.01110
G1 X123.423 Y107.045 E0.01110
G1 X123.200 Y106.852 E0.01110
G1 X123.001 Y106.635 E0.01110
G1 X122.827 Y106.396 E0.01110
G1 X122.682 Y106.140 E0.01110
G1 X122.568 Y105.868 E0.01110
G1 X122.485 Y105.588 E0.01096
G1 X122.417 Y105.000 E0.02229
G1 X122.434 Y104.706 E0.01110
G1 X122.484 Y104.415 E0.01110
G1 X122.568 Y104.132 E0.01110
G1 X122.682 Y103.860 E0.01110
G1 X122.827 Y103.604 E0.01110
G1 X123.104 Y103.252 E0.01684
G1 X123.510 Y103.296 F10800.000
G1 F8640
G1 X123.423 Y102.955 E-0.10063
G1 X123.666 Y102.788 E-0.06809
G1 X123.927 Y102.651 E-0.06809
G1 X124.202 Y102.544 E-0.06809
G1 X124.487 Y102.469 E-0.06809
G1 X124.775 Y102.427 E-0.06726
G1 X125.205 Y102.430 E-0.09920
G1 X125.657 Y102.502 E-0.10559
G1 X125.937 Y102.593 E-0.06809
G1 X126.122 Y102.678 E-0.04687
G1 E-0.04000 F2100.00000
G1 Z0.800 F10800.000
G1 X122.916 Y105.087
G1 Z0.200
G1 E0.80000 F2100.00000
G1 F1173.31
G1 X124.728 Y106.899 E0.09808
G1 X125.164 Y106.911 E0.01668
G1 X125.265 Y106.894 E0.00392
G1 X123.100 Y104.728 E0.11719
G1 X123.128 Y104.565 E0.00636
G1 X123.213 Y104.299 E0.01066
G1 X125.702 Y106.788 E0.13471
G1 X126.058 Y106.602 E0.01538
G1 X123.398 Y103.941 E0.14400
G1 X123.641 Y103.643 E0.01475
G1 X126.356 Y106.357 E0.14692
G1 X126.416 Y106.299 E0.00319
G1 X126.600 Y106.059 E0.01159
G1 X123.941 Y103.400 E0.14391
G1 X124.298 Y103.214 E0.01539
G1 X126.777 Y105.694 E0.13417
G1 X126.848 Y105.524 E0.00703
G1 X126.900 Y105.274 E0.00978
G1 X124.727 Y103.101 E0.11760
G1 X124.821 Y103.087 E0.00364
G1 X125.164 Y103.089 E0.01314
G1 X125.276 Y103.107 E0.00432
G1 X127.088 Y104.920 E0.09810
G1 X126.944 Y104.233 F10800.000
G1 F1173.31
G1 X125.763 Y103.053 E0.06387
G1 F8640
G1 X126.944 Y104.233 E-0.38536
G1 E-0.41464 F2100.00000
G1 Z0.800 F10800.000
G1 X123.060 Y105.773
G1 Z0.200
G1 E0.80000 F2100.00000
G1 F1173.31
G1 X124.226 Y106.940 E0.06315
;BEFORE_LAYER_CHANGE
G92 E0.0
;0.3


G1 F8640
G1 X123.060 Y105.773 E-0.38104
G1 E-0.41896 F2100.00000
G1 Z0.800 F10800.000
;AFTER_LAYER_CHANGE
;0.3
G1 X119.725 Y108.434
G1 Z0.300
G1 E0.80000 F2100.00000
G1 F2258.24
G1 X119.137 Y107.284 E0.02568
G1 X118.841 Y106.290 E0.02062
G1 X118.706 Y104.996 E0.02586
G1 X118.841 Y103.707 E0.02577
G1 X119.138 Y102.713 E0.02062
G1 X119.727 Y101.564 E0.02568
G1 X120.597 Y100.502 E0.02729
G1 X121.624 Y99.690 E0.02604
G1 X122.534 Y99.211 E0.02044
G1 X123.767 Y98.828 E0.02568
G1 X125.089 Y98.707 E0.02640
G1 X126.433 Y98.873 E0.02692
G1 X127.420 Y99.191 E0.02062
G1 X128.567 Y99.814 E0.02595
G1 X129.588 Y100.691 E0.02675
G1 X130.390 Y101.754 E0.02648
G1 X130.843 Y102.662 E0.02018
G1 X131.199 Y103.908 E0.02577
G1 X131.289 Y105.170 E0.02515
G1 X131.176 Y106.205 E0.02071
G1 X130.800 Y107.445 E0.02577
G1 X130.175 Y108.581 E0.02577
G1 X129.522 Y109.375 E0.02044
G1 X128.546 Y110.200 E0.02541
G1 X127.397 Y110.819 E0.02595
G1 X126.421 Y111.129 E0.02035
G1 X125.081 Y111.293 E0.02684
G1 X123.764 Y111.172 E0.02631
G1 X122.531 Y110.788 E0.02568
G1 X121.621 Y110.308 E0.02045
G1 X120.594 Y109.495 E0.02604
G1 X119.763 Y108.480 E0.02609
G1 F8640
G1 X119.137 Y107.284 E-0.31176
G1 X118.841 Y106.290 E-0.23949
G1 X118.747 Y105.390 E-0.20875
G1 E-0.04000 F2100.00000
G1 Z0.900 F10800.000
G1 X123.083 Y106.232
G1 Z0.300
G1 E0.80000 F2100.00000
M204 S800
G1 F1500
G1 X122.955 Y106.005 E0.00556
G1 X122.854 Y105.766 E0.00556
G1 X122.781 Y105.516 E0.00556
G1 X122.736 Y105.260 E0.00556
G1 X122.722 Y105.000 E0.00556
G1 X122.736 Y104.740 E0.00556
G1 X122.781 Y104.484 E0.00556
G1 X122.854 Y104.234 E0.00556
G1 X122.955 Y103.995 E0.00556
G1 X123.083 Y103.768 E0.00556
G1 X123.236 Y103.558 E0.00556
G1 X123.412 Y103.366 E0.00556
G1 X123.609 Y103.196 E0.00556
G1 X123.823 Y103.049 E0.00556
G1 X124.054 Y102.927 E0.00556
G1 X124.296 Y102.833 E0.00556
G1 X124.548 Y102.767 E0.00556
G1 X124.805 Y102.730 E0.00556
G1 X125.065 Y102.723 E0.00556
G1 X125.324 Y102.745 E0.00556
G1 X125.579 Y102.796 E0.00556
G1 X125.827 Y102.877 E0.00556
G1 X126.063 Y102.985 E0.00556
G1 X126.286 Y103.119 E0.00556
G1 X126.492 Y103.278 E0.00556
G1 X126.679 Y103.459 E0.00556
G1 X126.843 Y103.661 E0.00556
G1 X126.984 Y103.880 E0.00556
G1 X127.099 Y104.113 E0.00556
G1 X127.186 Y104.358 E0.00556
G1 X127.245 Y104.611 E0.00556
G1 X127.275 Y104.870 E0.00556
G1 X127.275 Y105.130 E0.00556
G1 X127.245 Y105.389 E0.00556
G1 X127.186 Y105.642 E0.00556
G1 X127.099 Y105.887 E0.00556
G1 X126.984 Y106.120 E0.00556
G1 X126.843 Y106.339 E0.00556
G1 X126.679 Y106.541 E0.00556
G1 X126.492 Y106.722 E0.00556
G1 X126.286 Y106.881 E0.00556
G1 X126.063 Y107.015 E0.00556
G1 X125.827 Y107.123 E0.00556
G1 X125.579 Y107.204 E0.00556
G1 X125.324 Y107.255 E0.00556
G1 X125.065 Y107.277 E0.00556
G1 X124.805 Y107.270 E0.00556
G1 X124.548 Y107.233 E0.00556
G1 X124.296 Y107.167 E0.00556
G1 X124.054 Y107.073 E0.00556
G1 X123.823 Y106.951 E0.00556
G1 X123.609 Y106.804 E0.00556
G1 X123.412 Y106.634 E0.00556
G1 X123.236 Y106.442 E0.00556
G1 X123.119 Y106.280 E0.00428
M204 S1000
G1 X122.772 Y106.532 F10800.000
M204 S800
G1 F1500
G1 X122.570 Y106.195 E0.00841
G1 X122.450 Y105.910 E0.00661
G1 X122.363 Y105.613 E0.00661
G1 X122.310 Y105.309 E0.00661
G1 X122.292 Y105.000 E0.00661
G1 X122.310 Y104.691 E0.00661
G1 X122.363 Y104.387 E0.00661
G1 X122.450 Y104.090 E0.00661
G1 X122.570 Y103.805 E0.00661
G1 X122.722 Y103.536 E0.00661
G1 X122.904 Y103.286 E0.00661
G1 X123.113 Y103.058 E0.00661
G1 X123.347 Y102.856 E0.00661
G1 X123.602 Y102.681 E0.00661
G1 X123.875 Y102.537 E0.00661
G1 X124.163 Y102.425 E0.00661
G1 X124.462 Y102.346 E0.00661
G1 X124.768 Y102.302 E0.00661
G1 X125.077 Y102.293 E0.00661
G1 X125.385 Y102.320 E0.00661
G1 X125.688 Y102.381 E0.00661
G1 X125.982 Y102.477 E0.00661
G1 X126.264 Y102.605 E0.00661
G1 X126.528 Y102.765 E0.00661
G1 X126.773 Y102.954 E0.00661
G1 X126.995 Y103.169 E0.00661
G1 X127.191 Y103.408 E0.00661
G1 X127.358 Y103.669 E0.00661
G1 X127.494 Y103.946 E0.00661
G1 X127.598 Y104.237 E0.00661
G1 X127.668 Y104.538 E0.00661
G1 X127.703 Y104.845 E0.00661
G1 X127.703 Y105.155 E0.00661
G1 X127.668 Y105.462 E0.00661
G1 X127.598 Y105.763 E0.00661
G1 X127.494 Y106.054 E0.00661
G1 X127.358 Y106.331 E0.00661
G1 X127.191 Y106.592 E0.00661
G1 X126.995 Y106.831 E0.00661
G1 X126.773 Y107.046 E0.00661
G1 X126.528 Y107.235 E0.00661
G1 X126.264 Y107.395 E0.00661
G1 X125.982 Y107.523 E0.00661
G1 X125.688 Y107.619 E0.00661
G1 X125.385 Y107.680 E0.00661
G1 X125.077 Y107.707 E0.00661
G1 X124.768 Y107.698 E0.00661
G1 X124.462 Y107.654 E0.00661
G1 X124.163 Y107.575 E0.00661
G1 X123.875 Y107.463 E0.00661
G1 X123.602 Y107.319 E0.00661
G1 X123.347 Y107.144 E0.00661
G1 X123.113 Y106.942 E0.00661
G1 X122.807 Y106.581 E0.01011
M204 S1000
G1 X122.938 Y106.176 F10800.000
G1 F8640
G1 X122.570 Y106.195 E-0.10460
G1 X122.450 Y105.910 E-0.07138
G1 X122.363 Y105.613 E-0.07138
G1 X122.310 Y105.309 E-0.07138
G1 X122.292 Y105.000 E-0.07138
G1 X122.310 Y104.691 E-0.07138
G1 X122.363 Y104.387 E-0.07138
G1 X122.450 Y104.090 E-0.07138
G1 X122.570 Y103.805 E-0.07138
G1 X122.722 Y103.536 E-0.07138
G1 X122.755 Y103.491 E-0.01294
G1 E-0.04000 F2100.00000
G1 Z0.900 F10800.000
G1 X122.987 Y104.249
G1 Z0.300
G1 E0.80000 F2100.00000
M204 S1250
G1 F2073.73
G1 X123.661 Y103.575 E0.02064
G1 X123.990 Y103.325 E0.00894
G1 X124.187 Y103.220 E0.00484
G1 X124.395 Y103.139 E0.00484
G1 X124.794 Y103.056 E0.00882
G1 X123.055 Y104.795 E0.05325
G1 X123.044 Y105.000 E0.00444
G1 X123.084 Y105.381 E0.00829
G1 X125.380 Y103.084 E0.07033
G1 X125.710 Y103.177 E0.00741
G1 X125.841 Y103.237 E0.00313
G1 X123.235 Y105.843 E0.07979
G1 X123.354 Y106.058 E0.00532
G1 X123.472 Y106.220 E0.00434
G1 X126.219 Y103.473 E0.08411
G1 X126.441 Y103.677 E0.00654
G1 X126.526 Y103.780 E0.00288
G1 X123.779 Y106.527 E0.08410
G1 X123.990 Y106.675 E0.00559
G1 X124.156 Y106.763 E0.00407
G1 X126.762 Y104.157 E0.07980
G1 X126.877 Y104.449 E0.00679
