; generated by PrusaSlicer 2.0.0+win64 on 2019-10-04 at 12:20:15

; 

; external perimeters extrusion width = 0.45mm
; perimeters extrusion width = 0.45mm
; infill extrusion width = 0.45mm
; solid infill extrusion width = 0.45mm
; top infill extrusion width = 0.40mm
; first layer extrusion width = 0.42mm

M73 P0 R93
M73 Q0 S93
M201 X1000 Y1000 Z1000 E5000 ; sets maximum accelerations, mm/sec^2
M203 X200 Y200 Z12 E120 ; sets maximum feedrates, mm/sec
M204 P1250 R1250 T1250 ; sets acceleration (P, T) and retract acceleration (R), mm/sec^2
M205 X8.00 Y8.00 Z0.40 E1.50 ; sets the jerk limits, mm/sec
M205 S0 T0 ; sets the minimum extruding and travel feed rate, mm/sec
M107
M115 U3.8.0 ; tell printer latest fw version
G90 ; use absolute coordinates
M83 ; extruder relative mode
M104 S200 ; set extruder temp
M140 S50 ; set bed temp
M190 S50 ; wait for bed temp
M109 S200 ; wait for extruder temp
G28 W ; home all without mesh bed level
G80 ; mesh bed leveling
G1 Y-3.0 F1000.0 ; go outside print area
G92 E0.0
G1 X60.0 E9.0 F1000.0 ; intro line
M73 Q0 S93
M73 P0 R93
G1 X100.0 E12.5 F1000.0 ; intro line
G92 E0.0
M221 S95
M900 K10; Filament gcode
G21 ; set units to millimeters
G90 ; use absolute coordinates
M83 ; use relative distances for extrusion
;BEFORE_LAYER_CHANGE
G92 E0.0
;0.2


G1 E-0.80000 F2100.00000
G1 Z0.600 F10800.000
;AFTER_LAYER_CHANGE
;0.2
G1 X106.998 Y88.973
G1 Z0.200
G1 E0.80000 F2100.00000
M204 S1000
G1 F1193.38
G1 X108.270 Y87.647 E0.06913
G1 X109.642 Y86.424 E0.06913
G1 X110.975 Y85.396 E0.06336
G1 X112.379 Y84.466 E0.06336
G1 X113.979 Y83.563 E0.06913
G1 X115.644 Y82.787 E0.06913
G1 X117.218 Y82.187 E0.06336
G1 X118.830 Y81.700 E0.06336
G1 X120.622 Y81.297 E0.06913
G1 X122.441 Y81.033 E0.06913
G1 X124.120 Y80.912 E0.06336
G1 X125.804 Y80.911 E0.06336
G1 X127.637 Y81.041 E0.06913
G1 X129.457 Y81.313 E0.06923
G1 X131.097 Y81.680 E0.06325
G1 X132.714 Y82.165 E0.06350
G1 X134.494 Y82.846 E0.07174
G1 X136.022 Y83.563 E0.06350
G1 X137.491 Y84.386 E0.06336
G1 X139.026 Y85.397 E0.06913
G1 X140.477 Y86.523 E0.06913
G1 X141.730 Y87.648 E0.06336
G1 X142.898 Y88.856 E0.06322
G1 X144.079 Y90.269 E0.06927
G1 X145.144 Y91.765 E0.06913
G1 X146.020 Y93.203 E0.06336
G1 X146.791 Y94.700 E0.06336
G1 X147.514 Y96.390 E0.06913
G1 X148.103 Y98.130 E0.06913
G1 X148.527 Y99.760 E0.06336
G1 X148.835 Y101.415 E0.06336
G1 X149.040 Y103.241 E0.06913
G1 X149.103 Y105.077 E0.06913
G1 X149.040 Y106.760 E0.06336
G1 X148.857 Y108.434 E0.06336
G1 X148.527 Y110.241 E0.06913
G1 X148.058 Y112.018 E0.06913
G1 X147.513 Y113.611 E0.06336
G1 X146.856 Y115.161 E0.06336
G1 X146.020 Y116.797 E0.06913
G1 X145.059 Y118.363 E0.06913
G1 X144.078 Y119.732 E0.06336
G1 X143.002 Y121.027 E0.06336
G1 X141.727 Y122.355 E0.06927
G1 X140.421 Y123.525 E0.06597
G1 X139.089 Y124.556 E0.06336
G1 X137.559 Y125.573 E0.06913
G1 X135.952 Y126.471 E0.06927
G1 X134.427 Y127.184 E0.06336
G1 X132.858 Y127.786 E0.06322
G1 X131.096 Y128.320 E0.06927
G1 X129.302 Y128.716 E0.06913
G1 X127.636 Y128.959 E0.06336
G1 X125.957 Y129.084 E0.06336
G1 X124.123 Y129.088 E0.06899
G1 X122.287 Y128.950 E0.06927
G1 X120.621 Y128.703 E0.06336
G1 X118.977 Y128.338 E0.06336
G1 X117.217 Y127.813 E0.06913
G1 X115.502 Y127.153 E0.06913
G1 X113.978 Y126.437 E0.06336
G1 X112.509 Y125.614 E0.06336
G1 X110.974 Y124.603 E0.06913
G1 X109.523 Y123.477 E0.06913
G1 X108.270 Y122.352 E0.06336
G1 X107.100 Y121.141 E0.06336
G1 X105.921 Y119.731 E0.06913
G1 X104.856 Y118.235 E0.06913
G1 X103.980 Y116.797 E0.06336
G1 X103.209 Y115.300 E0.06336
G1 X102.486 Y113.610 E0.06913
G1 X101.897 Y111.870 E0.06913
G1 X101.473 Y110.240 E0.06336
G1 X101.165 Y108.585 E0.06336
G1 X100.960 Y106.759 E0.06913
G1 X100.897 Y104.923 E0.06913
G1 X100.960 Y103.240 E0.06336
G1 X101.143 Y101.566 E0.06336
G1 X101.473 Y99.759 E0.06913
G1 X101.942 Y97.982 E0.06913
G1 X102.487 Y96.389 E0.06336
G1 X103.144 Y94.839 E0.06336
G1 X103.980 Y93.203 E0.06913
G1 X104.941 Y91.637 E0.06913
G1 X105.922 Y90.268 E0.06336
G1 X106.960 Y89.019 E0.06110
G1 F8640
G1 X108.270 Y87.647 E-0.43806
G1 X109.311 Y86.719 E-0.32194
G1 E-0.04000 F2100.00000
G1 Z0.800 F10800.000
G1 X113.085 Y93.581
G1 Z0.200
G1 E0.80000 F2100.00000
G1 F1193.38
G1 X114.097 Y92.612 E0.05271
G1 X115.187 Y91.732 E0.05271
G1 X116.347 Y90.947 E0.05271
G1 X117.570 Y90.264 E0.05271
G1 X118.852 Y89.685 E0.05293
G1 X120.168 Y89.220 E0.05248
G1 X121.523 Y88.867 E0.05271
G1 X122.904 Y88.631 E0.05271
G1 X124.300 Y88.512 E0.05271
G1 X125.706 Y88.512 E0.05293
G1 X127.096 Y88.631 E0.05248
G1 X128.477 Y88.867 E0.05271
G1 X129.832 Y89.220 E0.05271
G1 X131.153 Y89.687 E0.05271
G1 X132.430 Y90.264 E0.05271
G1 X133.653 Y90.947 E0.05271
G1 X134.813 Y91.732 E0.05271
G1 X135.903 Y92.612 E0.05271
G1 X136.915 Y93.581 E0.05271
G1 X137.840 Y94.632 E0.05271
G1 X138.673 Y95.759 E0.05271
G1 X139.407 Y96.952 E0.05271
G1 X140.038 Y98.202 E0.05271
G1 X140.560 Y99.502 E0.05271
G1 X140.971 Y100.842 E0.05271
G1 X141.266 Y102.211 E0.05271
G1 X141.444 Y103.600 E0.05271
G1 X141.503 Y105.000 E0.05271
G1 X141.444 Y106.400 E0.05271
G1 X141.266 Y107.789 E0.05271
G1 X140.971 Y109.158 E0.05271
G1 X140.560 Y110.498 E0.05271
G1 X140.038 Y111.798 E0.05271
G1 X139.407 Y113.048 E0.05271
G1 X138.673 Y114.241 E0.05271
G1 X137.836 Y115.372 E0.05293
G1 X136.915 Y116.419 E0.05248
G1 X135.903 Y117.388 E0.05271
G1 X134.813 Y118.268 E0.05271
G1 X133.653 Y119.053 E0.05271
G1 X132.430 Y119.736 E0.05271
G1 X131.153 Y120.313 E0.05271
G1 X129.832 Y120.780 E0.05271
G1 X128.477 Y121.133 E0.05271
G1 X127.096 Y121.369 E0.05271
G1 X125.700 Y121.488 E0.05271
G1 X124.299 Y121.488 E0.05271
G1 X122.898 Y121.368 E0.05293
G1 X121.523 Y121.133 E0.05248
G1 X120.168 Y120.780 E0.05271
G1 X118.847 Y120.313 E0.05271
G1 X117.570 Y119.736 E0.05271
G1 X116.347 Y119.053 E0.05271
G1 X115.187 Y118.268 E0.05271
G1 X114.097 Y117.388 E0.05271
G1 X113.085 Y116.419 E0.05271
G1 X112.160 Y115.368 E0.05271
G1 X111.327 Y114.241 E0.05271
G1 X110.593 Y113.048 E0.05271
G1 X109.962 Y111.798 E0.05271
G1 X109.440 Y110.498 E0.05271
G1 X109.029 Y109.158 E0.05271
G1 X108.734 Y107.789 E0.05271
G1 X108.556 Y106.400 E0.05271
G1 X108.497 Y105.000 E0.05271
G1 X108.556 Y103.600 E0.05271
G1 X108.734 Y102.217 E0.05248
G1 X109.029 Y100.842 E0.05293
G1 X109.440 Y99.502 E0.05271
G1 X109.962 Y98.202 E0.05271
G1 X110.593 Y96.952 E0.05271
G1 X111.327 Y95.759 E0.05271
G1 X112.164 Y94.628 E0.05293
G1 X113.046 Y93.626 E0.05022
G1 X113.329 Y93.875 F10800.000
G1 F1193.38
G1 X114.346 Y92.895 E0.05315
G1 X115.411 Y92.035 E0.05150
G1 X116.545 Y91.269 E0.05150
G1 X117.740 Y90.601 E0.05150
G1 X118.993 Y90.035 E0.05172
G1 X120.278 Y89.581 E0.05128
G1 X121.603 Y89.236 E0.05150
G1 X122.952 Y89.005 E0.05150
G1 X124.316 Y88.889 E0.05150
G1 X125.690 Y88.889 E0.05172
G1 X127.048 Y89.005 E0.05128
G1 X128.397 Y89.236 E0.05150
G1 X129.722 Y89.581 E0.05150
G1 X131.013 Y90.037 E0.05150
G1 X132.260 Y90.601 E0.05150
G1 X133.455 Y91.269 E0.05150
G1 X134.589 Y92.035 E0.05150
G1 X135.654 Y92.895 E0.05150
G1 X136.642 Y93.842 E0.05150
G1 X137.546 Y94.870 E0.05150
G1 X138.360 Y95.970 E0.05150
G1 X139.078 Y97.136 E0.05150
G1 X139.694 Y98.358 E0.05150
G1 X140.205 Y99.628 E0.05150
G1 X140.605 Y100.937 E0.05150
G1 X140.894 Y102.275 E0.05150
G1 X141.068 Y103.632 E0.05150
G1 X141.126 Y105.000 E0.05150
G1 X141.068 Y106.368 E0.05150
G1 X140.894 Y107.725 E0.05150
G1 X140.605 Y109.063 E0.05150
G1 X140.205 Y110.372 E0.05150
G1 X139.694 Y111.642 E0.05150
G1 X139.078 Y112.864 E0.05150
G1 X138.360 Y114.030 E0.05150
G1 X137.542 Y115.135 E0.05172
G1 X136.642 Y116.158 E0.05128
G1 X135.654 Y117.105 E0.05150
G1 X134.589 Y117.965 E0.05150
G1 X133.455 Y118.731 E0.05150
G1 X132.260 Y119.399 E0.05150
G1 X131.013 Y119.963 E0.05150
G1 X129.722 Y120.419 E0.05150
G1 X128.397 Y120.764 E0.05150
G1 X127.048 Y120.995 E0.05150
G1 X125.684 Y121.111 E0.05150
G1 X124.316 Y121.111 E0.05150
G1 X122.946 Y120.994 E0.05172
G1 X121.603 Y120.764 E0.05128
G1 X120.278 Y120.419 E0.05150
G1 X118.987 Y119.963 E0.05150
G1 X117.740 Y119.399 E0.05150
G1 X116.545 Y118.731 E0.05150
G1 X115.411 Y117.965 E0.05150
G1 X114.346 Y117.105 E0.05150
G1 X113.358 Y116.158 E0.05150
G1 X112.454 Y115.130 E0.05150
G1 X111.640 Y114.030 E0.05150
G1 X110.922 Y112.864 E0.05150
G1 X110.306 Y111.642 E0.05150
G1 X109.795 Y110.372 E0.05150
G1 X109.395 Y109.063 E0.05150
G1 X109.106 Y107.725 E0.05150
G1 X108.932 Y106.368 E0.05150
G1 X108.874 Y105.000 E0.05150
G1 X108.932 Y103.632 E0.05150
G1 X109.106 Y102.281 E0.05128
G1 X109.395 Y100.937 E0.05172
G1 X109.795 Y99.628 E0.05150
G1 X110.306 Y98.358 E0.05150
G1 X110.922 Y97.136 E0.05150
G1 X111.640 Y95.970 E0.05150
G1 X112.458 Y94.865 E0.05172
G1 X113.289 Y93.920 E0.04737
G1 X113.216 Y93.491 F10800.000
G1 F8640
G1 X114.346 Y92.895 E-0.33999
G1 X115.411 Y92.035 E-0.31606
G1 X115.784 Y91.783 E-0.10396
G1 E-0.04000 F2100.00000
G1 Z0.800 F10800.000
G1 X109.551 Y90.316
G1 Z0.200
G1 E0.80000 F2100.00000
G1 F1193.38
G1 X110.197 Y89.646 E0.03501
G1 X111.357 Y88.606 E0.05862
G1 X112.590 Y87.654 E0.05862
G1 X113.889 Y86.795 E0.05862
G1 X115.248 Y86.032 E0.05862
G1 X116.659 Y85.371 E0.05862
G1 X118.113 Y84.815 E0.05858
G1 X119.683 Y84.348 E0.06162
G1 X121.126 Y84.027 E0.05564
G1 X122.667 Y83.800 E0.05862
G1 X124.220 Y83.686 E0.05858
G1 X125.858 Y83.692 E0.06162
G1 X127.333 Y83.800 E0.05564
G1 X128.874 Y84.027 E0.05862
G1 X130.395 Y84.365 E0.05862
G1 X131.886 Y84.814 E0.05862
G1 X133.341 Y85.371 E0.05862
G1 X134.751 Y86.032 E0.05858
G1 X136.177 Y86.838 E0.06162
G1 X137.410 Y87.654 E0.05564
G1 X138.643 Y88.606 E0.05862
G1 X139.803 Y89.646 E0.05862
G1 X140.885 Y90.767 E0.05862
G1 X141.881 Y91.965 E0.05862
G1 X142.788 Y93.232 E0.05862
G1 X143.599 Y94.561 E0.05858
G1 X144.342 Y96.020 E0.06162
G1 X144.921 Y97.381 E0.05564
G1 X145.424 Y98.855 E0.05862
G1 X145.818 Y100.363 E0.05862
G1 X146.101 Y101.895 E0.05862
G1 X146.271 Y103.443 E0.05862
G1 X146.328 Y105.000 E0.05862
G1 X146.271 Y106.556 E0.05858
G1 X146.086 Y108.183 E0.06162
G1 X145.818 Y109.637 E0.05564
G1 X145.424 Y111.145 E0.05862
G1 X144.921 Y112.619 E0.05862
G1 X144.311 Y114.053 E0.05862
G1 X143.599 Y115.438 E0.05862
G1 X142.788 Y116.768 E0.05862
G1 X141.881 Y118.035 E0.05862
G1 X140.885 Y119.233 E0.05862
G1 X139.803 Y120.354 E0.05862
G1 X138.643 Y121.394 E0.05862
G1 X137.410 Y122.346 E0.05862
G1 X136.111 Y123.205 E0.05862
G1 X134.752 Y123.968 E0.05862
G1 X133.341 Y124.629 E0.05862
G1 X131.886 Y125.186 E0.05862
G1 X130.395 Y125.635 E0.05862
G1 X128.874 Y125.973 E0.05862
G1 X127.333 Y126.200 E0.05862
G1 X125.779 Y126.314 E0.05862
G1 X124.221 Y126.314 E0.05862
G1 X122.667 Y126.200 E0.05862
G1 X121.126 Y125.973 E0.05862
G1 X119.605 Y125.635 E0.05862
G1 X118.114 Y125.186 E0.05862
G1 X116.659 Y124.629 E0.05862
G1 X115.248 Y123.968 E0.05862
G1 X113.889 Y123.205 E0.05862
G1 X112.591 Y122.346 E0.05858
G1 X111.298 Y121.341 E0.06162
G1 X110.197 Y120.354 E0.05564
G1 X109.115 Y119.233 E0.05862
G1 X108.119 Y118.035 E0.05862
G1 X107.212 Y116.768 E0.05862
G1 X106.401 Y115.438 E0.05862
G1 X105.689 Y114.054 E0.05858
G1 X105.054 Y112.544 E0.06162
G1 X104.576 Y111.145 E0.05564
G1 X104.182 Y109.637 E0.05862
G1 X103.899 Y108.105 E0.05862
G1 X103.729 Y106.557 E0.05862
G1 X103.672 Y105.000 E0.05862
G1 X103.729 Y103.443 E0.05862
G1 X103.899 Y101.895 E0.05862
G1 X104.182 Y100.363 E0.05862
G1 X104.576 Y98.855 E0.05862
G1 X105.079 Y97.381 E0.05862
G1 X105.689 Y95.947 E0.05862
G1 X106.401 Y94.562 E0.05862
G1 X107.212 Y93.232 E0.05862
G1 X108.119 Y91.965 E0.05862
G1 X109.115 Y90.767 E0.05862
G1 X109.509 Y90.359 E0.02134
G1 X109.238 Y90.097 F10800.000
G1 F1193.38
G1 X109.935 Y89.374 E0.03779
G1 X111.116 Y88.316 E0.05965
G1 X112.371 Y87.347 E0.05965
G1 X113.693 Y86.472 E0.05965
G1 X115.075 Y85.697 E0.05965
G1 X116.511 Y85.024 E0.05965
G1 X117.991 Y84.457 E0.05964
G1 X119.588 Y83.983 E0.06266
G1 X121.058 Y83.656 E0.05666
G1 X122.626 Y83.425 E0.05965
G1 X124.207 Y83.309 E0.05964
G1 X125.872 Y83.315 E0.06266
G1 X127.374 Y83.425 E0.05665
G1 X128.942 Y83.656 E0.05965
G1 X130.490 Y84.000 E0.05965
G1 X132.008 Y84.457 E0.05965
G1 X133.489 Y85.024 E0.05965
G1 X134.924 Y85.696 E0.05964
G1 X136.374 Y86.516 E0.06266
G1 X137.629 Y87.347 E0.05665
G1 X138.884 Y88.316 E0.05965
G1 X140.065 Y89.374 E0.05965
G1 X141.166 Y90.516 E0.05965
G1 X142.180 Y91.734 E0.05965
G1 X143.102 Y93.024 E0.05965
G1 X143.928 Y94.377 E0.05964
G1 X144.684 Y95.860 E0.06266
G1 X145.273 Y97.246 E0.05665
G1 X145.785 Y98.747 E0.05965
G1 X146.186 Y100.281 E0.05965
G1 X146.474 Y101.840 E0.05965
G1 X146.647 Y103.416 E0.05965
G1 X146.705 Y105.000 E0.05965
G1 X146.647 Y106.584 E0.05964
G1 X146.460 Y108.239 E0.06266
G1 X146.186 Y109.719 E0.05665
G1 X145.785 Y111.253 E0.05965
G1 X145.273 Y112.754 E0.05965
G1 X144.653 Y114.213 E0.05965
G1 X143.928 Y115.623 E0.05965
G1 X143.102 Y116.976 E0.05965
G1 X142.180 Y118.266 E0.05965
G1 X141.166 Y119.484 E0.05965
G1 X140.065 Y120.626 E0.05965
G1 X138.884 Y121.684 E0.05965
G1 X137.629 Y122.653 E0.05965
G1 X136.307 Y123.528 E0.05965
G1 X134.925 Y124.303 E0.05965
G1 X133.489 Y124.976 E0.05965
G1 X132.008 Y125.543 E0.05965
G1 X130.490 Y126.000 E0.05965
G1 X128.942 Y126.344 E0.05965
G1 X127.374 Y126.575 E0.05965
G1 X125.793 Y126.691 E0.05965
G1 X124.207 Y126.691 E0.05965
G1 X122.626 Y126.575 E0.05965
G1 X121.058 Y126.344 E0.05965
G1 X119.510 Y126.000 E0.05965
G1 X117.992 Y125.543 E0.05965
G1 X116.511 Y124.976 E0.05965
G1 X115.075 Y124.303 E0.05965
G1 X113.693 Y123.528 E0.05965
G1 X112.371 Y122.653 E0.05964
G1 X111.056 Y121.631 E0.06266
G1 X109.935 Y120.626 E0.05666
G1 X108.834 Y119.484 E0.05965
G1 X107.820 Y118.266 E0.05965
G1 X106.898 Y116.976 E0.05965
G1 X106.072 Y115.623 E0.05965
G1 X105.347 Y114.213 E0.05964
G1 X104.701 Y112.678 E0.06266
G1 X104.215 Y111.253 E0.05665
G1 X103.814 Y109.719 E0.05965
G1 X103.526 Y108.160 E0.05965
G1 X103.353 Y106.584 E0.05965
G1 X103.295 Y105.000 E0.05965
G1 X103.353 Y103.416 E0.05965
G1 X103.526 Y101.840 E0.05965
G1 X103.814 Y100.281 E0.05965
G1 X104.215 Y98.747 E0.05965
G1 X104.727 Y97.246 E0.05965
G1 X105.347 Y95.787 E0.05965
G1 X106.072 Y94.377 E0.05965
G1 X106.898 Y93.024 E0.05965
G1 X107.820 Y91.734 E0.05965
G1 X108.834 Y90.516 E0.05965
G1 X109.196 Y90.140 E0.01961
G1 X109.628 Y90.187 F10800.000
G1 F8640
G1 X109.935 Y89.374 E-0.24576
G1 X111.116 Y88.316 E-0.36608
G1 X111.624 Y87.924 E-0.14815
G1 E-0.04000 F2100.00000
G1 Z0.800 F10800.000
G1 X110.776 Y113.562
G1 Z0.200
G1 E0.80000 F2100.00000
G1 F1186.99
G1 X104.043 Y106.829 E0.36017
G1 X104.001 Y106.251 E0.02196
G1 X109.744 Y111.994 E0.30727
G1 X109.371 Y111.084 E0.03722
G1 X103.980 Y105.694 E0.28836
G1 X103.960 Y105.138 E0.02106
G1 X109.066 Y110.244 E0.27316
G1 X108.829 Y109.471 E0.03057
G1 X103.969 Y104.611 E0.26000
G1 X103.988 Y104.093 E0.01958
G1 X108.654 Y108.760 E0.24962
G1 X108.507 Y108.076 E0.02645
G1 X104.007 Y103.576 E0.24073
G1 X104.011 Y103.464 E0.00426
G1 X104.053 Y103.086 E0.01439
G1 X108.404 Y107.437 E0.23279
G1 X108.325 Y106.822 E0.02345
G1 X104.106 Y102.603 E0.22573
G1 X104.159 Y102.120 E0.01838
G1 X108.266 Y106.227 E0.21971
G1 X108.242 Y105.667 E0.02120
G1 X104.231 Y101.656 E0.21459
G1 X104.315 Y101.203 E0.01741
G1 X108.218 Y105.107 E0.20884
G1 X108.232 Y104.584 E0.01979
G1 X104.398 Y100.751 E0.20507
G1 X104.489 Y100.306 E0.01718
G1 X108.253 Y104.070 E0.20136
G1 X108.277 Y103.557 E0.01941
G1 X104.601 Y99.881 E0.19667
G1 X104.712 Y99.456 E0.01662
G1 X108.338 Y103.082 E0.19398
G1 X108.399 Y102.606 E0.01813
G1 X104.823 Y99.031 E0.19129
G1 X104.954 Y98.625 E0.01611
G1 X108.462 Y102.134 E0.18770
G1 X108.557 Y101.693 E0.01707
G1 X105.090 Y98.226 E0.18548
G1 X105.226 Y97.826 E0.01598
G1 X108.652 Y101.251 E0.18326
G1 X108.747 Y100.810 E0.01707
G1 X105.366 Y97.429 E0.18087
G1 X105.526 Y97.053 E0.01546
G1 X108.870 Y100.397 E0.17889
G1 X108.996 Y99.986 E0.01624
G1 X105.686 Y96.677 E0.17706
G1 X105.846 Y96.301 E0.01546
G1 X109.121 Y99.576 E0.17523
G1 X109.263 Y99.182 E0.01584
G1 X106.014 Y95.933 E0.17383
G1 X106.196 Y95.579 E0.01506
G1 X109.417 Y98.800 E0.17232
G1 X109.571 Y98.417 E0.01559
G1 X106.378 Y95.225 E0.17080
G1 X106.560 Y94.870 E0.01506
G1 X109.728 Y98.038 E0.16947
G1 X109.908 Y97.682 E0.01510
G1 X106.753 Y94.527 E0.16875
