; generated by PrusaSlicer 2.0.0+win64 on 2019-10-03 at 09:10:11

; 

; external perimeters extrusion width = 0.45mm
; perimeters extrusion width = 0.45mm
; infill extrusion width = 0.45mm
; solid infill extrusion width = 0.45mm
; top infill extrusion width = 0.40mm
; first layer extrusion width = 0.42mm

M73 P0 R82
M73 Q0 S82
M201 X1000 Y1000 Z1000 E5000 ; sets maximum accelerations, mm/sec^2
M203 X200 Y200 Z12 E120 ; sets maximum feedrates, mm/sec
M204 P1250 R1250 T1250 ; sets acceleration (P, T) and retract acceleration (R), mm/sec^2
M205 X8.00 Y8.00 Z0.40 E1.50 ; sets the jerk limits, mm/sec
M205 S0 T0 ; sets the minimum extruding and travel feed rate, mm/sec
M107
M115 U3.8.0 ; tell printer latest fw version
G90 ; use absolute coordinates
M83 ; extruder relative mode
M104 S200 ; set extruder temp
M140 S50 ; set bed temp
M190 S50 ; wait for bed temp
M109 S200 ; wait for extruder temp
G28 W ; home all without mesh bed level
G80 ; mesh bed leveling
G1 Y-3.0 F1000.0 ; go outside print area
G92 E0.0
G1 X60.0 E9.0 F1000.0 ; intro line
M73 Q0 S82
M73 P0 R82
G1 X100.0 E12.5 F1000.0 ; intro line
G92 E0.0
M221 S95
M900 K10; Filament gcode
G21 ; set units to millimeters
G90 ; use absolute coordinates
M83 ; use relative distances for extrusion
;BEFORE_LAYER_CHANGE
G92 E0.0
;0.2


G1 E-0.80000 F2100.00000
G1 Z0.600 F10800.000
;AFTER_LAYER_CHANGE
;0.2
G1 X106.424 Y89.647
G1 Z0.200
G1 E0.80000 F2100.00000
M204 S1000
G1 F1193.38
G1 X107.580 Y88.349 E0.06540
G1 X108.714 Y87.236 E0.05981
G1 X109.922 Y86.200 E0.05986
G1 X111.318 Y85.160 E0.06549
G1 X112.713 Y84.267 E0.06233
G1 X114.108 Y83.502 E0.05986
G1 X115.687 Y82.770 E0.06549
G1 X117.314 Y82.158 E0.06540
G1 X118.836 Y81.699 E0.05981
G1 X120.455 Y81.330 E0.06247
G1 X122.176 Y81.064 E0.06554
G1 X123.760 Y80.928 E0.05981
G1 X125.387 Y80.899 E0.06123
G1 X127.159 Y80.993 E0.06677
G1 X128.737 Y81.186 E0.05981
G1 X130.364 Y81.499 E0.06233
G1 X132.046 Y81.948 E0.06549
G1 X133.555 Y82.463 E0.05999
G1 X135.019 Y83.075 E0.05972
G1 X136.576 Y83.854 E0.06549
G1 X138.069 Y84.744 E0.06540
G1 X139.377 Y85.648 E0.05981
G1 X140.624 Y86.641 E0.05999
G1 X141.952 Y87.860 E0.06782
G1 X143.049 Y89.017 E0.05999
G1 X144.064 Y90.243 E0.05986
G1 X145.080 Y91.656 E0.06549
G1 X145.949 Y93.066 E0.06233
G1 X146.690 Y94.474 E0.05986
G1 X147.394 Y96.066 E0.06549
G1 X147.978 Y97.703 E0.06540
G1 X148.410 Y99.233 E0.05981
G1 X148.752 Y100.858 E0.06247
G1 X148.988 Y102.578 E0.06535
G1 X149.096 Y104.169 E0.05999
G1 X149.098 Y105.756 E0.05972
G1 X148.981 Y107.493 E0.06549
G1 X148.738 Y109.214 E0.06540
G1 X148.410 Y110.770 E0.05981
G1 X147.976 Y112.304 E0.05999
G1 X147.366 Y114.000 E0.06783
G1 X146.723 Y115.459 E0.05999
G1 X145.985 Y116.869 E0.05986
G1 X145.076 Y118.349 E0.06535
G1 X144.061 Y119.760 E0.06540
G1 X143.048 Y120.985 E0.05981
G1 X141.905 Y122.189 E0.06247
G1 X140.618 Y123.363 E0.06554
G1 X139.375 Y124.354 E0.05981
G1 X138.008 Y125.297 E0.06247
G1 X136.512 Y126.179 E0.06535
G1 X135.087 Y126.895 E0.05999
G1 X133.624 Y127.510 E0.05972
G1 X131.978 Y128.074 E0.06549
G1 X130.296 Y128.515 E0.06540
G1 X128.735 Y128.814 E0.05981
G1 X127.156 Y129.007 E0.05986
G1 X125.385 Y129.101 E0.06673
G1 X123.761 Y129.072 E0.06109
G1 X122.176 Y128.936 E0.05986
G1 X120.456 Y128.671 E0.06549
G1 X118.762 Y128.280 E0.06540
G1 X117.241 Y127.819 E0.05981
G1 X115.689 Y127.230 E0.06247
G1 X114.108 Y126.498 E0.06554
G1 X112.714 Y125.734 E0.05981
G1 X111.316 Y124.839 E0.06247
G1 X109.923 Y123.800 E0.06535
G1 X108.713 Y122.763 E0.05999
G1 X107.580 Y121.651 E0.05972
G1 X106.423 Y120.351 E0.06549
G1 X105.366 Y118.971 E0.06540
G1 X104.487 Y117.646 E0.05981
G1 X103.696 Y116.262 E0.05999
G1 X102.914 Y114.637 E0.06783
G1 X102.324 Y113.156 E0.05999
G1 X101.837 Y111.642 E0.05986
G1 X101.417 Y109.952 E0.06549
G1 X101.132 Y108.320 E0.06233
G1 X100.966 Y106.738 E0.05986
G1 X100.902 Y104.999 E0.06549
G1 X100.966 Y103.262 E0.06540
G1 X101.132 Y101.681 E0.05981
G1 X101.417 Y100.045 E0.06247
G1 X101.836 Y98.360 E0.06535
G1 X102.325 Y96.842 E0.05999
G1 X102.914 Y95.364 E0.05986
G1 X103.697 Y93.736 E0.06796
G1 X104.488 Y92.351 E0.05999
G1 X105.366 Y91.029 E0.05972
G1 X106.388 Y89.695 E0.06323
G1 F8640
G1 X107.580 Y88.349 E-0.41517
G1 X108.646 Y87.303 E-0.34483
G1 E-0.04000 F2100.00000
G1 Z0.800 F10800.000
G1 X112.241 Y94.562
G1 Z0.200
G1 E0.80000 F2100.00000
G1 F1193.38
G1 X112.757 Y93.941 E0.03038
G1 X113.700 Y92.979 E0.05065
G1 X114.717 Y92.097 E0.05065
G1 X115.799 Y91.304 E0.05048
G1 X116.950 Y90.597 E0.05082
G1 X118.151 Y89.988 E0.05066
G1 X119.397 Y89.479 E0.05065
G1 X120.681 Y89.074 E0.05065
G1 X121.994 Y88.774 E0.05065
G1 X123.326 Y88.583 E0.05065
G1 X124.665 Y88.501 E0.05048
G1 X126.016 Y88.528 E0.05082
G1 X127.355 Y88.665 E0.05066
G1 X128.679 Y88.911 E0.05065
G1 X129.978 Y89.264 E0.05065
G1 X131.244 Y89.721 E0.05065
G1 X132.469 Y90.280 E0.05065
G1 X133.644 Y90.938 E0.05065
G1 X134.757 Y91.686 E0.05048
G1 X135.814 Y92.528 E0.05082
G1 X136.794 Y93.450 E0.05066
G1 X137.697 Y94.449 E0.05065
G1 X138.511 Y95.515 E0.05048
G1 X139.242 Y96.651 E0.05082
G1 X139.875 Y97.840 E0.05066
G1 X140.409 Y99.075 E0.05065
G1 X140.841 Y100.351 E0.05065
G1 X141.167 Y101.657 E0.05065
G1 X141.385 Y102.980 E0.05048
G1 X141.496 Y104.327 E0.05082
G1 X141.496 Y105.673 E0.05066
G1 X141.386 Y107.015 E0.05065
G1 X141.167 Y108.343 E0.05065
G1 X140.841 Y109.649 E0.05065
G1 X140.409 Y110.925 E0.05065
G1 X139.875 Y112.160 E0.05065
G1 X139.242 Y113.349 E0.05065
G1 X138.514 Y114.481 E0.05065
G1 X137.697 Y115.551 E0.05065
G1 X136.797 Y116.546 E0.05048
G1 X135.814 Y117.472 E0.05082
G1 X134.761 Y118.312 E0.05066
G1 X133.644 Y119.062 E0.05065
G1 X132.469 Y119.720 E0.05065
G1 X131.244 Y120.279 E0.05065
G1 X129.978 Y120.736 E0.05065
G1 X128.679 Y121.089 E0.05065
G1 X127.355 Y121.335 E0.05065
G1 X126.016 Y121.472 E0.05065
G1 X124.670 Y121.500 E0.05065
G1 X123.331 Y121.418 E0.05048
G1 X121.994 Y121.226 E0.05082
G1 X120.681 Y120.926 E0.05066
G1 X119.397 Y120.521 E0.05065
G1 X118.151 Y120.012 E0.05065
G1 X116.950 Y119.403 E0.05065
G1 X115.803 Y118.698 E0.05065
G1 X114.717 Y117.903 E0.05065
G1 X113.700 Y117.021 E0.05065
G1 X112.757 Y116.059 E0.05065
G1 X111.897 Y115.024 E0.05065
G1 X111.123 Y113.922 E0.05065
G1 X110.442 Y112.761 E0.05065
G1 X109.858 Y111.548 E0.05065
G1 X109.375 Y110.291 E0.05065
G1 X108.997 Y109.004 E0.05048
G1 X108.723 Y107.681 E0.05082
G1 X108.558 Y106.345 E0.05066
G1 X108.503 Y105.000 E0.05065
G1 X108.558 Y103.655 E0.05065
G1 X108.722 Y102.323 E0.05048
G1 X108.995 Y101.000 E0.05082
G1 X109.375 Y99.709 E0.05066
G1 X109.858 Y98.452 E0.05065
G1 X110.442 Y97.239 E0.05065
G1 X111.123 Y96.078 E0.05065
G1 X111.897 Y94.976 E0.05065
G1 X112.203 Y94.608 E0.01801
G1 X112.493 Y94.849 F10800.000
G1 F1193.38
G1 X113.038 Y94.194 E0.03206
G1 X113.958 Y93.254 E0.04950
G1 X114.952 Y92.392 E0.04950
G1 X116.010 Y91.618 E0.04932
G1 X117.134 Y90.926 E0.04967
G1 X118.308 Y90.332 E0.04950
G1 X119.526 Y89.834 E0.04950
G1 X120.780 Y89.438 E0.04950
G1 X122.062 Y89.145 E0.04950
G1 X123.365 Y88.958 E0.04950
G1 X124.673 Y88.878 E0.04932
G1 X125.993 Y88.905 E0.04967
G1 X127.301 Y89.038 E0.04950
G1 X128.595 Y89.279 E0.04950
G1 X129.864 Y89.623 E0.04950
G1 X131.101 Y90.071 E0.04950
G1 X132.298 Y90.617 E0.04950
G1 X133.446 Y91.259 E0.04950
G1 X134.534 Y91.990 E0.04932
G1 X135.567 Y92.813 E0.04967
G1 X136.525 Y93.714 E0.04950
G1 X137.406 Y94.691 E0.04950
G1 X138.203 Y95.732 E0.04932
G1 X138.917 Y96.842 E0.04967
G1 X139.535 Y98.003 E0.04950
G1 X140.057 Y99.211 E0.04950
G1 X140.479 Y100.457 E0.04950
G1 X140.798 Y101.733 E0.04950
G1 X141.011 Y103.027 E0.04932
G1 X141.119 Y104.342 E0.04967
G1 X141.119 Y105.658 E0.04950
G1 X141.012 Y106.969 E0.04950
G1 X140.798 Y108.267 E0.04950
G1 X140.479 Y109.543 E0.04950
G1 X140.057 Y110.789 E0.04950
G1 X139.535 Y111.997 E0.04950
G1 X138.917 Y113.158 E0.04950
G1 X138.205 Y114.264 E0.04950
G1 X137.406 Y115.309 E0.04950
G1 X136.528 Y116.282 E0.04932
G1 X135.567 Y117.187 E0.04967
G1 X134.538 Y118.007 E0.04950
G1 X133.446 Y118.741 E0.04950
G1 X132.298 Y119.383 E0.04950
G1 X131.101 Y119.929 E0.04950
G1 X129.864 Y120.377 E0.04950
G1 X128.595 Y120.721 E0.04950
G1 X127.301 Y120.962 E0.04950
G1 X125.993 Y121.095 E0.04950
G1 X124.678 Y121.122 E0.04950
G1 X123.369 Y121.042 E0.04932
G1 X122.062 Y120.855 E0.04967
G1 X120.780 Y120.562 E0.04950
G1 X119.526 Y120.166 E0.04950
G1 X118.308 Y119.668 E0.04950
G1 X117.134 Y119.074 E0.04950
G1 X116.013 Y118.385 E0.04950
G1 X114.952 Y117.608 E0.04950
G1 X113.958 Y116.746 E0.04950
G1 X113.038 Y115.806 E0.04950
G1 X112.197 Y114.795 E0.04950
G1 X111.441 Y113.718 E0.04950
G1 X110.775 Y112.583 E0.04950
G1 X110.205 Y111.398 E0.04950
G1 X109.732 Y110.170 E0.04950
G1 X109.363 Y108.913 E0.04932
G1 X109.095 Y107.620 E0.04967
G1 X108.935 Y106.314 E0.04950
G1 X108.881 Y105.000 E0.04950
G1 X108.935 Y103.686 E0.04950
G1 X109.095 Y102.385 E0.04932
G1 X109.362 Y101.092 E0.04967
G1 X109.732 Y99.830 E0.04950
G1 X110.205 Y98.602 E0.04950
G1 X110.775 Y97.417 E0.04950
G1 X111.441 Y96.282 E0.04950
G1 X112.197 Y95.205 E0.04950
G1 X112.454 Y94.895 E0.01518
G1 X112.347 Y94.476 F10800.000
G1 F8640
G1 X113.038 Y94.194 E-0.21061
G1 X113.958 Y93.254 E-0.30375
G1 X114.762 Y92.557 E-0.24564
G1 E-0.04000 F2100.00000
G1 Z0.800 F10800.000
G1 X108.330 Y91.720
G1 Z0.200
G1 E0.80000 F2100.00000
G1 F1193.38
G1 X108.518 Y91.476 E0.01163
G1 X109.541 Y90.314 E0.05824
G1 X110.590 Y89.282 E0.05536
G1 X111.709 Y88.325 E0.05540
G1 X112.891 Y87.447 E0.05540
G1 X114.131 Y86.653 E0.05540
G1 X115.422 Y85.947 E0.05540
G1 X116.760 Y85.331 E0.05540
G1 X118.136 Y84.809 E0.05540
G1 X119.546 Y84.383 E0.05540
G1 X120.908 Y84.072 E0.05259
G1 X122.437 Y83.827 E0.05824
G1 X123.903 Y83.701 E0.05536
G1 X125.375 Y83.675 E0.05540
G1 X126.770 Y83.747 E0.05259
G1 X128.308 Y83.929 E0.05824
G1 X129.752 Y84.207 E0.05536
G1 X131.176 Y84.584 E0.05540
G1 X132.570 Y85.058 E0.05540
G1 X133.927 Y85.627 E0.05540
G1 X135.243 Y86.289 E0.05540
G1 X136.445 Y87.002 E0.05259
G1 X137.722 Y87.877 E0.05824
G1 X138.872 Y88.794 E0.05536
G1 X139.902 Y89.739 E0.05259
G1 X140.971 Y90.858 E0.05824
G1 X141.909 Y91.992 E0.05536
G1 X142.766 Y93.189 E0.05540
G1 X143.538 Y94.442 E0.05540
G1 X144.222 Y95.746 E0.05540
G1 X144.815 Y97.094 E0.05540
G1 X145.313 Y98.479 E0.05540
G1 X145.715 Y99.896 E0.05540
G1 X146.018 Y101.337 E0.05540
G1 X146.220 Y102.795 E0.05540
G1 X146.322 Y104.264 E0.05540
G1 X146.322 Y105.736 E0.05540
G1 X146.220 Y107.205 E0.05540
G1 X146.028 Y108.589 E0.05259
G1 X145.715 Y110.105 E0.05824
G1 X145.313 Y111.521 E0.05536
G1 X144.815 Y112.906 E0.05540
G1 X144.222 Y114.254 E0.05540
G1 X143.538 Y115.558 E0.05540
G1 X142.766 Y116.811 E0.05540
G1 X141.952 Y117.947 E0.05259
G1 X140.970 Y119.144 E0.05824
G1 X139.957 Y120.211 E0.05536
G1 X138.872 Y121.206 E0.05540
G1 X137.779 Y122.077 E0.05259
G1 X136.508 Y122.961 E0.05824
G1 X135.243 Y123.711 E0.05536
G1 X133.994 Y124.339 E0.05259
G1 X132.569 Y124.942 E0.05824
G1 X131.176 Y125.416 E0.05536
G1 X129.752 Y125.793 E0.05540
G1 X128.307 Y126.071 E0.05540
G1 X126.845 Y126.249 E0.05540
G1 X125.449 Y126.321 E0.05259
G1 X123.902 Y126.299 E0.05824
G1 X122.436 Y126.173 E0.05536
G1 X120.981 Y125.945 E0.05540
G1 X119.546 Y125.617 E0.05540
G1 X118.136 Y125.191 E0.05540
G1 X116.760 Y124.669 E0.05540
G1 X115.422 Y124.053 E0.05540
G1 X114.131 Y123.347 E0.05540
G1 X112.891 Y122.553 E0.05540
G1 X111.709 Y121.675 E0.05540
G1 X110.647 Y120.766 E0.05259
G1 X109.539 Y119.685 E0.05824
G1 X108.564 Y118.584 E0.05536
G1 X107.711 Y117.476 E0.05259
G1 X106.850 Y116.190 E0.05824
G1 X106.121 Y114.912 E0.05536
G1 X105.483 Y113.585 E0.05540
G1 X104.937 Y112.218 E0.05540
G1 X104.487 Y110.816 E0.05540
G1 X104.134 Y109.386 E0.05540
G1 X103.881 Y107.936 E0.05540
G1 X103.729 Y106.471 E0.05540
G1 X103.678 Y105.000 E0.05540
G1 X103.729 Y103.529 E0.05540
G1 X103.881 Y102.064 E0.05540
G1 X104.134 Y100.614 E0.05540
G1 X104.487 Y99.184 E0.05540
G1 X104.937 Y97.782 E0.05540
G1 X105.483 Y96.415 E0.05540
G1 X106.121 Y95.088 E0.05540
G1 X106.850 Y93.809 E0.05540
G1 X107.666 Y92.583 E0.05540
G1 X108.293 Y91.768 E0.03870
G1 X107.994 Y91.538 F10800.000
G1 F1193.38
G1 X108.227 Y91.236 E0.01435
G1 X109.267 Y90.054 E0.05922
G1 X110.335 Y89.004 E0.05636
G1 X111.473 Y88.030 E0.05638
G1 X112.676 Y87.137 E0.05638
G1 X113.938 Y86.329 E0.05638
G1 X115.253 Y85.610 E0.05638
G1 X116.614 Y84.983 E0.05638
G1 X118.015 Y84.452 E0.05638
G1 X119.449 Y84.018 E0.05638
G1 X120.836 Y83.701 E0.05354
G1 X122.391 Y83.453 E0.05922
G1 X123.883 Y83.324 E0.05636
G1 X125.381 Y83.298 E0.05638
G1 X126.802 Y83.372 E0.05354
G1 X128.365 Y83.556 E0.05922
G1 X129.836 Y83.839 E0.05636
G1 X131.285 Y84.222 E0.05638
G1 X132.703 Y84.705 E0.05638
G1 X134.085 Y85.284 E0.05638
G1 X135.424 Y85.958 E0.05638
G1 X136.648 Y86.683 E0.05354
G1 X137.946 Y87.573 E0.05922
G1 X139.117 Y88.507 E0.05636
G1 X140.166 Y89.469 E0.05354
G1 X141.253 Y90.607 E0.05922
G1 X142.208 Y91.762 E0.05636
G1 X143.080 Y92.980 E0.05638
G1 X143.866 Y94.256 E0.05638
G1 X144.562 Y95.582 E0.05638
G1 X145.166 Y96.954 E0.05638
G1 X145.673 Y98.364 E0.05638
G1 X146.081 Y99.806 E0.05638
G1 X146.389 Y101.272 E0.05638
G1 X146.596 Y102.756 E0.05638
G1 X146.699 Y104.251 E0.05638
G1 X146.699 Y105.749 E0.05638
G1 X146.596 Y107.244 E0.05638
G1 X146.400 Y108.654 E0.05354
G1 X146.081 Y110.195 E0.05922
G1 X145.673 Y111.636 E0.05636
G1 X145.166 Y113.046 E0.05638
G1 X144.562 Y114.418 E0.05638
G1 X143.866 Y115.744 E0.05638
G1 X143.080 Y117.020 E0.05638
G1 X142.251 Y118.177 E0.05354
G1 X141.253 Y119.394 E0.05922
G1 X140.222 Y120.480 E0.05636
G1 X139.117 Y121.493 E0.05638
G1 X138.005 Y122.380 E0.05354
G1 X136.712 Y123.278 E0.05922
G1 X135.424 Y124.042 E0.05636
G1 X134.152 Y124.682 E0.05354
G1 X132.703 Y125.295 E0.05922
G1 X131.285 Y125.778 E0.05636
G1 X129.836 Y126.161 E0.05638
G1 X128.365 Y126.444 E0.05638
G1 X126.878 Y126.625 E0.05638
G1 X125.456 Y126.698 E0.05354
G1 X123.883 Y126.676 E0.05922
G1 X122.390 Y126.547 E0.05636
G1 X120.910 Y126.315 E0.05638
G1 X119.449 Y125.982 E0.05638
G1 X118.015 Y125.548 E0.05638
G1 X116.614 Y125.017 E0.05638
G1 X115.253 Y124.390 E0.05638
G1 X113.938 Y123.671 E0.05638
G1 X112.676 Y122.863 E0.05638
G1 X111.473 Y121.970 E0.05638
G1 X110.392 Y121.045 E0.05354
G1 X109.266 Y119.945 E0.05922
G1 X108.273 Y118.824 E0.05636
G1 X107.405 Y117.696 E0.05354
G1 X106.529 Y116.389 E0.05922
G1 X105.787 Y115.087 E0.05636
G1 X105.137 Y113.737 E0.05638
G1 X104.582 Y112.345 E0.05638
G1 X104.124 Y110.919 E0.05638
G1 X103.765 Y109.464 E0.05638
G1 X103.508 Y107.988 E0.05638
G1 X103.353 Y106.497 E0.05638
G1 X103.301 Y105.000 E0.05638
G1 X103.353 Y103.503 E0.05638
G1 X103.508 Y102.012 E0.05638
G1 X103.765 Y100.536 E0.05638
G1 X104.124 Y99.081 E0.05638
G1 X104.582 Y97.655 E0.05638
G1 X105.137 Y96.263 E0.05638
G1 X105.787 Y94.913 E0.05638
G1 X106.529 Y93.611 E0.05638
G1 X107.359 Y92.363 E0.05638
G1 X107.958 Y91.586 E0.03694
G1 X108.373 Y91.583 F10800.000
G1 F8640
G1 X108.227 Y91.236 E-0.10192
G1 X109.267 Y90.054 E-0.36340
G1 X110.177 Y89.160 E-0.29467
G1 E-0.04000 F2100.00000
G1 Z0.800 F10800.000
G1 X110.772 Y113.548
G1 Z0.200
G1 E0.80000 F2100.00000
G1 F1187.1
G1 X104.050 Y106.826 E0.35957
G1 X104.012 Y106.452 E0.01421
G1 X104.004 Y106.243 E0.00789
G1 X109.763 Y112.002 E0.30803
G1 X109.598 Y111.660 E0.01434
G1 X109.374 Y111.077 E0.02364
G1 X103.985 Y105.688 E0.28825
G1 X103.966 Y105.133 E0.02102
G1 X109.062 Y110.228 E0.27257
G1 X108.839 Y109.469 E0.02992
G1 X103.975 Y104.606 E0.26016
G1 X103.993 Y104.088 E0.01961
G1 X108.655 Y108.750 E0.24940
G1 X108.515 Y108.074 E0.02612
G1 X104.011 Y103.569 E0.24095
G1 X104.012 Y103.548 E0.00081
G1 X104.060 Y103.082 E0.01771
G1 X108.407 Y107.429 E0.23252
G1 X108.332 Y106.818 E0.02330
G1 X104.110 Y102.597 E0.22580
G1 X104.161 Y102.111 E0.01847
G1 X108.270 Y106.221 E0.21982
G1 X108.247 Y105.662 E0.02116
G1 X104.240 Y101.654 E0.21436
G1 X104.320 Y101.198 E0.01753
G1 X108.225 Y105.103 E0.20889
G1 X108.238 Y104.580 E0.01979
G1 X104.399 Y100.741 E0.20532
G1 X104.501 Y100.307 E0.01687
G1 X108.259 Y104.065 E0.20099
G1 X108.286 Y103.556 E0.01928
G1 X104.607 Y99.877 E0.19677
G1 X104.713 Y99.447 E0.01675
G1 X108.344 Y103.078 E0.19424
G1 X108.403 Y102.601 E0.01819
