; generated by PrusaSlicer 2.0.0+win64 on 2019-11-11 at 14:55:47

; 

; external perimeters extrusion width = 0.45mm
; perimeters extrusion width = 0.45mm
; infill extrusion width = 0.45mm
; solid infill extrusion width = 0.45mm
; top infill extrusion width = 0.40mm
; first layer extrusion width = 0.42mm

M73 P0 R77
M73 Q0 S78
M201 X1000 Y1000 Z1000 E5000 ; sets maximum accelerations, mm/sec^2
M203 X200 Y200 Z12 E120 ; sets maximum feedrates, mm/sec
M204 P1250 R1250 T1250 ; sets acceleration (P, T) and retract acceleration (R), mm/sec^2
M205 X8.00 Y8.00 Z0.40 E1.50 ; sets the jerk limits, mm/sec
M205 S0 T0 ; sets the minimum extruding and travel feed rate, mm/sec
M107
M115 U3.8.1 ; tell printer latest fw version
G90 ; use absolute coordinates
M83 ; extruder relative mode
M104 S215 ; set extruder temp
M140 S60 ; set bed temp
M190 S60 ; wait for bed temp
M109 S215 ; wait for extruder temp
G28 W ; home all without mesh bed level
G80 ; mesh bed leveling
G1 Y-3.0 F1000.0 ; go outside print area
G92 E0.0
G1 X60.0 E9.0 F1000.0 ; intro line
M73 Q0 S78
M73 P0 R77
G1 X100.0 E12.5 F1000.0 ; intro line
G92 E0.0
M221 S95
M900 K30 ; Filament gcode
G21 ; set units to millimeters
G90 ; use absolute coordinates
M83 ; use relative distances for extrusion
;BEFORE_LAYER_CHANGE
G92 E0.0
;0.2


G1 E-0.80000 F2100.00000
G1 Z0.600 F10800.000
;AFTER_LAYER_CHANGE
;0.2
G1 X103.335 Y73.851
G1 Z0.200
G1 E0.80000 F2100.00000
M204 S1000
G1 F1200
G1 X104.290 Y73.341 E0.03394
G1 X122.447 Y67.095 E0.60203
G1 X123.426 Y66.960 E0.03100
G1 X126.504 Y66.959 E0.09649
G1 X127.636 Y67.121 E0.03587
G1 X145.759 Y73.361 E0.60097
G1 X146.651 Y73.842 E0.03177
G1 X147.458 Y74.513 E0.03292
G1 X148.102 Y75.315 E0.03223
G1 X148.618 Y76.352 E0.03631
G1 X148.848 Y77.157 E0.02625
G1 X154.857 Y109.008 E1.01629
G1 X154.944 Y109.848 E0.02649
G1 X154.943 Y112.907 E0.09592
G1 X154.847 Y113.749 E0.02656
G1 X148.804 Y139.031 E0.81504
G1 X148.547 Y139.842 E0.02667
G1 X148.141 Y140.621 E0.02755
G1 X147.270 Y141.662 E0.04256
G1 X146.607 Y142.187 E0.02651
G1 X145.740 Y142.646 E0.03075
G1 X144.803 Y142.934 E0.03075
G1 X143.955 Y143.032 E0.02675
G1 X106.237 Y143.041 E1.18262
G1 X105.065 Y142.901 E0.03703
G1 X104.265 Y142.649 E0.02629
G1 X103.543 Y142.275 E0.02549
G1 X102.682 Y141.621 E0.03391
G1 X101.930 Y140.734 E0.03644
G1 X101.397 Y139.694 E0.03667
G1 X95.165 Y113.800 E0.83505
G1 X95.060 Y112.981 E0.02590
G1 X95.056 Y109.809 E0.09947
G1 X95.137 Y109.039 E0.02427
G1 X101.196 Y76.968 E1.02334
G1 X101.543 Y75.968 E0.03319
G1 X101.933 Y75.261 E0.02531
G1 X102.457 Y74.607 E0.02629
G1 X103.290 Y73.891 E0.03444
G1 F8640
G1 X104.290 Y73.341 E-0.26350
G1 X106.323 Y72.642 E-0.49650
G1 E-0.04000 F2100.00000
G1 Z0.800 F10800.000
G1 X147.759 Y110.208
G1 Z0.200
G1 E0.80000 F2100.00000
G1 F1200
G1 X148.024 Y109.928 E0.01208
G1 X148.354 Y109.693 E0.01269
G1 X148.721 Y109.531 E0.01260
G1 X149.108 Y109.448 E0.01240
G1 X149.498 Y109.445 E0.01221
G1 X149.874 Y109.519 E0.01202
G1 X150.194 Y109.654 E0.01089
G1 X150.509 Y109.826 E0.01124
G1 X150.814 Y110.089 E0.01264
G1 X151.052 Y110.408 E0.01249
G1 X151.216 Y110.771 E0.01247
G1 X151.300 Y111.159 E0.01247
G1 X151.299 Y111.557 E0.01247
G1 X151.213 Y111.946 E0.01247
G1 X151.058 Y112.281 E0.01159
G1 X150.861 Y112.602 E0.01181
G1 X150.644 Y112.839 E0.01007
G1 X150.329 Y113.077 E0.01237
G1 X149.952 Y113.251 E0.01302
G1 X149.559 Y113.340 E0.01265
G1 X149.151 Y113.348 E0.01278
G1 X148.745 Y113.272 E0.01297
G1 X148.357 Y113.112 E0.01316
G1 X148.004 Y112.874 E0.01335
G1 X147.686 Y112.548 E0.01427
G1 X147.497 Y112.191 E0.01264
G1 X147.382 Y111.843 E0.01151
G1 X147.322 Y111.447 E0.01257
G1 X147.385 Y110.983 E0.01468
G1 X147.524 Y110.593 E0.01297
G1 X147.728 Y110.259 E0.01227
G1 X148.050 Y110.456 F10800.000
G1 F1200
G1 X148.273 Y110.214 E0.01034
G1 X148.541 Y110.023 E0.01033
G1 X148.838 Y109.892 E0.01018
G1 X149.150 Y109.825 E0.00999
G1 X149.462 Y109.822 E0.00980
G1 X149.763 Y109.882 E0.00961
G1 X150.030 Y109.994 E0.00908
G1 X150.292 Y110.137 E0.00937
G1 X150.536 Y110.348 E0.01009
G1 X150.725 Y110.601 E0.00993
G1 X150.856 Y110.890 E0.00992
G1 X150.923 Y111.199 E0.00992
G1 X150.922 Y111.515 E0.00992
G1 X150.854 Y111.824 E0.00992
G1 X150.725 Y112.103 E0.00961
G1 X150.558 Y112.374 E0.00998
G1 X150.389 Y112.559 E0.00786
G1 X150.134 Y112.752 E0.01003
G1 X149.830 Y112.892 E0.01050
G1 X149.513 Y112.964 E0.01019
G1 X149.183 Y112.970 E0.01036
G1 X148.852 Y112.908 E0.01054
G1 X148.536 Y112.778 E0.01073
G1 X148.247 Y112.583 E0.01092
G1 X147.994 Y112.323 E0.01137
G1 X147.845 Y112.043 E0.00995
G1 X147.750 Y111.755 E0.00952
G1 X147.703 Y111.443 E0.00987
G1 X147.753 Y111.072 E0.01175
G1 X147.866 Y110.756 E0.01051
G1 X148.018 Y110.508 E0.00915
G1 X147.921 Y110.153 F10800.000
G1 F8640
G1 X148.273 Y110.214 E-0.08981
G1 X148.541 Y110.023 E-0.07609
G1 X148.838 Y109.892 E-0.07494
G1 X149.150 Y109.825 E-0.07356
G1 X149.462 Y109.822 E-0.07217
G1 X149.763 Y109.882 E-0.07079
G1 X150.030 Y109.994 E-0.06690
G1 X150.292 Y110.137 E-0.06901
G1 X150.536 Y110.348 E-0.07433
G1 X150.725 Y110.601 E-0.07311
G1 X150.760 Y110.677 E-0.01929
G1 E-0.04000 F2100.00000
G1 Z0.800 F10800.000
G1 X136.087 Y108.740
G1 Z0.200
G1 E0.80000 F2100.00000
G1 F1200
G1 X113.913 Y108.740 E0.69526
G1 X113.913 Y100.565 E0.25629
G1 X136.087 Y100.565 E0.69526
G1 X136.087 Y108.680 E0.25441
G1 X135.710 Y108.363 F10800.000
G1 F1200
G1 X114.290 Y108.363 E0.67161
G1 X114.290 Y100.943 E0.23265
G1 X135.710 Y100.943 E0.67161
G1 X135.710 Y108.303 E0.23077
G1 X135.870 Y108.729 F10800.000
G1 F8640
G1 X132.419 Y108.312 E-0.76000
G1 E-0.04000 F2100.00000
G1 Z0.800 F10800.000
G1 X102.389 Y111.159
G1 Z0.200
G1 E0.80000 F2100.00000
G1 F1200
G1 X102.388 Y111.557 E0.01247
G1 X102.302 Y111.946 E0.01247
G1 X102.147 Y112.281 E0.01159
G1 X101.950 Y112.602 E0.01181
G1 X101.733 Y112.839 E0.01007
G1 X101.418 Y113.077 E0.01237
G1 X101.041 Y113.251 E0.01302
G1 X100.648 Y113.340 E0.01265
G1 X100.240 Y113.348 E0.01278
G1 X99.834 Y113.272 E0.01297
G1 X99.446 Y113.112 E0.01316
G1 X99.093 Y112.874 E0.01335
G1 X98.775 Y112.548 E0.01427
G1 X98.586 Y112.191 E0.01264
G1 X98.471 Y111.843 E0.01151
G1 X98.411 Y111.447 E0.01257
G1 X98.474 Y110.983 E0.01468
G1 X98.613 Y110.593 E0.01297
G1 X98.848 Y110.208 E0.01415
G1 X99.113 Y109.928 E0.01208
G1 X99.443 Y109.693 E0.01269
G1 X99.810 Y109.531 E0.01260
G1 X100.197 Y109.448 E0.01240
G1 X100.587 Y109.445 E0.01221
G1 X100.963 Y109.519 E0.01202
G1 X101.283 Y109.654 E0.01089
G1 X101.598 Y109.826 E0.01124
G1 X101.903 Y110.089 E0.01264
G1 X102.141 Y110.408 E0.01249
G1 X102.305 Y110.771 E0.01247
G1 X102.376 Y111.101 E0.01059
G1 X102.008 Y111.180 F10800.000
G1 F1200
G1 X102.011 Y111.515 E0.01052
G1 X101.943 Y111.824 E0.00992
G1 X101.814 Y112.103 E0.00961
G1 X101.647 Y112.374 E0.00998
G1 X101.478 Y112.559 E0.00786
G1 X101.223 Y112.752 E0.01003
G1 X100.919 Y112.892 E0.01050
G1 X100.602 Y112.964 E0.01019
G1 X100.272 Y112.970 E0.01036
G1 X99.941 Y112.908 E0.01054
G1 X99.625 Y112.778 E0.01073
G1 X99.336 Y112.583 E0.01092
G1 X99.083 Y112.323 E0.01137
G1 X98.934 Y112.043 E0.00995
G1 X98.839 Y111.755 E0.00952
G1 X98.792 Y111.443 E0.00987
G1 X98.842 Y111.072 E0.01175
G1 X98.955 Y110.756 E0.01051
G1 X99.149 Y110.439 E0.01168
G1 X99.362 Y110.214 E0.00970
G1 X99.630 Y110.023 E0.01033
G1 X99.927 Y109.892 E0.01018
G1 X100.239 Y109.825 E0.00999
G1 X100.551 Y109.822 E0.00980
G1 X100.852 Y109.882 E0.00961
G1 X101.119 Y109.994 E0.00908
G1 X101.381 Y110.137 E0.00937
G1 X101.625 Y110.348 E0.01009
G1 X101.814 Y110.601 E0.00993
G1 X101.945 Y110.890 E0.00992
G1 X101.995 Y111.121 E0.00743
G1 X102.315 Y111.314 F10800.000
G1 F8640
G1 X102.011 Y111.515 E-0.09106
G1 X101.943 Y111.824 E-0.07308
G1 X101.814 Y112.103 E-0.07078
G1 X101.647 Y112.374 E-0.07351
G1 X101.478 Y112.559 E-0.05787
G1 X101.223 Y112.752 E-0.07384
G1 X100.919 Y112.892 E-0.07735
G1 X100.602 Y112.964 E-0.07506
G1 X100.272 Y112.970 E-0.07626
G1 X99.941 Y112.908 E-0.07765
G1 X99.887 Y112.886 E-0.01354
G1 E-0.04000 F2100.00000
G1 Z0.800 F10800.000
G1 X123.231 Y73.643
G1 Z0.200
G1 E0.80000 F2100.00000
G1 F1200
G1 X123.042 Y73.286 E0.01264
G1 X122.927 Y72.938 E0.01151
G1 X122.866 Y72.542 E0.01257
G1 X122.930 Y72.078 E0.01468
G1 X123.068 Y71.688 E0.01297
G1 X123.304 Y71.303 E0.01415
G1 X123.569 Y71.023 E0.01208
G1 X123.898 Y70.788 E0.01269
G1 X124.266 Y70.626 E0.01260
G1 X124.653 Y70.543 E0.01240
G1 X125.042 Y70.540 E0.01221
G1 X125.418 Y70.614 E0.01202
G1 X125.739 Y70.749 E0.01089
G1 X126.053 Y70.920 E0.01124
G1 X126.358 Y71.184 E0.01264
G1 X126.596 Y71.503 E0.01249
G1 X126.761 Y71.865 E0.01247
G1 X126.845 Y72.254 E0.01247
G1 X126.843 Y72.652 E0.01247
G1 X126.757 Y73.041 E0.01247
G1 X126.603 Y73.376 E0.01159
G1 X126.405 Y73.697 E0.01181
G1 X126.188 Y73.934 E0.01007
G1 X125.874 Y74.172 E0.01237
G1 X125.497 Y74.346 E0.01302
G1 X125.103 Y74.435 E0.01265
G1 X124.696 Y74.443 E0.01278
G1 X124.289 Y74.367 E0.01297
G1 X123.901 Y74.207 E0.01316
G1 X123.548 Y73.969 E0.01335
G1 X123.273 Y73.686 E0.01239
G1 X123.543 Y73.423 F10800.000
G1 F1200
G1 X123.390 Y73.138 E0.01014
G1 X123.295 Y72.850 E0.00952
G1 X123.247 Y72.538 E0.00987
G1 X123.298 Y72.167 E0.01175
G1 X123.410 Y71.851 E0.01051
G1 X123.605 Y71.534 E0.01168
G1 X123.818 Y71.309 E0.00970
G1 X124.086 Y71.117 E0.01033
G1 X124.383 Y70.987 E0.01018
G1 X124.694 Y70.920 E0.00999
G1 X125.007 Y70.917 E0.00980
G1 X125.308 Y70.977 E0.00961
G1 X125.575 Y71.089 E0.00908
G1 X125.837 Y71.232 E0.00937
G1 X126.080 Y71.443 E0.01009
G1 X126.270 Y71.696 E0.00993
G1 X126.401 Y71.984 E0.00992
G1 X126.467 Y72.294 E0.00992
G1 X126.466 Y72.610 E0.00992
G1 X126.398 Y72.919 E0.00992
G1 X126.270 Y73.198 E0.00961
G1 X126.103 Y73.469 E0.00998
G1 X125.934 Y73.654 E0.00786
G1 X125.679 Y73.847 E0.01003
G1 X125.375 Y73.987 E0.01050
G1 X125.057 Y74.059 E0.01019
G1 X124.727 Y74.065 E0.01036
G1 X124.397 Y74.003 E0.01054
G1 X124.080 Y73.873 E0.01073
G1 X123.792 Y73.678 E0.01092
G1 X123.585 Y73.466 E0.00929
G1 X123.221 Y73.454 F10800.000
G1 F8640
G1 X123.390 Y73.138 E-0.08804
G1 X123.295 Y72.850 E-0.07007
G1 X123.247 Y72.538 E-0.07271
G1 X123.298 Y72.167 E-0.08651
G1 X123.410 Y71.851 E-0.07739
G1 X123.605 Y71.534 E-0.08604
G1 X123.818 Y71.309 E-0.07146
G1 X124.086 Y71.117 E-0.07608
G1 X124.383 Y70.987 E-0.07494
G1 X124.623 Y70.935 E-0.05675
G1 E-0.04000 F2100.00000
G1 Z0.800 F10800.000
G1 X127.913 Y75.735
G1 Z0.200
G1 E0.80000 F2100.00000
G1 F1200
G1 X143.727 Y75.735 E0.49583
G1 X144.226 Y75.784 E0.01572
G1 X144.678 Y75.921 E0.01481
G1 X145.094 Y76.144 E0.01481
G1 X145.460 Y76.443 E0.01481
G1 X145.759 Y76.809 E0.01481
G1 X145.982 Y77.225 E0.01481
G1 X146.119 Y77.677 E0.01481
G1 X146.168 Y78.176 E0.01572
G1 X146.168 Y108.440 E0.94888
G1 X150.723 Y108.440 E0.14279
G1 X151.069 Y108.479 E0.01094
G1 X151.368 Y108.583 E0.00991
G1 X151.631 Y108.749 E0.00975
G1 X151.858 Y108.975 E0.01007
G1 X152.026 Y109.243 E0.00989
G1 X152.129 Y109.536 E0.00975
G1 X152.168 Y109.886 E0.01103
G1 X152.168 Y112.820 E0.09198
G1 X152.129 Y113.166 E0.01094
G1 X152.025 Y113.465 E0.00991
G1 X151.859 Y113.728 E0.00975
G1 X151.633 Y113.955 E0.01007
G1 X151.366 Y114.123 E0.00988
G1 X151.067 Y114.227 E0.00992
G1 X150.725 Y114.265 E0.01078
G1 X146.168 Y114.265 E0.14288
G1 X146.168 Y137.824 E0.73865
G1 X146.119 Y138.323 E0.01572
G1 X145.982 Y138.775 E0.01481
G1 X145.759 Y139.191 E0.01481
G1 X145.460 Y139.557 E0.01481
G1 X145.094 Y139.856 E0.01481
G1 X144.678 Y140.079 E0.01481
G1 X144.226 Y140.216 E0.01481
G1 X143.727 Y140.265 E0.01572
G1 X106.273 Y140.265 E1.17432
G1 X105.774 Y140.216 E0.01572
G1 X105.322 Y140.079 E0.01481
G1 X104.906 Y139.856 E0.01481
G1 X104.540 Y139.557 E0.01481
G1 X104.241 Y139.191 E0.01481
G1 X104.018 Y138.775 E0.01481
G1 X103.881 Y138.323 E0.01481
G1 X103.832 Y137.824 E0.01572
G1 X103.832 Y114.265 E0.73865
G1 X99.278 Y114.265 E0.14279
G1 X98.931 Y114.226 E0.01094
G1 X98.632 Y114.122 E0.00991
G1 X98.369 Y113.956 E0.00975
G1 X98.142 Y113.730 E0.01007
G1 X97.974 Y113.462 E0.00989
G1 X97.871 Y113.169 E0.00975
G1 X97.832 Y112.819 E0.01103
G1 X97.832 Y109.886 E0.09198
G1 X97.871 Y109.539 E0.01094
G1 X97.975 Y109.240 E0.00991
G1 X98.141 Y108.977 E0.00975
G1 X98.367 Y108.750 E0.01007
G1 X98.634 Y108.582 E0.00988
G1 X98.933 Y108.478 E0.00992
G1 X99.275 Y108.440 E0.01078
G1 X103.832 Y108.440 E0.14288
G1 X103.832 Y78.176 E0.94888
G1 X103.881 Y77.677 E0.01572
G1 X104.018 Y77.225 E0.01481
G1 X104.241 Y76.809 E0.01481
G1 X104.540 Y76.444 E0.01479
G1 X104.911 Y76.141 E0.01503
G1 X105.322 Y75.921 E0.01462
G1 X105.774 Y75.784 E0.01481
G1 X106.273 Y75.735 E0.01572
G1 X122.087 Y75.735 E0.49583
G1 X122.087 Y71.180 E0.14279
G1 X122.126 Y70.834 E0.01095
G1 X122.229 Y70.540 E0.00975
G1 X122.399 Y70.268 E0.01007
G1 X122.622 Y70.045 E0.00989
G1 X122.886 Y69.880 E0.00974
G1 X123.189 Y69.773 E0.01008
G1 X123.533 Y69.735 E0.01085
G1 X126.470 Y69.735 E0.09208
G1 X126.814 Y69.774 E0.01087
G1 X127.107 Y69.876 E0.00975
G1 X127.380 Y70.047 E0.01007
G1 X127.602 Y70.270 E0.00988
G1 X127.770 Y70.538 E0.00991
G1 X127.873 Y70.831 E0.00975
G1 X127.913 Y71.181 E0.01103
G1 X127.913 Y75.675 E0.14090
G1 X128.290 Y75.357 F10800.000
G1 F1200
G1 X143.745 Y75.357 E0.48459
G1 X144.300 Y75.412 E0.01747
G1 X144.823 Y75.571 E0.01714
G1 X145.305 Y75.829 E0.01714
G1 X145.728 Y76.175 E0.01714
G1 X146.074 Y76.598 E0.01714
G1 X146.332 Y77.080 E0.01714
G1 X146.491 Y77.603 E0.01714
G1 X146.546 Y78.158 E0.01747
G1 X146.546 Y108.063 E0.93764
G1 X150.744 Y108.063 E0.13163
G1 X151.154 Y108.109 E0.01294
G1 X151.532 Y108.241 E0.01257
G1 X151.867 Y108.452 E0.01240
G1 X152.155 Y108.739 E0.01274
G1 X152.368 Y109.078 E0.01257
G1 X152.498 Y109.452 E0.01240
G1 X152.546 Y109.864 E0.01303
G1 X152.546 Y112.841 E0.09332
G1 X152.499 Y113.251 E0.01294
G1 X152.367 Y113.629 E0.01257
G1 X152.156 Y113.964 E0.01240
G1 X151.869 Y114.252 E0.01274
G1 X151.530 Y114.465 E0.01256
G1 X151.151 Y114.597 E0.01257
G1 X150.747 Y114.642 E0.01277
G1 X146.546 Y114.643 E0.13172
G1 X146.546 Y137.842 E0.72741
G1 X146.491 Y138.397 E0.01747
G1 X146.332 Y138.920 E0.01714
G1 X146.074 Y139.402 E0.01714
G1 X145.728 Y139.825 E0.01714
G1 X145.305 Y140.171 E0.01714
G1 X144.823 Y140.429 E0.01714
G1 X144.300 Y140.588 E0.01714
G1 X143.745 Y140.643 E0.01747
G1 X106.255 Y140.643 E1.17548
G1 X105.700 Y140.588 E0.01747
G1 X105.177 Y140.429 E0.01714
G1 X104.695 Y140.171 E0.01714
G1 X104.272 Y139.825 E0.01714
G1 X103.926 Y139.402 E0.01714
G1 X103.668 Y138.920 E0.01714
G1 X103.509 Y138.397 E0.01714
G1 X103.455 Y137.842 E0.01747
G1 X103.455 Y114.643 E0.72741
G1 X99.256 Y114.643 E0.13163
G1 X98.846 Y114.596 E0.01294
G1 X98.468 Y114.464 E0.01257
G1 X98.133 Y114.253 E0.01240
G1 X97.845 Y113.966 E0.01274
G1 X97.632 Y113.627 E0.01257
G1 X97.502 Y113.254 E0.01240
G1 X97.454 Y112.841 E0.01303
G1 X97.454 Y109.864 E0.09332
G1 X97.501 Y109.454 E0.01294
G1 X97.633 Y109.076 E0.01257
G1 X97.844 Y108.741 E0.01240
G1 X98.131 Y108.453 E0.01274
G1 X98.470 Y108.240 E0.01256
G1 X98.849 Y108.108 E0.01257
G1 X99.253 Y108.063 E0.01277
G1 X103.455 Y108.063 E0.13172
G1 X103.455 Y78.158 E0.93764
G1 X103.509 Y77.603 E0.01747
G1 X103.668 Y77.080 E0.01714
G1 X103.926 Y76.598 E0.01714
G1 X104.272 Y76.176 E0.01713
G1 X104.701 Y75.825 E0.01736
G1 X105.177 Y75.571 E0.01693
G1 X105.700 Y75.412 E0.01714
G1 X106.255 Y75.357 E0.01747
G1 X121.710 Y75.357 E0.48459
G1 X121.710 Y71.159 E0.13163
G1 X121.756 Y70.749 E0.01294
G1 X121.887 Y70.376 E0.01240
G1 X122.102 Y70.031 E0.01274
G1 X122.386 Y69.748 E0.01256
G1 X122.721 Y69.538 E0.01240
G1 X123.104 Y69.403 E0.01275
G1 X123.512 Y69.357 E0.01285
G1 X126.491 Y69.358 E0.09341
G1 X126.898 Y69.404 E0.01286
G1 X127.272 Y69.534 E0.01240
G1 X127.616 Y69.750 E0.01274
G1 X127.899 Y70.033 E0.01256
G1 X128.112 Y70.373 E0.01257
G1 X128.243 Y70.746 E0.01240
G1 X128.290 Y71.159 E0.01303
G1 X128.290 Y75.297 E0.12975
G1 X128.291 Y75.757 F10800.000
G1 F8640
G1 X131.581 Y75.310 E-0.76000
G1 E-0.04000 F2100.00000
G1 Z0.800 F10800.000
G1 X127.034 Y71.791
G1 Z0.200
G1 E0.80000 F2100.00000
G1 F1200
G1 X127.630 Y72.387 E0.02651
G1 X127.630 Y72.922 E0.01682
G1 X127.127 Y72.418 E0.02238
G1 X127.126 Y72.683 E0.00833
G1 X127.077 Y72.904 E0.00710
G1 X127.630 Y73.457 E0.02459
G1 X127.630 Y73.992 E0.01682
