; generated by PrusaSlicer 2.0.0+win64 on 2019-06-12 at 15:06:57

; 

; external perimeters extrusion width = 0.45mm
; perimeters extrusion width = 0.45mm
; infill extrusion width = 0.45mm
; solid infill extrusion width = 0.45mm
; top infill extrusion width = 0.40mm
; first layer extrusion width = 0.42mm

M73 P0 R34
M73 Q0 S34
M201 X1000 Y1000 Z1000 E5000 ; sets maximum accelerations, mm/sec^2
M203 X200 Y200 Z12 E120 ; sets maximum feedrates, mm/sec
M204 P1250 R1250 T1250 ; sets acceleration (P, T) and retract acceleration (R), mm/sec^2
M205 X8.00 Y8.00 Z0.40 E1.50 ; sets the jerk limits, mm/sec
M205 S0 T0 ; sets the minimum extruding and travel feed rate, mm/sec
M107
M115 U3.7.1 ; tell printer latest fw version
G90 ; use absolute coordinates
M83 ; extruder relative mode
M104 S205 ; set extruder temp
M140 S50 ; set bed temp
M190 S50 ; wait for bed temp
M109 S205 ; wait for extruder temp
G28 W ; home all without mesh bed level
G80 ; mesh bed leveling
G1 Y-3.0 F1000.0 ; go outside print area
G92 E0.0
G1 X60.0 E9.0 F1000.0 ; intro line
M73 Q0 S34
M73 P0 R34
G1 X100.0 E12.5 F1000.0 ; intro line
G92 E0.0
M221 S95
M900 K10; Filament gcode
G21 ; set units to millimeters
G90 ; use absolute coordinates
M83 ; use relative distances for extrusion
;BEFORE_LAYER_CHANGE
G92 E0.0
;0.2


G1 E-0.80000 F2100.00000
G1 Z0.600 F10800.000
;AFTER_LAYER_CHANGE
;0.2
G1 X111.120 Y93.718
G1 Z0.200
G1 E0.80000 F2100.00000
M204 S1000
G1 F1193.38
G1 X111.836 Y93.589 E0.02738
G1 X151.851 Y93.589 E1.50557
G1 X152.667 Y93.749 E0.03130
G1 X153.365 Y94.201 E0.03130
G1 X153.842 Y94.878 E0.03116
G1 X154.034 Y95.688 E0.03130
G1 X154.035 Y125.835 E1.13428
G1 X153.971 Y126.305 E0.01784
G1 X153.808 Y126.750 E0.01784
G1 X153.552 Y127.149 E0.01784
G1 X153.220 Y127.482 E0.01770
G1 X152.585 Y127.838 E0.02738
G1 X151.873 Y127.966 E0.02724
G1 X111.843 Y127.966 E1.50612
G1 X111.365 Y127.909 E0.01812
G1 X110.908 Y127.747 E0.01825
G1 X110.500 Y127.491 E0.01812
G1 X110.156 Y127.149 E0.01825
G1 X109.803 Y126.521 E0.02710
G1 X109.673 Y125.813 E0.02710
G1 X109.673 Y95.757 E1.13085
G1 X109.730 Y95.279 E0.01812
G1 X109.893 Y94.822 E0.01825
G1 X110.149 Y94.414 E0.01812
G1 X110.489 Y94.073 E0.01812
G1 X111.068 Y93.748 E0.02498
G1 F8640
G1 X111.836 Y93.589 E-0.18115
G1 X114.343 Y93.589 E-0.57885
G1 E-0.04000 F2100.00000
G1 Z0.800 F10800.000
G1 X119.935 Y116.900
G1 Z0.200
G1 E0.80000 F2100.00000
G1 F1193.38
G1 X120.342 Y116.752 E0.01629
G1 X120.748 Y116.690 E0.01546
G1 X121.171 Y116.712 E0.01591
G1 X121.580 Y116.818 E0.01591
G1 X121.960 Y117.004 E0.01591
G1 X122.294 Y117.263 E0.01591
G1 X122.570 Y117.584 E0.01591
G1 X122.775 Y117.953 E0.01591
G1 X122.902 Y118.357 E0.01591
G1 X122.944 Y118.778 E0.01591
G1 X122.902 Y119.198 E0.01591
G1 X122.775 Y119.602 E0.01591
G1 X122.570 Y119.972 E0.01591
G1 X122.294 Y120.292 E0.01591
G1 X121.960 Y120.551 E0.01591
G1 X121.580 Y120.738 E0.01591
G1 X121.171 Y120.844 E0.01591
G1 X120.748 Y120.865 E0.01591
G1 X120.330 Y120.801 E0.01591
G1 X119.934 Y120.654 E0.01591
G1 X119.575 Y120.430 E0.01591
G1 X119.268 Y120.139 E0.01591
G1 X119.027 Y119.792 E0.01591
G1 X118.860 Y119.403 E0.01591
G1 X118.775 Y118.989 E0.01591
G1 X118.775 Y118.566 E0.01591
G1 X118.860 Y118.152 E0.01591
G1 X119.027 Y117.763 E0.01591
G1 X119.268 Y117.416 E0.01591
G1 X119.575 Y117.125 E0.01591
G1 X119.884 Y116.932 E0.01373
G1 X120.084 Y117.252 F10800.000
G1 F1193.38
G1 X120.436 Y117.119 E0.01415
G1 X120.768 Y117.069 E0.01262
G1 X121.113 Y117.086 E0.01303
G1 X121.448 Y117.173 E0.01303
G1 X121.759 Y117.325 E0.01303
G1 X122.033 Y117.537 E0.01303
G1 X122.259 Y117.800 E0.01303
G1 X122.427 Y118.103 E0.01303
G1 X122.530 Y118.433 E0.01303
G1 X122.565 Y118.778 E0.01303
G1 X122.530 Y119.122 E0.01303
G1 X122.427 Y119.452 E0.01303
G1 X122.259 Y119.755 E0.01303
G1 X122.033 Y120.018 E0.01303
G1 X121.759 Y120.230 E0.01303
G1 X121.448 Y120.382 E0.01303
G1 X121.113 Y120.469 E0.01303
G1 X120.768 Y120.486 E0.01303
G1 X120.425 Y120.434 E0.01303
G1 X120.101 Y120.314 E0.01303
G1 X119.807 Y120.131 E0.01303
G1 X119.556 Y119.892 E0.01303
G1 X119.358 Y119.608 E0.01303
G1 X119.222 Y119.290 E0.01303
G1 X119.152 Y118.951 E0.01303
G1 X119.152 Y118.604 E0.01303
G1 X119.222 Y118.265 E0.01303
G1 X119.358 Y117.947 E0.01303
G1 X119.556 Y117.663 E0.01303
G1 X119.807 Y117.424 E0.01303
G1 X120.033 Y117.284 E0.01003
G1 X120.108 Y116.876 F10800.000
G1 F8640
G1 X120.436 Y117.119 E-0.10047
G1 X120.768 Y117.069 E-0.07745
G1 X121.113 Y117.086 E-0.07994
G1 X121.448 Y117.173 E-0.07994
G1 X121.759 Y117.325 E-0.07994
G1 X122.033 Y117.537 E-0.07994
G1 X122.259 Y117.800 E-0.07994
G1 X122.427 Y118.103 E-0.07994
G1 X122.530 Y118.433 E-0.07994
G1 X122.540 Y118.530 E-0.02249
G1 E-0.04000 F2100.00000
G1 Z0.800 F10800.000
G1 X120.748 Y104.865
G1 Z0.200
G1 E0.80000 F2100.00000
G1 F1193.38
G1 X120.330 Y104.801 E0.01591
G1 X119.934 Y104.654 E0.01591
G1 X119.575 Y104.430 E0.01591
G1 X119.268 Y104.139 E0.01591
G1 X119.027 Y103.792 E0.01591
G1 X118.860 Y103.403 E0.01591
G1 X118.775 Y102.989 E0.01591
G1 X118.775 Y102.566 E0.01591
G1 X118.860 Y102.152 E0.01591
G1 X119.027 Y101.763 E0.01591
G1 X119.268 Y101.416 E0.01591
G1 X119.575 Y101.125 E0.01591
G1 X119.935 Y100.900 E0.01598
G1 X120.342 Y100.752 E0.01629
G1 X120.748 Y100.690 E0.01546
G1 X121.171 Y100.712 E0.01591
G1 X121.580 Y100.818 E0.01591
G1 X121.960 Y101.004 E0.01591
G1 X122.294 Y101.263 E0.01591
G1 X122.570 Y101.584 E0.01591
G1 X122.775 Y101.953 E0.01591
G1 X122.902 Y102.357 E0.01591
G1 X122.944 Y102.778 E0.01591
G1 X122.902 Y103.198 E0.01591
G1 X122.775 Y103.602 E0.01591
G1 X122.570 Y103.972 E0.01591
G1 X122.294 Y104.292 E0.01591
G1 X121.960 Y104.551 E0.01591
G1 X121.580 Y104.738 E0.01591
G1 X121.171 Y104.844 E0.01591
G1 X120.808 Y104.862 E0.01365
G1 X120.789 Y104.485 F10800.000
G1 F1193.38
G1 X120.425 Y104.434 E0.01383
G1 X120.101 Y104.314 E0.01303
G1 X119.807 Y104.131 E0.01303
G1 X119.556 Y103.892 E0.01303
G1 X119.358 Y103.608 E0.01303
G1 X119.222 Y103.290 E0.01303
G1 X119.152 Y102.951 E0.01303
G1 X119.152 Y102.604 E0.01303
G1 X119.222 Y102.265 E0.01303
G1 X119.358 Y101.947 E0.01303
G1 X119.556 Y101.663 E0.01303
G1 X119.807 Y101.424 E0.01303
G1 X120.101 Y101.241 E0.01305
G1 X120.436 Y101.119 E0.01340
G1 X120.768 Y101.069 E0.01262
G1 X121.113 Y101.086 E0.01303
G1 X121.448 Y101.173 E0.01303
G1 X121.759 Y101.325 E0.01303
G1 X122.033 Y101.537 E0.01303
G1 X122.259 Y101.800 E0.01303
G1 X122.427 Y102.103 E0.01303
G1 X122.530 Y102.433 E0.01303
G1 X122.565 Y102.778 E0.01303
G1 X122.530 Y103.122 E0.01303
G1 X122.427 Y103.452 E0.01303
G1 X122.259 Y103.755 E0.01303
G1 X122.033 Y104.018 E0.01303
G1 X121.759 Y104.230 E0.01303
G1 X121.448 Y104.382 E0.01303
G1 X121.113 Y104.469 E0.01303
G1 X120.849 Y104.482 E0.00995
G1 X120.592 Y104.796 F10800.000
G1 F8640
G1 X120.425 Y104.434 E-0.09848
G1 X120.101 Y104.314 E-0.07994
G1 X119.807 Y104.131 E-0.07994
G1 X119.556 Y103.892 E-0.07994
G1 X119.358 Y103.608 E-0.07994
G1 X119.222 Y103.290 E-0.07994
G1 X119.152 Y102.951 E-0.07994
G1 X119.152 Y102.604 E-0.07994
G1 X119.222 Y102.265 E-0.07994
G1 X119.259 Y102.178 E-0.02198
G1 E-0.04000 F2100.00000
G1 Z0.800 F10800.000
G1 X128.410 Y96.365
G1 Z0.200
G1 E0.80000 F2100.00000
G1 F1193.38
G1 X128.410 Y125.191 E1.08458
G1 X112.448 Y125.191 E0.60056
G1 X112.448 Y96.365 E1.08458
G1 X128.350 Y96.365 E0.59830
G1 X128.787 Y95.988 F10800.000
G1 F1193.38
G1 X128.787 Y125.568 E1.11295
G1 X112.071 Y125.568 E0.62894
G1 X112.071 Y95.988 E1.11295
G1 X128.727 Y95.988 E0.62668
G1 X128.719 Y96.382 F10800.000
G1 F8640
G1 X128.734 Y99.279 E-0.76000
G1 E-0.04000 F2100.00000
G1 Z0.800 F10800.000
G1 X128.297 Y97.243
G1 Z0.200
G1 E0.80000 F2100.00000
G1 F1189.38
G1 X127.702 Y96.647 E0.03178
G1 X127.167 Y96.647 E0.02020
G1 X128.127 Y97.608 E0.05129
G1 X128.127 Y98.143 E0.02020
G1 X126.632 Y96.647 E0.07986
G1 X126.097 Y96.647 E0.02020
G1 X128.127 Y98.678 E0.10842
G1 X128.127 Y99.213 E0.02020
G1 X125.561 Y96.647 E0.13699
G1 X125.026 Y96.647 E0.02020
G1 X128.127 Y99.748 E0.16556
G1 X128.127 Y100.283 E0.02020
G1 X124.491 Y96.647 E0.19412
G1 X123.956 Y96.647 E0.02020
G1 X128.127 Y100.819 E0.22269
G1 X128.127 Y101.354 E0.02020
G1 X123.421 Y96.647 E0.25126
G1 X122.886 Y96.647 E0.02020
G1 X128.127 Y101.889 E0.27982
G1 X128.127 Y102.424 E0.02020
G1 X122.351 Y96.647 E0.30839
G1 X121.816 Y96.647 E0.02020
G1 X128.127 Y102.959 E0.33696
G1 X128.127 Y103.494 E0.02020
G1 X121.281 Y96.647 E0.36552
G1 X120.746 Y96.647 E0.02020
G1 X128.127 Y104.029 E0.39409
G1 X128.127 Y104.564 E0.02020
G1 X120.211 Y96.647 E0.42266
G1 X119.676 Y96.647 E0.02020
G1 X128.127 Y105.099 E0.45122
G1 X128.127 Y105.634 E0.02020
G1 X119.141 Y96.647 E0.47979
G1 X118.606 Y96.647 E0.02020
G1 X128.127 Y106.169 E0.50836
G1 X128.127 Y106.704 E0.02020
G1 X118.071 Y96.647 E0.53692
G1 X117.536 Y96.647 E0.02020
G1 X121.355 Y100.467 E0.20394
G1 X121.214 Y100.431 E0.00552
G1 X120.761 Y100.408 E0.01713
G1 X117.000 Y96.647 E0.20075
G1 X116.465 Y96.647 E0.02020
G1 X120.292 Y100.474 E0.20430
G1 X119.896 Y100.613 E0.01584
G1 X115.930 Y96.647 E0.21174
G1 X115.395 Y96.647 E0.02020
G1 X119.553 Y100.805 E0.22198
G1 X119.401 Y100.900 E0.00677
G1 X119.253 Y101.040 E0.00769
G1 X114.860 Y96.647 E0.23454
G1 X114.325 Y96.647 E0.02020
G1 X118.994 Y101.316 E0.24924
G1 X118.775 Y101.633 E0.01452
G1 X113.790 Y96.647 E0.26615
G1 X113.255 Y96.647 E0.02020
G1 X118.614 Y102.007 E0.28614
G1 X118.512 Y102.440 E0.01679
G1 X112.731 Y96.659 E0.30864
G1 X112.731 Y97.194 E0.02020
G1 X118.492 Y102.955 E0.30756
G1 X118.589 Y103.488 E0.02048
G1 X118.662 Y103.660 E0.00706
G1 X112.731 Y97.729 E0.31666
G1 X112.731 Y98.264 E0.02020
G1 X128.127 Y113.660 E0.82199
G1 X128.127 Y113.125 E0.02020
G1 X119.972 Y104.970 E0.43540
G1 X120.259 Y105.076 E0.01155
G1 X120.678 Y105.140 E0.01599
G1 X128.127 Y112.590 E0.39773
G1 X128.127 Y112.055 E0.02020
G1 X121.198 Y105.125 E0.36996
G1 X121.625 Y105.018 E0.01665
G1 X128.127 Y111.520 E0.34713
G1 X128.127 Y110.985 E0.02020
G1 X121.993 Y104.850 E0.32752
G1 X122.110 Y104.793 E0.00494
G1 X122.313 Y104.635 E0.00969
G1 X128.127 Y110.450 E0.31042
G1 X128.127 Y109.915 E0.02020
G1 X122.592 Y104.379 E0.29552
G1 X122.831 Y104.083 E0.01436
G1 X128.127 Y109.380 E0.28276
G1 X128.127 Y108.844 E0.02020
G1 X123.022 Y103.739 E0.27257
G1 X123.155 Y103.337 E0.01600
G1 X128.127 Y108.309 E0.26549
G1 X128.127 Y107.774 E0.02020
G1 X123.220 Y102.867 E0.26202
G1 X123.229 Y102.778 E0.00338
G1 X123.176 Y102.288 E0.01857
G1 X128.297 Y107.409 E0.27338
G1 F8640
G1 X125.970 Y105.082 E-0.76000
G1 E-0.04000 F2100.00000
G1 Z0.800 F10800.000
G1 X128.297 Y114.365
G1 Z0.200
G1 E0.80000 F2100.00000
G1 F1189.38
G1 X112.731 Y98.799 E0.83104
G1 X112.731 Y99.334 E0.02020
G1 X128.127 Y114.730 E0.82199
G1 X128.127 Y115.265 E0.02020
G1 X112.731 Y99.869 E0.82199
G1 X112.731 Y100.404 E0.02020
G1 X128.127 Y115.800 E0.82199
G1 X128.127 Y116.335 E0.02020
G1 X112.731 Y100.939 E0.82199
G1 X112.731 Y101.474 E0.02020
G1 X128.127 Y116.870 E0.82199
G1 X128.127 Y117.406 E0.02020
G1 X112.731 Y102.009 E0.82199
G1 X112.731 Y102.545 E0.02020
G1 X128.127 Y117.941 E0.82199
G1 X128.127 Y118.476 E0.02020
G1 X112.731 Y103.080 E0.82199
G1 X112.731 Y103.615 E0.02020
G1 X128.127 Y119.011 E0.82199
G1 X128.127 Y119.546 E0.02020
G1 X112.731 Y104.150 E0.82199
G1 X112.731 Y104.685 E0.02020
G1 X128.127 Y120.081 E0.82199
G1 X128.127 Y120.616 E0.02020
G1 X112.731 Y105.220 E0.82199
G1 X112.731 Y105.755 E0.02020
G1 X128.127 Y121.151 E0.82199
M73 Q3 S33
M73 P3 R33
G1 X128.127 Y121.686 E0.02020
G1 X112.731 Y106.290 E0.82199
G1 X112.731 Y106.825 E0.02020
G1 X128.127 Y122.221 E0.82199
G1 X128.127 Y122.756 E0.02020
G1 X112.731 Y107.360 E0.82199
G1 X112.731 Y107.895 E0.02020
G1 X121.285 Y116.449 E0.45669
G1 X121.214 Y116.431 E0.00278
G1 X120.711 Y116.410 E0.01900
G1 X112.731 Y108.430 E0.42602
G1 X112.731 Y108.965 E0.02020
G1 X120.251 Y116.485 E0.40146
G1 X119.858 Y116.627 E0.01577
G1 X112.731 Y109.500 E0.38050
G1 X112.731 Y110.035 E0.02020
G1 X119.521 Y116.825 E0.36250
G1 X119.401 Y116.900 E0.00534
G1 X119.226 Y117.066 E0.00908
G1 X112.731 Y110.570 E0.34678
G1 X112.731 Y111.106 E0.02020
G1 X118.972 Y117.347 E0.33320
G1 X118.760 Y117.669 E0.01458
G1 X112.731 Y111.641 E0.32184
G1 X112.731 Y112.176 E0.02020
G1 X118.599 Y118.043 E0.31327
G1 X118.503 Y118.483 E0.01698
G1 X112.731 Y112.711 E0.30816
G1 X112.731 Y113.246 E0.02020
G1 X118.707 Y119.222 E0.31905
G1 F8640
G1 X116.380 Y116.894 E-0.76000
G1 E-0.04000 F2100.00000
G1 Z0.800 F10800.000
G1 X120.414 Y120.928
G1 Z0.200
G1 E0.80000 F2100.00000
G1 F1189.38
G1 X124.393 Y124.908 E0.21247
G1 X124.928 Y124.908 E0.02020
G1 X121.148 Y121.128 E0.20180
G1 X121.584 Y121.029 E0.01687
G1 X125.463 Y124.908 E0.20710
G1 X125.998 Y124.908 E0.02020
G1 X121.958 Y120.867 E0.21572
G1 X122.110 Y120.793 E0.00640
G1 X122.284 Y120.658 E0.00829
G1 X126.533 Y124.908 E0.22688
G1 X127.068 Y124.908 E0.02020
G1 X122.568 Y120.407 E0.24026
G1 X122.813 Y120.117 E0.01434
G1 X127.604 Y124.908 E0.25579
G1 X128.127 Y124.908 E0.01978
G1 X123.004 Y119.773 E0.27386
G1 X123.142 Y119.376 E0.01586
G1 X128.127 Y124.361 E0.26616
G1 X128.127 Y123.826 E0.02020
G1 X123.215 Y118.914 E0.26228
G1 X123.229 Y118.778 E0.00517
G1 X123.185 Y118.349 E0.01627
G1 X128.297 Y123.461 E0.27293
G1 F8640
G1 X125.970 Y121.134 E-0.76000
G1 E-0.04000 F2100.00000
G1 Z0.800 F10800.000
G1 X124.028 Y125.077
G1 Z0.200
G1 E0.80000 F2100.00000
G1 F1189.38
G1 X112.731 Y113.781 E0.60311
G1 X112.731 Y114.316 E0.02020
G1 X123.323 Y124.908 E0.56548
G1 X122.788 Y124.908 E0.02020
G1 X112.731 Y114.851 E0.53692
G1 X112.731 Y115.386 E0.02020
G1 X122.253 Y124.908 E0.50835
G1 X121.718 Y124.908 E0.02020
G1 X112.731 Y115.921 E0.47978
G1 X112.731 Y116.456 E0.02020
G1 X121.183 Y124.908 E0.45122
G1 X120.648 Y124.908 E0.02020
G1 X112.731 Y116.991 E0.42265
G1 X112.731 Y117.526 E0.02020
G1 X120.113 Y124.908 E0.39408
G1 X119.578 Y124.908 E0.02020
G1 X112.731 Y118.061 E0.36552
G1 X112.731 Y118.596 E0.02020
G1 X119.042 Y124.908 E0.33695
G1 X118.507 Y124.908 E0.02020
G1 X112.731 Y119.132 E0.30838
G1 X112.731 Y119.667 E0.02020
G1 X117.972 Y124.908 E0.27982
G1 X117.437 Y124.908 E0.02020
G1 X112.731 Y120.202 E0.25125
G1 X112.731 Y120.737 E0.02020
G1 X116.902 Y124.908 E0.22268
G1 X116.367 Y124.908 E0.02020
G1 X112.731 Y121.272 E0.19412
G1 X112.731 Y121.807 E0.02020
G1 X115.832 Y124.908 E0.16555
G1 X115.297 Y124.908 E0.02020
G1 X112.731 Y122.342 E0.13698
G1 X112.731 Y122.877 E0.02020
G1 X114.762 Y124.908 E0.10842
G1 X114.227 Y124.908 E0.02020
G1 X112.731 Y123.412 E0.07985
G1 X112.731 Y123.947 E0.02020
G1 X113.692 Y124.908 E0.05128
G1 X113.157 Y124.908 E0.02020
G1 X112.562 Y124.313 E0.03178
G1 F8640
G1 X113.157 Y124.908 E-0.19435
G1 X113.692 Y124.908 E-0.12355
G1 X112.731 Y123.947 E-0.31367
G1 X112.731 Y123.412 E-0.12355
G1 X112.746 Y123.427 E-0.00489
G1 E-0.04000 F2100.00000
G1 Z0.800 F10800.000
G1 X140.775 Y118.989
G1 Z0.200
G1 E0.80000 F2100.00000
G1 F1193.38
G1 X140.775 Y118.566 E0.01591
G1 X140.860 Y118.152 E0.01591
G1 X141.027 Y117.763 E0.01591
G1 X141.268 Y117.416 E0.01591
G1 X141.575 Y117.125 E0.01591
G1 X141.934 Y116.901 E0.01591
G1 X142.330 Y116.754 E0.01591
G1 X142.736 Y116.692 E0.01546
G1 X143.169 Y116.711 E0.01629
G1 X143.580 Y116.818 E0.01598
G1 X143.960 Y117.004 E0.01591
G1 X144.294 Y117.263 E0.01591
G1 X144.570 Y117.584 E0.01591
G1 X144.775 Y117.953 E0.01591
G1 X144.902 Y118.357 E0.01591
G1 X144.944 Y118.778 E0.01591
G1 X144.902 Y119.198 E0.01591
G1 X144.775 Y119.602 E0.01591
G1 X144.570 Y119.972 E0.01591
G1 X144.294 Y120.292 E0.01591
G1 X143.960 Y120.551 E0.01591
G1 X143.580 Y120.738 E0.01591
G1 X143.171 Y120.844 E0.01591
G1 X142.748 Y120.865 E0.01591
G1 X142.330 Y120.801 E0.01591
G1 X141.934 Y120.654 E0.01591
G1 X141.575 Y120.430 E0.01591
G1 X141.268 Y120.139 E0.01591
G1 X141.027 Y119.792 E0.01591
G1 X140.860 Y119.403 E0.01591
G1 X140.787 Y119.048 E0.01365
G1 X141.156 Y118.972 F10800.000
G1 F1193.38
G1 X141.152 Y118.604 E0.01383
G1 X141.222 Y118.265 E0.01303
G1 X141.358 Y117.947 E0.01303
G1 X141.556 Y117.663 E0.01303
G1 X141.807 Y117.424 E0.01303
G1 X142.101 Y117.241 E0.01303
G1 X142.425 Y117.121 E0.01303
G1 X142.757 Y117.070 E0.01262
G1 X143.113 Y117.086 E0.01340
G1 X143.448 Y117.173 E0.01305
