; generated by PrusaSlicer 2.0.0+win64 on 2019-06-13 at 13:00:31

; 

; external perimeters extrusion width = 0.45mm
; perimeters extrusion width = 0.45mm
; infill extrusion width = 0.45mm
; solid infill extrusion width = 0.45mm
; top infill extrusion width = 0.40mm
; first layer extrusion width = 0.42mm

M73 P0 R43
M73 Q0 S43
M201 X1000 Y1000 Z1000 E5000 ; sets maximum accelerations, mm/sec^2
M203 X200 Y200 Z12 E120 ; sets maximum feedrates, mm/sec
M204 P1250 R1250 T1250 ; sets acceleration (P, T) and retract acceleration (R), mm/sec^2
M205 X8.00 Y8.00 Z0.40 E1.50 ; sets the jerk limits, mm/sec
M205 S0 T0 ; sets the minimum extruding and travel feed rate, mm/sec
M107
M115 U3.7.1 ; tell printer latest fw version
G90 ; use absolute coordinates
M83 ; extruder relative mode
M104 S200 ; set extruder temp
M140 S50 ; set bed temp
M190 S50 ; wait for bed temp
M109 S200 ; wait for extruder temp
G28 W ; home all without mesh bed level
G80 ; mesh bed leveling
G1 Y-3.0 F1000.0 ; go outside print area
G92 E0.0
G1 X60.0 E9.0 F1000.0 ; intro line
M73 Q0 S43
M73 P0 R43
G1 X100.0 E12.5 F1000.0 ; intro line
G92 E0.0
M221 S95
M900 K10; Filament gcode
G21 ; set units to millimeters
G90 ; use absolute coordinates
M83 ; use relative distances for extrusion
;BEFORE_LAYER_CHANGE
G92 E0.0
;0.2


G1 E-0.80000 F2100.00000
G1 Z0.600 F10800.000
;AFTER_LAYER_CHANGE
;0.2
G1 X118.265 Y91.994
G1 Z0.200
G1 E0.80000 F2100.00000
M204 S1000
G1 F1193.38
G1 X118.828 Y91.471 E0.02892
G1 X119.517 Y91.139 E0.02878
G1 X120.278 Y91.024 E0.02892
G1 X121.022 Y91.136 E0.02834
G1 X121.911 Y91.523 E0.03646
G1 X122.901 Y92.213 E0.04541
G1 X123.562 Y92.894 E0.03573
G1 X138.016 Y113.534 E0.94806
G1 X138.388 Y114.264 E0.03083
G1 X138.635 Y114.993 E0.02896
G1 X138.778 Y115.746 E0.02881
G1 X138.810 Y116.604 E0.03231
G1 X138.694 Y117.189 E0.02243
G1 X138.446 Y117.731 E0.02243
G1 X138.080 Y118.201 E0.02243
G1 X137.618 Y118.572 E0.02228
G1 X136.982 Y118.860 E0.02627
G1 X136.291 Y118.965 E0.02627
G1 X117.246 Y118.976 E0.71658
G1 X116.605 Y118.906 E0.02426
G1 X115.709 Y118.559 E0.03615
G1 X114.966 Y117.950 E0.03615
G1 X111.622 Y113.195 E0.21872
G1 X111.371 Y112.676 E0.02169
G1 X111.206 Y112.010 E0.02581
G1 X111.192 Y111.347 E0.02493
G1 X111.321 Y110.699 E0.02487
G1 X117.884 Y92.657 E0.72236
G1 X118.235 Y92.046 E0.02652
G1 X118.554 Y92.237 F10800.000
G1 F1193.38
G1 X119.034 Y91.786 E0.02480
G1 X119.627 Y91.499 E0.02480
G1 X120.279 Y91.402 E0.02480
G1 X120.930 Y91.502 E0.02480
G1 X121.741 Y91.860 E0.03335
G1 X122.667 Y92.509 E0.04252
G1 X123.280 Y93.145 E0.03325
G1 X137.688 Y113.720 E0.94508
G1 X138.038 Y114.406 E0.02896
G1 X138.265 Y115.070 E0.02642
G1 X138.401 Y115.763 E0.02656
G1 X138.437 Y116.523 E0.02864
G1 X138.348 Y117.030 E0.01934
G1 X138.142 Y117.505 E0.01948
G1 X137.832 Y117.915 E0.01934
G1 X137.432 Y118.243 E0.01948
G1 X136.882 Y118.496 E0.02275
G1 X136.285 Y118.588 E0.02275
G1 X117.246 Y118.598 E0.71631
G1 X116.690 Y118.538 E0.02107
G1 X115.900 Y118.233 E0.03185
G1 X115.241 Y117.692 E0.03212
G1 X112.019 Y113.116 E0.21055
G1 X111.756 Y112.628 E0.02084
G1 X111.588 Y112.019 E0.02381
G1 X111.566 Y111.400 E0.02327
G1 X111.682 Y110.806 E0.02279
G1 X118.229 Y92.811 E0.72049
G1 X118.524 Y92.289 E0.02254
G1 F8640
G1 X119.034 Y91.786 E-0.16544
G1 X119.627 Y91.499 E-0.15217
G1 X120.279 Y91.402 E-0.15217
G1 X120.930 Y91.502 E-0.15217
G1 X121.477 Y91.744 E-0.13805
G1 E-0.04000 F2100.00000
G1 Z0.800 F10800.000
G1 X117.093 Y113.881
G1 Z0.200
G1 E0.80000 F2100.00000
G1 F1193.38
G1 X117.344 Y113.964 E0.00995
G1 X117.650 Y113.997 E0.01155
G1 X133.233 Y113.997 E0.58634
G1 X133.569 Y114.019 E0.01267
G1 X133.879 Y114.081 E0.01188
G1 X134.173 Y114.181 E0.01168
G1 X134.460 Y114.323 E0.01206
G1 X134.722 Y114.498 E0.01186
G1 X134.960 Y114.706 E0.01188
G1 X135.164 Y114.940 E0.01169
G1 X135.340 Y115.202 E0.01187
G1 X135.482 Y115.490 E0.01206
G1 X135.589 Y115.823 E0.01317
G1 X117.340 Y115.823 E0.68665
G1 X117.340 Y114.695 E0.04242
G1 X117.310 Y114.404 E0.01102
G1 X117.213 Y114.095 E0.01219
G1 X117.122 Y113.934 E0.00696
G1 F8640
G1 X117.344 Y113.964 E-0.05171
G1 X117.650 Y113.997 E-0.07090
G1 X120.410 Y113.997 E-0.63739
G1 E-0.04000 F2100.00000
G1 Z0.800 F10800.000
G1 X116.097 Y112.459
G1 Z0.200
G1 E0.80000 F2100.00000
G1 F1193.38
G1 X115.937 Y112.274 E0.00921
G1 X115.680 Y112.076 E0.01219
G1 X115.417 Y111.949 E0.01102
G1 X114.357 Y111.563 E0.04242
G1 X120.600 Y94.415 E0.68664
G1 X120.875 Y94.629 E0.01313
G1 X121.097 Y94.861 E0.01206
G1 X121.283 Y95.115 E0.01187
G1 X121.433 Y95.388 E0.01169
G1 X121.547 Y95.682 E0.01188
G1 X121.622 Y95.988 E0.01186
G1 X121.657 Y96.307 E0.01206
G1 X121.651 Y96.617 E0.01168
G1 X121.603 Y96.929 E0.01188
G1 X121.509 Y97.253 E0.01267
G1 X116.179 Y111.896 E0.58634
G1 X116.105 Y112.194 E0.01155
G1 X116.099 Y112.399 E0.00769
G1 F8640
G1 X115.937 Y112.274 E-0.04727
G1 X115.680 Y112.076 E-0.07479
G1 X115.417 Y111.949 E-0.06762
G1 X114.357 Y111.563 E-0.26034
G1 X114.816 Y110.302 E-0.30998
G1 E-0.04000 F2100.00000
G1 Z0.800 F10800.000
G1 X120.538 Y93.936
G1 Z0.200
G1 E0.80000 F2100.00000
G1 F1193.38
G1 X120.850 Y94.125 E0.01374
G1 X121.130 Y94.351 E0.01354
G1 X121.386 Y94.618 E0.01393
G1 X121.602 Y94.912 E0.01373
G1 X121.775 Y95.228 E0.01354
G1 X121.908 Y95.568 E0.01374
G1 X121.995 Y95.922 E0.01373
G1 X122.035 Y96.290 E0.01393
G1 X122.027 Y96.650 E0.01354
G1 X121.972 Y97.011 E0.01373
G1 X121.867 Y97.370 E0.01406
G1 X116.540 Y112.007 E0.58605
G1 X116.481 Y112.246 E0.00928
G1 X116.473 Y112.504 E0.00970
G1 X116.520 Y112.757 E0.00970
G1 X116.620 Y112.995 E0.00970
G1 X116.768 Y113.206 E0.00972
G1 X116.958 Y113.382 E0.00970
G1 X117.180 Y113.513 E0.00970
G1 X117.425 Y113.594 E0.00970
G1 X117.670 Y113.620 E0.00928
G1 X133.246 Y113.620 E0.58605
G1 X133.619 Y113.645 E0.01406
G1 X133.977 Y113.716 E0.01373
G1 X134.317 Y113.832 E0.01354
G1 X134.649 Y113.995 E0.01393
G1 X134.953 Y114.198 E0.01373
G1 X135.227 Y114.439 E0.01374
G1 X135.464 Y114.710 E0.01354
G1 X135.667 Y115.013 E0.01373
G1 X135.831 Y115.345 E0.01393
G1 X135.947 Y115.686 E0.01354
G1 X136.018 Y116.044 E0.01373
G1 X136.028 Y116.200 E0.00588
G1 X117.178 Y116.188 E0.70924
G1 X117.049 Y116.114 E0.00561
G1 X116.974 Y115.985 E0.00561
G1 X116.963 Y114.715 E0.04779
G1 X116.939 Y114.481 E0.00885
G1 X116.865 Y114.245 E0.00929
G1 X116.750 Y114.040 E0.00885
G1 X115.831 Y112.727 E0.06030
G1 X115.677 Y112.549 E0.00885
G1 X115.481 Y112.399 E0.00929
G1 X115.270 Y112.297 E0.00885
G1 X114.159 Y111.892 E0.04446
G1 X114.025 Y111.800 E0.00613
G1 X113.962 Y111.665 E0.00561
G1 X113.978 Y111.503 E0.00613
G1 X120.396 Y93.873 E0.70592
G1 X120.483 Y93.912 E0.00359
G1 X120.733 Y94.244 F10800.000
G1 F8640
G1 X120.850 Y94.125 E-0.09804
G1 X121.130 Y94.351 E-0.08307
G1 X121.386 Y94.618 E-0.08549
G1 X121.602 Y94.912 E-0.08427
G1 X121.775 Y95.228 E-0.08309
G1 X121.908 Y95.568 E-0.08430
G1 X121.995 Y95.922 E-0.08425
G1 X122.035 Y96.290 E-0.08549
G1 X122.028 Y96.602 E-0.07200
G1 E-0.04000 F2100.00000
G1 Z0.800 F10800.000
G1 X121.362 Y95.519
G1 Z0.200
G1 E0.80000 F2100.00000
G1 F1182.52
G1 X120.729 Y94.886 E0.03401
G1 X120.585 Y95.280 E0.01594
G1 X121.343 Y96.038 E0.04071
G1 X121.374 Y96.319 E0.01072
G1 X121.367 Y96.600 E0.01067
G1 X120.442 Y95.675 E0.04969
G1 X120.298 Y96.069 E0.01594
G1 X121.274 Y97.046 E0.05242
G1 X121.137 Y97.447 E0.01609
G1 X120.155 Y96.464 E0.05276
G1 X120.011 Y96.859 E0.01594
G1 X120.994 Y97.841 E0.05277
G1 X120.850 Y98.236 E0.01594
G1 X119.867 Y97.253 E0.05277
G1 X119.724 Y97.648 E0.01594
G1 X120.706 Y98.630 E0.05277
G1 X120.563 Y99.025 E0.01594
G1 X119.580 Y98.042 E0.05277
G1 X119.436 Y98.437 E0.01594
G1 X120.419 Y99.419 E0.05277
G1 X120.275 Y99.814 E0.01594
G1 X119.293 Y98.831 E0.05277
G1 X119.149 Y99.226 E0.01594
G1 X120.132 Y100.209 E0.05277
G1 X119.988 Y100.603 E0.01594
G1 X119.006 Y99.620 E0.05277
G1 X118.862 Y100.015 E0.01594
G1 X119.845 Y100.998 E0.05277
G1 X119.701 Y101.392 E0.01594
G1 X118.718 Y100.409 E0.05277
G1 X118.575 Y100.804 E0.01594
G1 X119.557 Y101.787 E0.05277
G1 X119.414 Y102.181 E0.01594
G1 X118.431 Y101.199 E0.05278
G1 X118.287 Y101.593 E0.01594
G1 X119.270 Y102.576 E0.05278
G1 X119.127 Y102.970 E0.01594
G1 X118.144 Y101.988 E0.05278
G1 X118.000 Y102.382 E0.01594
G1 X118.983 Y103.365 E0.05278
G1 X118.839 Y103.760 E0.01594
G1 X117.857 Y102.777 E0.05278
G1 X117.713 Y103.171 E0.01594
G1 X118.696 Y104.154 E0.05278
G1 X118.552 Y104.549 E0.01594
G1 X117.569 Y103.566 E0.05278
G1 X117.426 Y103.960 E0.01594
G1 X118.409 Y104.943 E0.05278
G1 X118.265 Y105.338 E0.01594
G1 X117.282 Y104.355 E0.05278
G1 X117.138 Y104.749 E0.01594
G1 X118.121 Y105.732 E0.05278
G1 X117.978 Y106.127 E0.01594
G1 X116.995 Y105.144 E0.05278
G1 X116.851 Y105.539 E0.01594
G1 X117.834 Y106.522 E0.05279
G1 X117.691 Y106.916 E0.01594
G1 X116.708 Y105.933 E0.05279
G1 X116.564 Y106.328 E0.01594
G1 X117.547 Y107.311 E0.05279
G1 X117.403 Y107.705 E0.01594
G1 X116.420 Y106.722 E0.05279
G1 X116.277 Y107.117 E0.01594
G1 X117.260 Y108.100 E0.05279
G1 X117.116 Y108.494 E0.01594
G1 X116.133 Y107.511 E0.05279
G1 X115.989 Y107.906 E0.01594
G1 X116.972 Y108.889 E0.05279
G1 X116.829 Y109.283 E0.01594
G1 X115.846 Y108.300 E0.05279
G1 X115.702 Y108.695 E0.01594
G1 X116.685 Y109.678 E0.05279
G1 X116.542 Y110.073 E0.01594
G1 X115.559 Y109.089 E0.05279
G1 X115.415 Y109.484 E0.01594
G1 X116.398 Y110.467 E0.05280
G1 X116.254 Y110.862 E0.01594
G1 X115.271 Y109.879 E0.05280
G1 X115.128 Y110.273 E0.01594
G1 X116.111 Y111.256 E0.05280
G1 X115.967 Y111.651 E0.01594
G1 X114.984 Y110.668 E0.05280
G1 X114.840 Y111.062 E0.01594
G1 X115.817 Y112.039 E0.05245
G1 X116.301 Y112.729 F10800.000
G1 F1200
G1 X116.350 Y113.140 E0.00273
G1 X116.340 Y113.000 F10800.000
G1 F1200
G1 X116.586 Y113.374 E0.00524
G1 X116.667 Y113.468 E0.00179
G1 X116.540 Y113.411 F10800.000
G1 F1200
G1 X116.909 Y113.598 E0.00264
G1 F8640
G1 X116.540 Y113.411 E-0.09554
G1 E-0.70446 F2100.00000
G1 Z0.800 F10800.000
G1 X118.227 Y115.710
G1 Z0.200
G1 E0.80000 F2100.00000
G1 F1175.04
G1 X117.623 Y115.105 E0.03269
G1 X117.609 Y114.550 E0.02121
G1 X118.599 Y115.540 E0.05351
G1 X119.141 Y115.540 E0.02070
G1 X117.881 Y114.280 E0.06811
G1 X118.422 Y114.280 E0.02070
G1 X119.683 Y115.540 E0.06811
G1 X120.224 Y115.540 E0.02070
G1 X118.964 Y114.280 E0.06811
G1 X119.506 Y114.280 E0.02070
G1 X120.766 Y115.540 E0.06811
G1 X121.307 Y115.540 E0.02070
G1 X120.047 Y114.280 E0.06811
G1 X120.589 Y114.280 E0.02070
G1 X121.849 Y115.540 E0.06811
G1 X122.391 Y115.540 E0.02070
G1 X121.130 Y114.280 E0.06811
G1 X121.672 Y114.280 E0.02070
G1 X122.932 Y115.540 E0.06811
G1 X123.474 Y115.540 E0.02070
G1 X122.213 Y114.280 E0.06811
G1 X122.755 Y114.280 E0.02070
G1 X124.015 Y115.540 E0.06811
G1 X124.557 Y115.540 E0.02070
G1 X123.297 Y114.280 E0.06811
G1 X123.838 Y114.280 E0.02070
G1 X125.099 Y115.540 E0.06811
G1 X125.640 Y115.540 E0.02070
G1 X124.380 Y114.280 E0.06811
G1 X124.921 Y114.280 E0.02070
G1 X126.182 Y115.540 E0.06811
G1 X126.723 Y115.540 E0.02070
G1 X125.463 Y114.280 E0.06811
G1 X126.005 Y114.280 E0.02070
G1 X127.265 Y115.540 E0.06811
G1 X127.807 Y115.540 E0.02070
G1 X126.546 Y114.280 E0.06811
G1 X127.088 Y114.280 E0.02070
G1 X128.348 Y115.540 E0.06811
G1 X128.890 Y115.540 E0.02070
G1 X127.629 Y114.280 E0.06811
G1 X128.171 Y114.280 E0.02070
G1 X129.431 Y115.540 E0.06811
G1 X129.973 Y115.540 E0.02070
G1 X128.713 Y114.280 E0.06811
G1 X129.254 Y114.280 E0.02070
G1 X130.514 Y115.540 E0.06811
G1 X131.056 Y115.540 E0.02070
G1 X129.796 Y114.280 E0.06811
G1 X130.337 Y114.280 E0.02070
G1 X131.598 Y115.540 E0.06811
G1 X132.139 Y115.540 E0.02070
G1 X130.879 Y114.280 E0.06811
G1 X131.421 Y114.280 E0.02070
G1 X132.681 Y115.540 E0.06811
G1 X133.222 Y115.540 E0.02070
G1 X131.962 Y114.280 E0.06811
G1 X132.504 Y114.280 E0.02070
G1 X133.764 Y115.540 E0.06811
G1 X134.306 Y115.540 E0.02070
G1 X133.045 Y114.280 E0.06811
G1 X133.532 Y114.300 E0.01861
G1 X133.626 Y114.319 E0.00367
G1 X135.017 Y115.710 E0.07516
G1 X135.372 Y115.524 F10800.000
G1 F1175.04
G1 X134.139 Y114.290 E0.06664
;BEFORE_LAYER_CHANGE
G92 E0.0
;0.4


G1 F8640
G1 X135.372 Y115.524 E-0.40269
G1 E-0.39731 F2100.00000
G1 Z0.800 F10800.000
;AFTER_LAYER_CHANGE
;0.4
G1 X136.982 Y118.860
G1 Z0.400
G1 E0.80000 F2100.00000
G1 F1193.38
G1 X136.291 Y118.965 E0.02627
G1 X117.246 Y118.976 E0.71658
G1 X116.605 Y118.906 E0.02426
G1 X115.709 Y118.559 E0.03615
G1 X114.966 Y117.950 E0.03615
G1 X111.622 Y113.195 E0.21872
G1 X111.371 Y112.676 E0.02169
G1 X111.206 Y112.010 E0.02581
G1 X111.192 Y111.347 E0.02493
G1 X111.321 Y110.699 E0.02487
G1 X117.884 Y92.657 E0.72236
G1 X118.265 Y91.994 E0.02878
G1 X118.828 Y91.471 E0.02892
G1 X119.517 Y91.139 E0.02878
G1 X120.278 Y91.024 E0.02892
G1 X121.022 Y91.136 E0.02834
G1 X121.911 Y91.523 E0.03646
G1 X122.901 Y92.213 E0.04541
G1 X123.562 Y92.894 E0.03573
G1 X138.016 Y113.534 E0.94806
G1 X138.388 Y114.264 E0.03083
G1 X138.635 Y114.993 E0.02896
G1 X138.778 Y115.746 E0.02881
G1 X138.810 Y116.604 E0.03231
G1 X138.694 Y117.189 E0.02243
G1 X138.446 Y117.731 E0.02243
G1 X138.080 Y118.201 E0.02243
G1 X137.618 Y118.572 E0.02228
G1 X137.036 Y118.835 E0.02401
G1 F8640
G1 X136.291 Y118.965 E-0.17461
G1 X133.756 Y118.967 E-0.58539
G1 E-0.04000 F2100.00000
G1 Z1.000 F10800.000
G1 X135.532 Y115.778
G1 Z0.400
G1 E0.80000 F2100.00000
M204 S800
G1 F1105.43
G1 X117.385 Y115.778 E0.73712
G1 X117.385 Y114.693 E0.04406
G1 X117.354 Y114.396 E0.01215
G1 X117.254 Y114.077 E0.01358
G1 X117.189 Y113.961 E0.00540
G1 X117.323 Y114.005 E0.00571
G1 X117.644 Y114.042 E0.01316
G1 X133.231 Y114.042 E0.63312
G1 X133.567 Y114.064 E0.01364
G1 X133.871 Y114.126 E0.01261
G1 X134.150 Y114.220 E0.01197
G1 X134.442 Y114.364 E0.01320
G1 X134.698 Y114.536 E0.01254
G1 X134.931 Y114.742 E0.01262
G1 X135.126 Y114.964 E0.01200
G1 X135.299 Y115.221 E0.01258
G1 X135.442 Y115.513 E0.01320
G1 X135.513 Y115.721 E0.00894
M204 S1000
G1 F8640
G1 X132.222 Y115.731 E-0.76000
G1 E-0.04000 F2100.00000
G1 Z1.000 F10800.000
G1 X116.056 Y112.342
G1 Z0.400
G1 E0.80000 F2100.00000
M204 S800
G1 F1105.43
G1 X115.969 Y112.241 E0.00542
G1 X115.703 Y112.038 E0.01358
G1 X115.434 Y111.907 E0.01215
G1 X114.415 Y111.536 E0.04406
G1 X120.624 Y94.485 E0.73708
G1 X120.840 Y94.659 E0.01125
G1 X121.065 Y94.893 E0.01320
G1 X121.247 Y95.143 E0.01258
G1 X121.390 Y95.403 E0.01200
G1 X121.503 Y95.692 E0.01262
G1 X121.577 Y95.992 E0.01254
G1 X121.612 Y96.315 E0.01320
G1 X121.606 Y96.609 E0.01197
G1 X121.559 Y96.916 E0.01261
G1 X121.466 Y97.239 E0.01364
G1 X116.136 Y111.883 E0.63300
G1 X116.061 Y112.183 E0.01255
G1 X116.058 Y112.282 E0.00403
M204 S1000
G1 F8640
G1 X115.969 Y112.241 E-0.02268
G1 X115.703 Y112.038 E-0.07722
G1 X115.434 Y111.907 E-0.06908
G1 X114.415 Y111.536 E-0.25045
G1 X114.919 Y110.150 E-0.34056
G1 E-0.04000 F2100.00000
G1 Z1.000 F10800.000
G1 X120.534 Y93.951
G1 Z0.400
G1 E0.80000 F2100.00000
M204 S800
G1 F1105.43
G1 X120.844 Y94.140 E0.01476
G1 X121.116 Y94.358 E0.01412
G1 X121.378 Y94.631 E0.01539
G1 X121.592 Y94.925 E0.01475
G1 X121.759 Y95.230 E0.01413
G1 X121.892 Y95.568 E0.01477
G1 X121.979 Y95.920 E0.01474
G1 X122.020 Y96.297 E0.01539
G1 X122.012 Y96.645 E0.01412
G1 X121.958 Y97.004 E0.01476
G1 X121.853 Y97.365 E0.01529
G1 X116.526 Y112.002 E0.63268
G1 X116.467 Y112.239 E0.00993
G1 X116.458 Y112.501 E0.01065
G1 X116.505 Y112.760 E0.01066
G1 X116.607 Y113.002 E0.01066
G1 X116.757 Y113.217 E0.01066
G1 X116.950 Y113.395 E0.01066
G1 X117.176 Y113.528 E0.01065
G1 X117.411 Y113.605 E0.01004
G1 X117.668 Y113.635 E0.01051
G1 X133.245 Y113.635 E0.63273
G1 X133.621 Y113.660 E0.01529
G1 X133.977 Y113.732 E0.01476
G1 X134.306 Y113.844 E0.01412
G1 X134.646 Y114.011 E0.01539
G1 X134.947 Y114.213 E0.01474
G1 X135.220 Y114.454 E0.01477
G1 X135.449 Y114.715 E0.01413
G1 X135.652 Y115.017 E0.01475
G1 X135.819 Y115.357 E0.01539
G1 X135.931 Y115.686 E0.01412
G1 X136.002 Y116.042 E0.01476
G1 X136.012 Y116.185 E0.00582
G1 X117.182 Y116.174 E0.76485
G1 X117.060 Y116.103 E0.00574
G1 X116.989 Y115.981 E0.00574
G1 X116.978 Y114.714 E0.05146
G1 X116.954 Y114.478 E0.00962
G1 X116.878 Y114.239 E0.01020
G1 X116.763 Y114.032 E0.00962
G1 X115.843 Y112.718 E0.06516
G1 X115.688 Y112.539 E0.00962
G1 X115.489 Y112.386 E0.01020
