; generated by PrusaSlicer 2.0.0+win64 on 2019-11-12 at 15:30:02

; 

; external perimeters extrusion width = 0.45mm
; perimeters extrusion width = 0.45mm
; infill extrusion width = 0.45mm
; solid infill extrusion width = 0.45mm
; top infill extrusion width = 0.40mm
; first layer extrusion width = 0.42mm

M73 P0 R48
M73 Q0 S48
M201 X1000 Y1000 Z1000 E5000 ; sets maximum accelerations, mm/sec^2
M203 X200 Y200 Z12 E120 ; sets maximum feedrates, mm/sec
M204 P1250 R1250 T1250 ; sets acceleration (P, T) and retract acceleration (R), mm/sec^2
M205 X8.00 Y8.00 Z0.40 E1.50 ; sets the jerk limits, mm/sec
M205 S0 T0 ; sets the minimum extruding and travel feed rate, mm/sec
M107
M115 U3.8.1 ; tell printer latest fw version
G90 ; use absolute coordinates
M83 ; extruder relative mode
M104 S215 ; set extruder temp
M140 S60 ; set bed temp
M190 S60 ; wait for bed temp
M109 S215 ; wait for extruder temp
G28 W ; home all without mesh bed level
G80 ; mesh bed leveling
G1 Y-3.0 F1000.0 ; go outside print area
G92 E0.0
G1 X60.0 E9.0 F1000.0 ; intro line
M73 Q0 S48
M73 P0 R48
G1 X100.0 E12.5 F1000.0 ; intro line
G92 E0.0
M221 S95
M900 K30 ; Filament gcode
G21 ; set units to millimeters
G90 ; use absolute coordinates
M83 ; use relative distances for extrusion
;BEFORE_LAYER_CHANGE
G92 E0.0
;0.2


G1 E-0.80000 F2100.00000
G1 Z0.600 F10800.000
;AFTER_LAYER_CHANGE
;0.2
G1 X81.598 Y111.219
G1 Z0.200
G1 E0.80000 F2100.00000
M204 S1000
G1 F1200
G1 X82.137 Y110.412 E0.03044
G1 X82.831 Y109.891 E0.02722
G1 X104.239 Y101.173 E0.72473
G1 X162.129 Y90.826 E1.84388
G1 X167.472 Y90.798 E0.16753
G1 X168.285 Y90.956 E0.02597
G1 X168.979 Y91.402 E0.02586
G1 X179.684 Y102.434 E0.48197
G1 X193.118 Y117.957 E0.64367
G1 X193.331 Y118.377 E0.01475
G1 X193.448 Y118.829 E0.01464
G1 X194.648 Y128.183 E0.29571
G1 X194.565 Y128.966 E0.02467
G1 X194.320 Y129.587 E0.02094
G1 X193.899 Y130.161 E0.02232
G1 X193.401 Y130.568 E0.02016
G1 X191.338 Y131.622 E0.07264
G1 X189.337 Y132.455 E0.06796
G1 X187.277 Y133.141 E0.06808
G1 X185.194 Y133.671 E0.06739
G1 X123.153 Y146.214 E1.98459
G1 X120.027 Y146.711 E0.09925
G1 X117.828 Y146.860 E0.06911
G1 X114.624 Y146.784 E0.10049
G1 X112.427 Y146.531 E0.06934
G1 X109.258 Y145.868 E0.10152
G1 X106.200 Y144.872 E0.10083
G1 X103.222 Y143.529 E0.10243
G1 X102.167 Y142.951 E0.03771
G1 X101.640 Y142.519 E0.02137
G1 X81.842 Y113.785 E1.09407
G1 X81.478 Y112.993 E0.02735
G1 X81.390 Y112.062 E0.02931
G1 X81.583 Y111.278 E0.02534
G1 F8640
G1 X82.137 Y110.412 E-0.23726
G1 X82.831 Y109.891 E-0.20042
G1 X84.124 Y109.365 E-0.32232
G1 E-0.04000 F2100.00000
G1 Z0.800 F10800.000
G1 X112.983 Y107.781
G1 Z0.200
G1 E0.80000 F2100.00000
G1 F1200
G1 X129.708 Y107.780 E0.52440
G1 X130.100 Y107.708 E0.01250
G1 X130.375 Y107.563 E0.00975
G1 X130.613 Y107.360 E0.00982
G1 X130.760 Y107.165 E0.00765
G1 X130.884 Y106.891 E0.00944
G1 X133.181 Y99.087 E0.25506
G1 X136.517 Y99.087 E0.10458
G1 X134.422 Y106.325 E0.23626
G1 X134.379 Y106.627 E0.00957
G1 X134.399 Y106.877 E0.00785
G1 X134.516 Y107.227 E0.01158
G1 X134.653 Y107.444 E0.00804
G1 X134.937 Y107.716 E0.01234
G1 X135.309 Y107.893 E0.01290
G1 X135.635 Y107.939 E0.01033
G1 X136.991 Y107.939 E0.04253
G1 X136.134 Y108.345 E0.02973
G1 X135.209 Y108.741 E0.03157
G1 X134.269 Y109.102 E0.03157
G1 X133.316 Y109.428 E0.03157
G1 X132.355 Y109.716 E0.03147
G1 X130.962 Y110.061 E0.04499
G1 X130.394 Y110.186 E0.01824
G1 X129.403 Y110.365 E0.03157
G1 X128.406 Y110.507 E0.03157
G1 X127.405 Y110.611 E0.03157
G1 X126.400 Y110.677 E0.03157
G1 X125.394 Y110.705 E0.03157
G1 X124.387 Y110.696 E0.03157
G1 X123.381 Y110.649 E0.03157
G1 X122.381 Y110.564 E0.03147
G1 X120.959 Y110.373 E0.04499
G1 X120.385 Y110.280 E0.01824
G1 X119.398 Y110.083 E0.03157
G1 X118.419 Y109.848 E0.03157
G1 X117.449 Y109.577 E0.03157
G1 X116.490 Y109.269 E0.03157
G1 X115.544 Y108.926 E0.03157
G1 X114.611 Y108.547 E0.03157
G1 X113.693 Y108.134 E0.03157
G1 X113.037 Y107.808 E0.02298
G1 F8640
G1 X116.328 Y107.802 E-0.76000
G1 E-0.04000 F2100.00000
G1 Z0.800 F10800.000
G1 X111.776 Y107.564
G1 Z0.200
G1 E0.80000 F2100.00000
G1 F1200
G1 X111.731 Y107.507 E0.00226
G1 X111.730 Y107.472 E0.00110
G1 X111.805 Y107.404 E0.00317
G1 X129.673 Y107.403 E0.56023
G1 X129.975 Y107.348 E0.00961
G1 X130.162 Y107.249 E0.00664
G1 X130.337 Y107.100 E0.00721
G1 X130.434 Y106.972 E0.00503
G1 X130.530 Y106.759 E0.00732
G1 X132.899 Y98.710 E0.26309
G1 X137.018 Y98.710 E0.12916
G1 X134.791 Y106.404 E0.25116
G1 X134.758 Y106.639 E0.00742
G1 X134.771 Y106.801 E0.00510
G1 X134.859 Y107.064 E0.00871
G1 X134.947 Y107.203 E0.00517
G1 X135.154 Y107.402 E0.00898
G1 X135.418 Y107.527 E0.00918
G1 X135.661 Y107.562 E0.00770
G1 X138.194 Y107.562 E0.07941
G1 X138.258 Y107.605 E0.00241
G1 X138.269 Y107.666 E0.00194
G1 X138.223 Y107.723 E0.00229
G1 X137.212 Y108.252 E0.03580
G1 X136.289 Y108.689 E0.03201
G1 X135.351 Y109.091 E0.03201
G1 X134.398 Y109.457 E0.03201
G1 X133.431 Y109.787 E0.03201
G1 X132.455 Y110.080 E0.03198
G1 X131.048 Y110.429 E0.04544
G1 X130.468 Y110.556 E0.01862
G1 X129.463 Y110.738 E0.03201
G1 X128.452 Y110.881 E0.03201
G1 X127.437 Y110.987 E0.03201
G1 X126.418 Y111.054 E0.03201
G1 X125.397 Y111.083 E0.03201
G1 X124.376 Y111.073 E0.03201
G1 X123.357 Y111.025 E0.03201
G1 X122.340 Y110.939 E0.03198
G1 X120.318 Y110.652 E0.06405
G1 X119.317 Y110.451 E0.03201
G1 X118.324 Y110.213 E0.03201
G1 X117.341 Y109.938 E0.03201
G1 X116.368 Y109.626 E0.03201
G1 X115.408 Y109.278 E0.03201
G1 X114.462 Y108.894 E0.03201
G1 X113.532 Y108.475 E0.03201
G1 X112.617 Y108.021 E0.03202
G1 X111.828 Y107.592 E0.02814
G1 X111.793 Y107.494 F10800.000
G1 F8640
G1 X111.731 Y107.507 E-0.02988
G1 X111.730 Y107.472 E-0.00810
G1 X111.805 Y107.404 E-0.02334
G1 X114.831 Y107.404 E-0.69868
G1 E-0.04000 F2100.00000
G1 Z0.800 F10800.000
G1 X114.387 Y107.894
G1 Z0.200
G1 E0.80000 F2100.00000
G1 F1200
G1 X114.820 Y108.327 E0.01922
G1 X115.714 Y108.687 E0.03028
G1 X115.091 Y108.064 E0.02768
G1 X115.625 Y108.064 E0.01678
G1 X116.552 Y108.991 E0.04119
G1 X117.341 Y109.245 E0.02602
G1 X116.159 Y108.064 E0.05248
G1 X116.693 Y108.064 E0.01678
G1 X118.093 Y109.464 E0.06218
G1 X118.817 Y109.653 E0.02349
G1 X117.227 Y108.064 E0.07059
G1 X117.762 Y108.064 E0.01678
G1 X119.516 Y109.818 E0.07793
G1 X120.184 Y109.952 E0.02139
G1 X118.296 Y108.064 E0.08387
G1 X118.830 Y108.064 E0.01678
G1 X120.833 Y110.066 E0.08895
G1 X121.455 Y110.154 E0.01974
G1 X119.364 Y108.064 E0.09286
G1 X119.898 Y108.064 E0.01678
G1 X122.072 Y110.237 E0.09654
G1 X122.674 Y110.305 E0.01903
G1 X120.433 Y108.064 E0.09956
G1 X120.967 Y108.064 E0.01678
G1 X123.258 Y110.354 E0.10176
G1 X123.824 Y110.386 E0.01781
G1 X121.501 Y108.063 E0.10318
G1 X122.035 Y108.063 E0.01678
G1 X124.384 Y110.413 E0.10436
G1 X124.924 Y110.418 E0.01695
G1 X122.569 Y108.063 E0.10460
G1 X123.104 Y108.063 E0.01678
G1 X125.461 Y110.421 E0.10471
G1 X125.980 Y110.406 E0.01633
G1 X123.638 Y108.063 E0.10406
G1 X124.172 Y108.063 E0.01678
G1 X126.496 Y110.387 E0.10323
G1 X126.997 Y110.354 E0.01578
G1 X124.706 Y108.063 E0.10177
G1 X125.240 Y108.063 E0.01678
G1 X127.494 Y110.317 E0.10012
G1 X127.978 Y110.267 E0.01528
G1 X125.774 Y108.063 E0.09789
G1 X126.309 Y108.063 E0.01678
G1 X128.459 Y110.214 E0.09552
G1 X128.927 Y110.147 E0.01484
G1 X126.843 Y108.063 E0.09258
G1 X127.377 Y108.063 E0.01678
G1 X129.393 Y110.080 E0.08957
G1 X129.846 Y109.998 E0.01444
G1 X127.911 Y108.063 E0.08594
G1 X128.445 Y108.063 E0.01678
G1 X130.298 Y109.916 E0.08231
G1 X130.738 Y109.821 E0.01412
G1 X128.980 Y108.063 E0.07810
G1 X129.514 Y108.063 E0.01678
G1 X131.169 Y109.719 E0.07354
G1 X131.598 Y109.613 E0.01385
G1 X129.999 Y108.014 E0.07100
G1 X130.194 Y107.979 E0.00621
G1 X130.392 Y107.873 E0.00706
G1 X132.026 Y109.506 E0.07255
G1 X132.447 Y109.393 E0.01370
G1 X130.706 Y107.653 E0.07733
G1 X130.820 Y107.555 E0.00472
G1 X130.959 Y107.371 E0.00723
G1 X132.858 Y109.270 E0.08435
G1 X133.267 Y109.146 E0.01345
G1 X131.138 Y107.016 E0.09459
G1 X131.263 Y106.607 E0.01345
G1 X133.666 Y109.010 E0.10674
G1 X134.064 Y108.874 E0.01322
G1 X131.384 Y106.194 E0.11903
G1 X131.506 Y105.781 E0.01351
G1 X134.453 Y108.729 E0.13093
G1 X134.839 Y108.580 E0.01299
G1 X131.627 Y105.368 E0.14267
G1 X131.748 Y104.956 E0.01351
G1 X135.221 Y108.428 E0.15425
G1 X135.595 Y108.268 E0.01278
G1 X135.538 Y108.211 E0.00254
G1 F8640
G1 X135.595 Y108.268 E-0.01870
G1 X135.221 Y108.428 E-0.09396
G1 X133.239 Y106.446 E-0.64734
G1 E-0.04000 F2100.00000
G1 Z0.800 F10800.000
G1 X134.108 Y106.780
G1 Z0.200
G1 E0.80000 F2100.00000
G1 F1200
G1 X131.870 Y104.543 E0.09940
G1 X131.991 Y104.130 E0.01351
G1 X134.142 Y106.281 E0.09554
G1 X134.260 Y105.865 E0.01359
G1 X132.113 Y103.717 E0.09540
G1 X132.234 Y103.305 E0.01351
G1 X134.380 Y105.451 E0.09533
G1 X134.500 Y105.036 E0.01355
G1 X132.356 Y102.892 E0.09526
G1 X132.477 Y102.479 E0.01351
G1 X134.620 Y104.622 E0.09519
G1 X134.740 Y104.208 E0.01355
G1 X132.599 Y102.066 E0.09512
G1 X132.720 Y101.654 E0.01351
G1 X134.860 Y103.793 E0.09505
G1 X134.980 Y103.379 E0.01355
G1 X132.842 Y101.241 E0.09498
G1 X132.963 Y100.828 E0.01351
G1 X135.100 Y102.965 E0.09491
G1 X135.220 Y102.550 E0.01355
G1 X133.085 Y100.415 E0.09484
G1 X133.206 Y100.003 E0.01351
G1 X135.340 Y102.136 E0.09477
G1 X135.460 Y101.722 E0.01355
G1 X133.328 Y99.590 E0.09470
G1 X133.393 Y99.370 E0.00722
G1 X133.641 Y99.370 E0.00782
G1 X135.579 Y101.308 E0.08609
G1 X135.699 Y100.893 E0.01355
G1 X134.176 Y99.370 E0.06768
G1 X134.710 Y99.370 E0.01678
G1 X135.819 Y100.479 E0.04928
G1 X135.939 Y100.065 E0.01355
G1 X135.244 Y99.370 E0.03088
G1 X135.778 Y99.370 E0.01678
G1 X136.196 Y99.787 E0.01856
G1 F8640
G1 X135.778 Y99.370 E-0.13642
G1 X135.244 Y99.370 E-0.12335
G1 X135.939 Y100.065 E-0.22697
G1 X135.819 Y100.479 E-0.09959
G1 X135.287 Y99.947 E-0.17367
G1 E-0.04000 F2100.00000
G1 Z0.800 F10800.000
G1 X145.681 Y111.587
G1 Z0.200
G1 E0.80000 F2100.00000
G1 F1200
G1 X149.017 Y111.587 E0.10458
G1 X146.922 Y118.825 E0.23626
G1 X146.879 Y119.127 E0.00957
G1 X146.899 Y119.377 E0.00785
G1 X147.016 Y119.727 E0.01158
G1 X147.153 Y119.944 E0.00804
G1 X147.437 Y120.216 E0.01234
G1 X147.809 Y120.393 E0.01290
G1 X148.135 Y120.439 E0.01033
G1 X149.491 Y120.439 E0.04253
G1 X148.634 Y120.845 E0.02973
G1 X147.709 Y121.241 E0.03157
G1 X146.769 Y121.602 E0.03157
G1 X145.816 Y121.928 E0.03157
G1 X144.855 Y122.216 E0.03147
G1 X142.894 Y122.686 E0.06323
G1 X141.903 Y122.865 E0.03157
G1 X140.906 Y123.007 E0.03157
G1 X139.905 Y123.111 E0.03157
G1 X138.900 Y123.177 E0.03157
G1 X137.894 Y123.205 E0.03157
G1 X136.887 Y123.196 E0.03157
G1 X135.881 Y123.149 E0.03157
G1 X134.881 Y123.064 E0.03147
G1 X133.459 Y122.873 E0.04499
G1 X132.885 Y122.780 E0.01824
G1 X131.898 Y122.583 E0.03157
G1 X130.919 Y122.348 E0.03157
G1 X129.949 Y122.077 E0.03157
G1 X128.990 Y121.769 E0.03157
G1 X128.044 Y121.426 E0.03157
G1 X127.111 Y121.047 E0.03157
G1 X126.193 Y120.634 E0.03157
G1 X125.483 Y120.281 E0.02486
G1 X142.208 Y120.280 E0.52440
G1 X142.600 Y120.208 E0.01250
G1 X142.875 Y120.063 E0.00975
G1 X143.113 Y119.860 E0.00982
G1 X143.260 Y119.665 E0.00765
G1 X143.384 Y119.391 E0.00944
G1 X145.664 Y111.644 E0.25318
G1 X145.399 Y111.210 F10800.000
G1 F1200
G1 X149.518 Y111.210 E0.12916
G1 X147.291 Y118.904 E0.25116
G1 X147.258 Y119.139 E0.00742
G1 X147.271 Y119.301 E0.00510
G1 X147.359 Y119.564 E0.00871
G1 X147.447 Y119.703 E0.00517
G1 X147.654 Y119.902 E0.00898
G1 X147.918 Y120.027 E0.00918
G1 X148.161 Y120.062 E0.00770
G1 X150.694 Y120.062 E0.07941
G1 X150.758 Y120.105 E0.00241
G1 X150.769 Y120.166 E0.00194
G1 X150.723 Y120.223 E0.00229
G1 X149.712 Y120.752 E0.03580
G1 X148.789 Y121.189 E0.03201
G1 X147.851 Y121.591 E0.03201
G1 X146.898 Y121.957 E0.03201
G1 X145.931 Y122.287 E0.03201
G1 X144.955 Y122.580 E0.03198
G1 X143.548 Y122.929 E0.04544
G1 X142.968 Y123.056 E0.01862
G1 X141.963 Y123.238 E0.03201
G1 X140.952 Y123.381 E0.03201
G1 X139.937 Y123.487 E0.03201
G1 X138.918 Y123.554 E0.03201
G1 X137.897 Y123.583 E0.03201
G1 X136.876 Y123.573 E0.03201
G1 X135.857 Y123.525 E0.03201
G1 X134.840 Y123.439 E0.03198
G1 X132.818 Y123.152 E0.06405
G1 X131.817 Y122.951 E0.03201
G1 X130.824 Y122.713 E0.03201
G1 X129.841 Y122.438 E0.03201
G1 X128.868 Y122.126 E0.03201
G1 X127.908 Y121.778 E0.03201
G1 X126.962 Y121.394 E0.03201
G1 X126.032 Y120.975 E0.03201
G1 X125.117 Y120.521 E0.03202
G1 X124.276 Y120.064 E0.03002
G1 X124.231 Y120.007 E0.00226
G1 X124.242 Y119.945 E0.00197
G1 X124.305 Y119.904 E0.00236
G1 X142.173 Y119.903 E0.56023
G1 X142.475 Y119.848 E0.00961
G1 X142.662 Y119.749 E0.00664
G1 X142.837 Y119.600 E0.00721
G1 X142.934 Y119.472 E0.00503
G1 X143.030 Y119.259 E0.00732
G1 X145.382 Y111.267 E0.26120
G1 X145.724 Y111.442 F10800.000
G1 F8640
G1 X148.673 Y111.221 E-0.76000
G1 E-0.04000 F2100.00000
G1 Z0.800 F10800.000
G1 X148.696 Y112.287
G1 Z0.200
G1 E0.80000 F2100.00000
G1 F1200
G1 X148.278 Y111.870 E0.01856
G1 X147.744 Y111.870 E0.01678
G1 X148.439 Y112.565 E0.03088
G1 X148.319 Y112.979 E0.01355
G1 X147.210 Y111.870 E0.04928
G1 X146.676 Y111.870 E0.01678
G1 X148.199 Y113.393 E0.06768
G1 X148.079 Y113.808 E0.01355
G1 X146.141 Y111.870 E0.08609
G1 X145.893 Y111.870 E0.00782
G1 X145.828 Y112.090 E0.00722
G1 X147.960 Y114.222 E0.09470
G1 X147.840 Y114.636 E0.01355
G1 X145.706 Y112.503 E0.09477
G1 X145.585 Y112.915 E0.01351
G1 X147.720 Y115.050 E0.09484
G1 X147.600 Y115.465 E0.01355
G1 X145.463 Y113.328 E0.09491
G1 X145.342 Y113.741 E0.01351
G1 X147.480 Y115.879 E0.09498
G1 X147.360 Y116.293 E0.01355
G1 X145.220 Y114.154 E0.09505
G1 X145.099 Y114.566 E0.01351
G1 X147.240 Y116.708 E0.09512
G1 X147.120 Y117.122 E0.01355
G1 X144.977 Y114.979 E0.09519
G1 X144.856 Y115.392 E0.01351
G1 X147.000 Y117.536 E0.09526
G1 X146.880 Y117.951 E0.01355
G1 X144.734 Y115.805 E0.09533
G1 X144.613 Y116.217 E0.01351
G1 X146.760 Y118.365 E0.09540
G1 X146.642 Y118.781 E0.01359
G1 X144.491 Y116.630 E0.09554
G1 X144.370 Y117.043 E0.01351
G1 X146.608 Y119.280 E0.09940
G1 F8640
G1 X144.370 Y117.043 E-0.73068
G1 X144.406 Y116.921 E-0.02932
G1 E-0.04000 F2100.00000
G1 Z0.800 F10800.000
G1 X148.038 Y120.711
G1 Z0.200
G1 E0.80000 F2100.00000
G1 F1200
G1 X148.095 Y120.768 E0.00254
G1 X147.721 Y120.928 E0.01278
G1 X144.248 Y117.456 E0.15425
G1 X144.127 Y117.868 E0.01351
G1 X147.339 Y121.080 E0.14267
G1 X146.953 Y121.229 E0.01299
G1 X144.006 Y118.281 E0.13093
G1 X143.884 Y118.694 E0.01351
G1 X146.564 Y121.374 E0.11903
G1 X146.166 Y121.510 E0.01322
G1 X143.763 Y119.107 E0.10674
G1 X143.638 Y119.516 E0.01345
G1 X145.767 Y121.646 E0.09459
G1 X145.358 Y121.770 E0.01345
G1 X143.459 Y119.871 E0.08435
G1 X143.320 Y120.055 E0.00723
G1 X143.206 Y120.153 E0.00472
G1 X144.947 Y121.893 E0.07733
G1 X144.526 Y122.006 E0.01370
G1 X142.892 Y120.373 E0.07255
G1 X142.694 Y120.479 E0.00706
G1 X142.499 Y120.514 E0.00621
G1 X144.098 Y122.113 E0.07100
G1 X143.669 Y122.219 E0.01385
G1 X142.014 Y120.563 E0.07354
G1 X141.480 Y120.563 E0.01678
G1 X143.238 Y122.321 E0.07810
G1 X142.798 Y122.416 E0.01412
G1 X140.945 Y120.563 E0.08231
G1 X140.411 Y120.563 E0.01678
G1 X142.346 Y122.498 E0.08594
G1 X141.893 Y122.580 E0.01444
G1 X139.877 Y120.563 E0.08957
G1 X139.343 Y120.563 E0.01678
G1 X141.427 Y122.647 E0.09258
G1 X140.959 Y122.714 E0.01484
G1 X138.809 Y120.563 E0.09552
G1 X138.274 Y120.563 E0.01678
G1 X140.478 Y122.767 E0.09789
G1 X139.994 Y122.817 E0.01528
G1 X137.740 Y120.563 E0.10012
G1 X137.206 Y120.563 E0.01678
G1 X139.497 Y122.854 E0.10177
G1 X138.996 Y122.887 E0.01578
G1 X136.672 Y120.563 E0.10323
G1 X136.138 Y120.563 E0.01678
G1 X138.480 Y122.906 E0.10406
G1 X137.961 Y122.921 E0.01633
G1 X135.604 Y120.563 E0.10471
G1 X135.069 Y120.563 E0.01678
G1 X137.424 Y122.918 E0.10460
G1 X136.884 Y122.913 E0.01695
G1 X134.535 Y120.563 E0.10436
G1 X134.001 Y120.563 E0.01678
G1 X136.324 Y122.886 E0.10318
G1 X135.758 Y122.854 E0.01781
G1 X133.467 Y120.564 E0.10176
G1 X132.933 Y120.564 E0.01678
G1 X135.174 Y122.805 E0.09956
G1 X134.572 Y122.737 E0.01903
G1 X132.398 Y120.564 E0.09654
G1 X131.864 Y120.564 E0.01678
G1 X133.955 Y122.654 E0.09286
G1 X133.333 Y122.566 E0.01974
G1 X131.330 Y120.564 E0.08895
G1 X130.796 Y120.564 E0.01678
G1 X132.684 Y122.452 E0.08387
