; generated by PrusaSlicer 2.0.0+win64 on 2019-10-24 at 12:21:37

; 

; external perimeters extrusion width = 0.45mm
; perimeters extrusion width = 0.45mm
; infill extrusion width = 0.45mm
; solid infill extrusion width = 0.45mm
; top infill extrusion width = 0.40mm
; first layer extrusion width = 0.42mm

M73 P0 R9
M73 Q0 S9
M201 X1000 Y1000 Z1000 E5000 ; sets maximum accelerations, mm/sec^2
M203 X200 Y200 Z12 E120 ; sets maximum feedrates, mm/sec
M204 P1250 R1250 T1250 ; sets acceleration (P, T) and retract acceleration (R), mm/sec^2
M205 X8.00 Y8.00 Z0.40 E1.50 ; sets the jerk limits, mm/sec
M205 S0 T0 ; sets the minimum extruding and travel feed rate, mm/sec
M107
M115 U3.8.0 ; tell printer latest fw version
G90 ; use absolute coordinates
M83 ; extruder relative mode
M104 S215 ; set extruder temp
M140 S60 ; set bed temp
M190 S60 ; wait for bed temp
M109 S215 ; wait for extruder temp
G28 W ; home all without mesh bed level
G80 ; mesh bed leveling
G1 Y-3.0 F1000.0 ; go outside print area
G92 E0.0
G1 X60.0 E9.0 F1000.0 ; intro line
M73 Q0 S9
M73 P0 R9
G1 X100.0 E12.5 F1000.0 ; intro line
G92 E0.0
M221 S95
M900 K30 ; Filament gcode
G21 ; set units to millimeters
G90 ; use absolute coordinates
M83 ; use relative distances for extrusion
;BEFORE_LAYER_CHANGE
G92 E0.0
;0.2


G1 E-0.80000 F2100.00000
G1 Z0.600 F10800.000
;AFTER_LAYER_CHANGE
;0.2
G1 X109.509 Y109.531
G1 Z0.200
G1 E0.80000 F2100.00000
M204 S1000
G1 F1200
G1 X108.983 Y108.708 E0.03061
G1 X108.821 Y108.221 E0.01610
G1 X108.733 Y107.596 E0.01980
G1 X108.770 Y107.001 E0.01870
G1 X108.935 Y106.391 E0.01981
G1 X109.228 Y105.818 E0.02018
G1 X109.597 Y105.360 E0.01845
G1 X109.984 Y105.022 E0.01610
G1 X110.518 Y104.707 E0.01943
G1 X131.724 Y96.054 E0.71812
G1 X132.462 Y95.928 E0.02349
G1 X137.523 Y95.928 E0.15867
G1 X138.317 Y96.055 E0.02521
G1 X139.032 Y96.422 E0.02521
G1 X139.601 Y96.995 E0.02533
G1 X139.963 Y97.713 E0.02521
G1 X141.267 Y107.661 E0.31459
G1 X141.219 Y108.188 E0.01660
G1 X141.045 Y108.790 E0.01965
G1 X140.762 Y109.328 E0.01904
G1 X140.382 Y109.796 E0.01892
G1 X139.715 Y110.306 E0.02631
G1 X137.702 Y111.324 E0.07075
G1 X135.702 Y112.157 E0.06790
G1 X133.667 Y112.837 E0.06728
G1 X130.416 Y113.605 E0.10474
G1 X128.252 Y113.911 E0.06852
G1 X126.107 Y114.056 E0.06741
G1 X122.740 Y113.977 E0.10561
G1 X120.593 Y113.729 E0.06778
G1 X118.438 Y113.320 E0.06877
G1 X116.318 Y112.755 E0.06877
G1 X114.257 Y112.041 E0.06840
G1 X112.227 Y111.169 E0.06927
G1 X110.179 Y110.096 E0.07249
G1 X109.555 Y109.570 E0.02560
G1 F8640
G1 X108.983 Y108.708 E-0.23867
G1 X108.821 Y108.221 E-0.11859
G1 X108.733 Y107.596 E-0.14578
G1 X108.770 Y107.001 E-0.13768
G1 X108.905 Y106.502 E-0.11928
G1 E-0.04000 F2100.00000
G1 Z0.800 F10800.000
G1 X109.316 Y108.528
G1 Z0.200
G1 E0.80000 F2100.00000
G1 F1200
G1 X109.110 Y107.563 E0.03094
G1 X109.145 Y107.044 E0.01631
G1 X109.296 Y106.504 E0.01757
G1 X109.557 Y106.004 E0.01769
G1 X109.887 Y105.602 E0.01631
G1 X110.694 Y105.041 E0.03082
G1 X131.843 Y96.412 E0.71617
G1 X132.478 Y96.305 E0.02021
G1 X137.523 Y96.305 E0.15816
G1 X138.212 Y96.418 E0.02191
G1 X138.834 Y96.744 E0.02202
G1 X139.318 Y97.248 E0.02191
G1 X139.620 Y97.882 E0.02202
G1 X140.871 Y107.298 E0.29784
G1 X140.886 Y107.826 E0.01657
G1 X140.776 Y108.419 E0.01891
G1 X140.573 Y108.905 E0.01650
G1 X139.945 Y109.688 E0.03147
G1 X138.555 Y110.494 E0.05038
G1 X136.605 Y111.394 E0.06734
G1 X133.478 Y112.500 E0.10399
G1 X131.417 Y113.024 E0.06667
G1 X129.288 Y113.404 E0.06780
G1 X126.009 Y113.682 E0.10319
G1 X123.883 Y113.669 E0.06667
G1 X121.745 Y113.502 E0.06722
G1 X119.586 Y113.174 E0.06848
G1 X117.509 Y112.702 E0.06677
G1 X114.362 Y111.677 E0.10378
G1 X112.389 Y110.828 E0.06734
G1 X110.392 Y109.785 E0.07066
G1 X109.790 Y109.279 E0.02466
G1 X109.348 Y108.579 E0.02596
G1 F8640
G1 X109.110 Y107.563 E-0.24087
G1 X109.145 Y107.044 E-0.12013
G1 X109.296 Y106.504 E-0.12939
G1 X109.557 Y106.004 E-0.13024
G1 X109.887 Y105.602 E-0.12013
G1 X109.955 Y105.554 E-0.01923
G1 E-0.04000 F2100.00000
G1 Z0.800 F10800.000
G1 X112.972 Y107.787
G1 Z0.200
G1 E0.80000 F2100.00000
G1 F1200
G1 X129.697 Y107.786 E0.52440
G1 X130.100 Y107.713 E0.01285
G1 X130.446 Y107.513 E0.01253
G1 X130.613 Y107.352 E0.00729
G1 X130.749 Y107.171 E0.00708
G1 X130.873 Y106.897 E0.00944
G1 X133.174 Y99.080 E0.25548
G1 X136.523 Y99.080 E0.10500
G1 X134.429 Y106.319 E0.23627
G1 X134.387 Y106.621 E0.00956
G1 X134.407 Y106.871 E0.00785
G1 X134.524 Y107.221 E0.01158
G1 X134.661 Y107.438 E0.00804
G1 X134.945 Y107.711 E0.01233
G1 X135.316 Y107.887 E0.01290
G1 X135.642 Y107.933 E0.01033
G1 X137.006 Y107.934 E0.04275
G1 X136.123 Y108.351 E0.03061
G1 X135.198 Y108.747 E0.03157
G1 X134.258 Y109.109 E0.03157
G1 X133.308 Y109.433 E0.03147
G1 X131.366 Y109.976 E0.06323
G1 X130.386 Y110.192 E0.03147
G1 X128.971 Y110.431 E0.04499
G1 X128.395 Y110.513 E0.01824
G1 X127.394 Y110.617 E0.03157
G1 X126.389 Y110.683 E0.03157
G1 X125.383 Y110.712 E0.03157
G1 X124.376 Y110.702 E0.03157
G1 X123.370 Y110.655 E0.03157
G1 X122.371 Y110.570 E0.03147
G1 X120.948 Y110.379 E0.04499
G1 X120.374 Y110.287 E0.01824
G1 X119.387 Y110.089 E0.03157
G1 X118.408 Y109.855 E0.03157
G1 X117.438 Y109.583 E0.03157
G1 X116.479 Y109.276 E0.03157
G1 X115.533 Y108.932 E0.03157
G1 X114.600 Y108.554 E0.03157
G1 X113.682 Y108.140 E0.03157
G1 X113.026 Y107.814 E0.02298
G1 F8640
G1 X116.317 Y107.809 E-0.76000
G1 E-0.04000 F2100.00000
G1 Z0.800 F10800.000
G1 X111.765 Y107.570
G1 Z0.200
G1 E0.80000 F2100.00000
G1 F1200
G1 X111.720 Y107.513 E0.00226
G1 X111.719 Y107.478 E0.00110
G1 X111.795 Y107.410 E0.00317
G1 X129.662 Y107.409 E0.56023
G1 X129.968 Y107.353 E0.00973
G1 X130.218 Y107.209 E0.00905
G1 X130.330 Y107.101 E0.00490
G1 X130.423 Y106.978 E0.00482
G1 X130.519 Y106.765 E0.00732
G1 X132.892 Y98.703 E0.26350
G1 X137.024 Y98.703 E0.12957
G1 X134.799 Y106.399 E0.25117
G1 X134.766 Y106.633 E0.00741
G1 X134.779 Y106.795 E0.00510
G1 X134.867 Y107.058 E0.00871
G1 X134.955 Y107.198 E0.00517
G1 X135.162 Y107.396 E0.00898
G1 X135.426 Y107.522 E0.00918
G1 X135.669 Y107.556 E0.00770
G1 X138.205 Y107.557 E0.07951
G1 X138.269 Y107.599 E0.00240
G1 X138.280 Y107.660 E0.00194
G1 X138.234 Y107.717 E0.00228
G1 X137.201 Y108.258 E0.03658
G1 X136.278 Y108.695 E0.03200
G1 X135.340 Y109.097 E0.03201
G1 X134.387 Y109.463 E0.03201
G1 X133.422 Y109.793 E0.03198
G1 X131.454 Y110.343 E0.06405
G1 X130.458 Y110.562 E0.03198
G1 X129.029 Y110.804 E0.04544
G1 X128.441 Y110.887 E0.01862
G1 X127.426 Y110.993 E0.03201
G1 X126.407 Y111.060 E0.03201
G1 X125.387 Y111.089 E0.03201
G1 X124.366 Y111.079 E0.03201
G1 X123.346 Y111.031 E0.03201
G1 X122.329 Y110.945 E0.03198
G1 X120.307 Y110.658 E0.06405
G1 X119.306 Y110.457 E0.03201
G1 X118.313 Y110.220 E0.03201
G1 X117.330 Y109.944 E0.03201
G1 X116.357 Y109.633 E0.03201
G1 X115.398 Y109.284 E0.03201
G1 X114.452 Y108.900 E0.03201
G1 X113.521 Y108.481 E0.03201
G1 X112.606 Y108.027 E0.03202
G1 X111.817 Y107.599 E0.02814
G1 X111.782 Y107.500 F10800.000
G1 F8640
G1 X111.720 Y107.513 E-0.02988
G1 X111.719 Y107.478 E-0.00810
G1 X111.795 Y107.410 E-0.02334
G1 X114.820 Y107.410 E-0.69868
G1 E-0.04000 F2100.00000
G1 Z0.800 F10800.000
G1 X114.377 Y107.900
G1 Z0.200
G1 E0.80000 F2100.00000
G1 F1200
G1 X114.810 Y108.334 E0.01926
G1 X115.705 Y108.694 E0.03033
G1 X115.081 Y108.070 E0.02774
G1 X115.616 Y108.070 E0.01681
G1 X116.544 Y108.998 E0.04127
G1 X117.333 Y109.253 E0.02606
G1 X116.150 Y108.070 E0.05258
G1 X116.685 Y108.070 E0.01681
G1 X118.086 Y109.471 E0.06228
G1 X118.810 Y109.660 E0.02352
G1 X117.220 Y108.070 E0.07070
G1 X117.755 Y108.070 E0.01681
G1 X119.510 Y109.825 E0.07805
G1 X120.178 Y109.959 E0.02143
G1 X118.289 Y108.070 E0.08400
G1 X118.824 Y108.070 E0.01681
G1 X120.827 Y110.073 E0.08908
G1 X121.450 Y110.161 E0.01977
G1 X119.359 Y108.070 E0.09299
G1 X119.893 Y108.070 E0.01681
G1 X122.068 Y110.244 E0.09667
G1 X122.670 Y110.312 E0.01905
G1 X120.428 Y108.070 E0.09968
G1 X120.963 Y108.070 E0.01681
G1 X123.254 Y110.361 E0.10188
G1 X123.821 Y110.393 E0.01784
G1 X121.497 Y108.070 E0.10329
G1 X122.032 Y108.070 E0.01681
G1 X124.382 Y110.419 E0.10447
G1 X124.922 Y110.425 E0.01697
G1 X122.567 Y108.070 E0.10470
G1 X123.101 Y108.070 E0.01681
G1 X125.458 Y110.427 E0.10480
G1 X125.978 Y110.412 E0.01636
G1 X123.636 Y108.070 E0.10415
G1 X124.171 Y108.070 E0.01681
G1 X126.494 Y110.393 E0.10330
G1 X126.996 Y110.360 E0.01581
G1 X124.705 Y108.070 E0.10183
G1 X125.240 Y108.070 E0.01681
G1 X127.493 Y110.322 E0.10017
G1 X127.977 Y110.272 E0.01531
G1 X125.775 Y108.070 E0.09793
G1 X126.309 Y108.069 E0.01681
G1 X128.458 Y110.218 E0.09555
G1 X128.927 Y110.152 E0.01487
G1 X126.844 Y108.069 E0.09259
G1 X127.379 Y108.069 E0.01681
G1 X129.384 Y110.075 E0.08916
G1 X129.841 Y109.997 E0.01458
G1 X127.914 Y108.069 E0.08572
G1 X128.448 Y108.069 E0.01681
G1 X130.299 Y109.920 E0.08228
G1 X130.738 Y109.825 E0.01414
G1 X128.983 Y108.069 E0.07806
G1 X129.518 Y108.069 E0.01681
G1 X131.177 Y109.729 E0.07377
G1 X131.600 Y109.617 E0.01377
G1 X130.001 Y108.018 E0.07110
G1 X130.199 Y107.982 E0.00632
G1 X130.390 Y107.872 E0.00693
G1 X132.018 Y109.500 E0.07241
G1 X132.436 Y109.383 E0.01364
G1 X130.707 Y107.654 E0.07688
G1 X130.826 Y107.540 E0.00519
G1 X130.955 Y107.368 E0.00677
G1 X132.854 Y109.267 E0.08442
G1 X133.269 Y109.147 E0.01359
G1 X131.132 Y107.010 E0.09502
G1 X131.256 Y106.599 E0.01350
G1 X133.668 Y109.011 E0.10725
G1 X134.066 Y108.875 E0.01324
G1 X131.377 Y106.186 E0.11956
G1 X131.499 Y105.773 E0.01354
G1 X134.456 Y108.730 E0.13146
G1 X134.842 Y108.581 E0.01301
G1 X131.620 Y105.360 E0.14323
G1 X131.742 Y104.947 E0.01354
G1 X135.353 Y108.558 E0.16056
G1 X135.538 Y108.263 F10800.000
G1 F1200
G1 X136.080 Y108.142 E0.00277
G1 F8640
G1 X135.538 Y108.263 E-0.12817
G1 E-0.67183 F2100.00000
G1 Z0.800 F10800.000
G1 X134.331 Y107.001
G1 Z0.200
G1 E0.80000 F2100.00000
G1 F1200
G1 X131.864 Y104.534 E0.10969
G1 X131.985 Y104.120 E0.01354
G1 X134.149 Y106.284 E0.09619
G1 X134.266 Y105.866 E0.01363
G1 X132.107 Y103.707 E0.09600
G1 X132.228 Y103.294 E0.01354
G1 X134.386 Y105.452 E0.09592
G1 X134.506 Y105.037 E0.01357
G1 X132.350 Y102.881 E0.09585
G1 X132.472 Y102.468 E0.01354
G1 X134.626 Y104.622 E0.09578
G1 X134.746 Y104.207 E0.01357
G1 X132.593 Y102.055 E0.09570
G1 X132.715 Y101.642 E0.01354
G1 X134.866 Y103.792 E0.09563
G1 X134.986 Y103.378 E0.01357
G1 X132.836 Y101.229 E0.09556
G1 X132.958 Y100.815 E0.01354
G1 X135.106 Y102.963 E0.09548
G1 X135.225 Y102.548 E0.01357
G1 X133.080 Y100.402 E0.09541
G1 X133.201 Y99.989 E0.01354
G1 X135.345 Y102.133 E0.09534
G1 X135.465 Y101.719 E0.01357
G1 X133.323 Y99.576 E0.09526
G1 X133.385 Y99.363 E0.00697
G1 X133.645 Y99.363 E0.00815
G1 X135.585 Y101.304 E0.08628
G1 X135.705 Y100.889 E0.01357
G1 X134.179 Y99.363 E0.06784
G1 X134.714 Y99.363 E0.01681
G1 X135.825 Y100.474 E0.04940
G1 X135.945 Y100.059 E0.01357
G1 X135.249 Y99.363 E0.03096
G1 X135.784 Y99.363 E0.01681
G1 X136.202 Y99.782 E0.01861
M106 S255
;BEFORE_LAYER_CHANGE
G92 E0.0
;0.4


G1 F8640
G1 X135.784 Y99.363 E-0.13665
G1 X135.249 Y99.363 E-0.12347
G1 X135.945 Y100.059 E-0.22735
G1 X135.825 Y100.474 E-0.09970
G1 X135.296 Y99.945 E-0.17284
G1 E-0.04000 F2100.00000
G1 Z0.800 F10800.000
;AFTER_LAYER_CHANGE
;0.4
G1 X138.317 Y96.055
G1 Z0.400
G1 E0.80000 F2100.00000
G1 F1289
G1 X139.032 Y96.422 E0.02521
G1 X139.601 Y96.995 E0.02533
G1 X139.963 Y97.713 E0.02521
G1 X141.267 Y107.661 E0.31459
G1 X141.219 Y108.188 E0.01660
G1 X141.045 Y108.790 E0.01965
G1 X140.762 Y109.328 E0.01904
G1 X140.382 Y109.796 E0.01892
G1 X139.715 Y110.306 E0.02631
G1 X137.702 Y111.324 E0.07075
G1 X135.702 Y112.157 E0.06790
G1 X133.667 Y112.837 E0.06728
G1 X130.416 Y113.605 E0.10474
G1 X128.252 Y113.911 E0.06852
G1 X126.107 Y114.056 E0.06741
G1 X122.740 Y113.977 E0.10561
G1 X120.593 Y113.729 E0.06778
G1 X118.438 Y113.320 E0.06877
G1 X116.318 Y112.755 E0.06877
G1 X114.257 Y112.041 E0.06840
G1 X112.227 Y111.169 E0.06927
G1 X110.179 Y110.096 E0.07249
G1 X109.509 Y109.531 E0.02748
G1 X108.983 Y108.708 E0.03061
G1 X108.821 Y108.221 E0.01610
G1 X108.733 Y107.596 E0.01980
G1 X108.770 Y107.001 E0.01870
G1 X108.935 Y106.391 E0.01981
G1 X109.228 Y105.818 E0.02018
G1 X109.597 Y105.360 E0.01845
G1 X109.984 Y105.022 E0.01610
G1 X110.518 Y104.707 E0.01943
G1 X131.724 Y96.054 E0.71812
G1 X132.462 Y95.928 E0.02349
G1 X137.523 Y95.928 E0.15867
G1 X138.257 Y96.045 E0.02333
G1 F8640
G1 X139.032 Y96.422 E-0.19885
G1 X139.601 Y96.995 E-0.18653
G1 X139.963 Y97.713 E-0.18563
G1 X140.069 Y98.524 E-0.18898
G1 E-0.04000 F2100.00000
G1 Z1.000 F10800.000
G1 X136.630 Y99.125
G1 Z0.400
G1 E0.80000 F2100.00000
M204 S800
G1 F1289
G1 X134.532 Y106.379 E0.25559
G1 X134.506 Y106.811 E0.01464
G1 X134.633 Y107.191 E0.01355
G1 X134.862 Y107.495 E0.01289
G1 X135.175 Y107.711 E0.01289
G1 X135.527 Y107.813 E0.01239
G1 X137.470 Y107.822 E0.06577
G1 X136.174 Y108.455 E0.04881
G1 X134.297 Y109.217 E0.06856
G1 X133.341 Y109.544 E0.03423
G1 X132.372 Y109.835 E0.03423
G1 X131.393 Y110.089 E0.03423
G1 X130.409 Y110.305 E0.03411
G1 X128.989 Y110.546 E0.04876
G1 X128.410 Y110.628 E0.01980
G1 X127.404 Y110.732 E0.03423
G1 X126.395 Y110.799 E0.03423
G1 X125.388 Y110.827 E0.03411
G1 X123.363 Y110.770 E0.06856
G1 X122.355 Y110.685 E0.03423
G1 X121.352 Y110.562 E0.03423
G1 X120.353 Y110.401 E0.03423
G1 X119.362 Y110.202 E0.03423
G1 X118.379 Y109.966 E0.03423
G1 X117.405 Y109.694 E0.03423
G1 X116.442 Y109.385 E0.03423
G1 X115.491 Y109.040 E0.03423
G1 X114.554 Y108.660 E0.03423
G1 X113.633 Y108.245 E0.03423
G1 X112.492 Y107.667 E0.04328
G1 X129.701 Y107.671 E0.58251
G1 X130.033 Y107.610 E0.01143
G1 X130.257 Y107.504 E0.00839
G1 X130.546 Y107.267 E0.01265
G1 X130.754 Y106.892 E0.01452
G1 X133.040 Y99.125 E0.27403
G1 X136.570 Y99.125 E0.11949
M204 S1000
G1 X137.171 Y98.718 F10800.000
M204 S800
G1 F1289
G1 X134.936 Y106.449 E0.27239
G1 X134.918 Y106.757 E0.01044
G1 X134.998 Y106.999 E0.00864
G1 X135.148 Y107.198 E0.00841
G1 X135.352 Y107.339 E0.00841
G1 X135.586 Y107.406 E0.00823
G1 X138.257 Y107.419 E0.09042
G1 X138.381 Y107.495 E0.00491
G1 X138.430 Y107.619 E0.00453
G1 X138.427 Y107.684 E0.00220
G1 X138.367 Y107.798 E0.00436
G1 X138.304 Y107.845 E0.00266
G1 X137.266 Y108.389 E0.03968
G1 X136.339 Y108.827 E0.03469
G1 X134.436 Y109.600 E0.06952
G1 X133.465 Y109.932 E0.03475
G1 X132.482 Y110.227 E0.03475
G1 X131.488 Y110.485 E0.03475
G1 X130.487 Y110.705 E0.03470
G1 X128.459 Y111.032 E0.06952
G1 X127.438 Y111.138 E0.03475
G1 X126.414 Y111.206 E0.03475
G1 X125.389 Y111.234 E0.03470
G1 X123.934 Y111.205 E0.04928
G1 X123.336 Y111.177 E0.02025
G1 X122.313 Y111.090 E0.03475
G1 X121.294 Y110.965 E0.03475
G1 X120.281 Y110.801 E0.03475
G1 X119.275 Y110.600 E0.03475
G1 X118.276 Y110.361 E0.03475
G1 X117.288 Y110.084 E0.03475
G1 X116.310 Y109.771 E0.03475
G1 X115.345 Y109.420 E0.03475
G1 X114.394 Y109.034 E0.03475
G1 X113.458 Y108.613 E0.03475
G1 X112.539 Y108.156 E0.03475
G1 X111.694 Y107.697 E0.03255
G1 X111.594 Y107.598 E0.00474
G1 X111.570 Y107.471 E0.00438
G1 X111.620 Y107.347 E0.00452
G1 X111.670 Y107.304 E0.00226
G1 X111.806 Y107.260 E0.00482
G1 X129.664 Y107.264 E0.60447
G1 X129.907 Y107.219 E0.00836
G1 X130.038 Y107.157 E0.00490
G1 X130.228 Y107.002 E0.00832
G1 X130.376 Y106.734 E0.01035
G1 X132.735 Y98.718 E0.28283
G1 X137.111 Y98.718 E0.14812
M204 S1000
G1 X137.008 Y99.083 F10800.000
G1 F8640
G1 X136.220 Y101.887 E-0.76000
G1 E-0.04000 F2100.00000
G1 Z1.000 F10800.000
G1 X133.841 Y99.248
G1 Z0.400
G1 E0.80000 F2100.00000
M204 S1250
G1 F1289
G1 X133.106 Y99.983 E0.03519
G1 X132.866 Y100.798 E0.02879
G1 X134.234 Y99.431 E0.06548
G1 X134.809 Y99.431 E0.01949
G1 X132.626 Y101.614 E0.10455
G1 X132.386 Y102.430 E0.02879
G1 X135.385 Y99.431 E0.14361
G1 X135.961 Y99.431 E0.01949
G1 X132.145 Y103.246 E0.18267
G1 X131.905 Y104.062 E0.02879
G1 X136.097 Y99.871 E0.20067
G1 X135.862 Y100.681 E0.02855
G1 X131.665 Y104.878 E0.20095
G1 X131.425 Y105.694 E0.02879
G1 X135.628 Y101.491 E0.20124
G1 X135.394 Y102.301 E0.02855
G1 X130.914 Y106.781 E0.21448
M204 S1000
G1 F8640
G1 X133.242 Y104.453 E-0.76000
G1 E-0.04000 F2100.00000
G1 Z1.000 F10800.000
G1 X134.415 Y109.038
G1 Z0.400
G1 E0.80000 F2100.00000
M204 S1250
