; generated by PrusaSlicer 2.0.0+win64 on 2019-10-24 at 12:50:57

; 

; external perimeters extrusion width = 0.45mm
; perimeters extrusion width = 0.45mm
; infill extrusion width = 0.45mm
; solid infill extrusion width = 0.45mm
; top infill extrusion width = 0.40mm
; first layer extrusion width = 0.42mm

M73 P0 R12
M73 Q0 S12
M201 X1000 Y1000 Z1000 E5000 ; sets maximum accelerations, mm/sec^2
M203 X200 Y200 Z12 E120 ; sets maximum feedrates, mm/sec
M204 P1250 R1250 T1250 ; sets acceleration (P, T) and retract acceleration (R), mm/sec^2
M205 X8.00 Y8.00 Z0.40 E1.50 ; sets the jerk limits, mm/sec
M205 S0 T0 ; sets the minimum extruding and travel feed rate, mm/sec
M107
M115 U3.8.0 ; tell printer latest fw version
G90 ; use absolute coordinates
M83 ; extruder relative mode
M104 S215 ; set extruder temp
M140 S60 ; set bed temp
M190 S60 ; wait for bed temp
M109 S215 ; wait for extruder temp
G28 W ; home all without mesh bed level
G80 ; mesh bed leveling
G1 Y-3.0 F1000.0 ; go outside print area
G92 E0.0
G1 X60.0 E9.0 F1000.0 ; intro line
M73 Q0 S12
M73 P0 R12
G1 X100.0 E12.5 F1000.0 ; intro line
G92 E0.0
M221 S95
M900 K30 ; Filament gcode
G21 ; set units to millimeters
G90 ; use absolute coordinates
M83 ; use relative distances for extrusion
;BEFORE_LAYER_CHANGE
G92 E0.0
;0.2


G1 E-0.80000 F2100.00000
G1 Z0.600 F10800.000
;AFTER_LAYER_CHANGE
;0.2
G1 X109.513 Y109.516
G1 Z0.200
G1 E0.80000 F2100.00000
M204 S1000
G1 F1200
G1 X108.993 Y108.699 E0.03036
G1 X108.805 Y108.096 E0.01980
G1 X108.744 Y107.586 E0.01610
G1 X108.782 Y106.991 E0.01870
G1 X108.947 Y106.381 E0.01981
G1 X109.241 Y105.809 E0.02018
G1 X109.611 Y105.350 E0.01844
G1 X109.995 Y105.016 E0.01598
G1 X110.529 Y104.701 E0.01943
G1 X131.732 Y96.060 E0.71790
G1 X132.471 Y95.935 E0.02349
G1 X137.517 Y95.934 E0.15823
G1 X138.193 Y96.026 E0.02140
G1 X138.822 Y96.293 E0.02140
G1 X148.978 Y102.376 E0.37120
G1 X149.439 Y102.747 E0.01857
G1 X149.805 Y103.218 E0.01869
G1 X150.024 Y103.678 E0.01598
G1 X150.148 Y104.173 E0.01598
G1 X151.352 Y113.734 E0.30216
G1 X151.231 Y114.553 E0.02594
G1 X150.928 Y115.250 E0.02385
G1 X150.446 Y115.869 E0.02459
G1 X149.860 Y116.323 E0.02324
G1 X147.815 Y117.362 E0.07193
G1 X145.747 Y118.220 E0.07020
G1 X142.693 Y119.175 E0.10031
G1 X140.470 Y119.654 E0.07131
G1 X137.294 Y120.042 E0.10031
G1 X135.057 Y120.112 E0.07020
G1 X132.822 Y120.015 E0.07015
G1 X129.622 Y119.584 E0.10123
G1 X127.474 Y119.094 E0.06908
G1 X125.378 Y118.453 E0.06871
G1 X123.335 Y117.661 E0.06871
G1 X121.341 Y116.715 E0.06921
G1 X110.165 Y110.074 E0.40760
G1 X109.558 Y109.555 E0.02505
G1 F8640
G1 X108.993 Y108.699 E-0.23687
G1 X108.805 Y108.096 E-0.14578
G1 X108.744 Y107.586 E-0.11859
G1 X108.782 Y106.991 E-0.13768
G1 X108.919 Y106.485 E-0.12108
G1 E-0.04000 F2100.00000
G1 Z0.800 F10800.000
G1 X109.327 Y108.522
G1 Z0.200
G1 E0.80000 F2100.00000
G1 F1200
G1 X109.121 Y107.557 E0.03094
G1 X109.156 Y107.038 E0.01631
G1 X109.307 Y106.498 E0.01757
G1 X109.568 Y105.998 E0.01769
G1 X109.898 Y105.596 E0.01631
G1 X110.708 Y105.033 E0.03094
G1 X131.851 Y96.418 E0.71583
G1 X132.486 Y96.312 E0.02021
G1 X137.517 Y96.311 E0.15772
G1 X138.095 Y96.390 E0.01828
G1 X138.628 Y96.616 E0.01817
G1 X148.771 Y102.691 E0.37072
G1 X149.162 Y103.003 E0.01567
G1 X149.471 Y103.395 E0.01567
G1 X149.775 Y104.227 E0.02777
G1 X150.974 Y113.588 E0.29591
G1 X150.887 Y114.374 E0.02478
G1 X150.632 Y115.007 E0.02140
G1 X150.203 Y115.579 E0.02243
G1 X149.681 Y115.991 E0.02085
G1 X147.657 Y117.019 E0.07116
G1 X145.622 Y117.864 E0.06911
G1 X142.594 Y118.811 E0.09946
G1 X140.407 Y119.282 E0.07014
G1 X137.262 Y119.666 E0.09934
G1 X135.059 Y119.735 E0.06911
G1 X132.858 Y119.640 E0.06908
G1 X129.692 Y119.214 E0.10017
G1 X127.571 Y118.730 E0.06819
G1 X125.502 Y118.097 E0.06785
G1 X123.484 Y117.314 E0.06785
G1 X121.519 Y116.382 E0.06819
G1 X110.374 Y109.760 E0.40648
G1 X109.794 Y109.264 E0.02393
G1 X109.359 Y108.573 E0.02562
G1 F8640
G1 X109.121 Y107.557 E-0.24088
G1 X109.156 Y107.038 E-0.12013
G1 X109.307 Y106.498 E-0.12940
G1 X109.568 Y105.998 E-0.13024
G1 X109.898 Y105.596 E-0.12013
G1 X109.966 Y105.548 E-0.01923
G1 E-0.04000 F2100.00000
G1 Z0.800 F10800.000
G1 X112.983 Y107.781
G1 Z0.200
G1 E0.80000 F2100.00000
G1 F1200
G1 X129.708 Y107.780 E0.52440
G1 X130.100 Y107.708 E0.01250
G1 X130.375 Y107.563 E0.00975
G1 X130.613 Y107.360 E0.00982
G1 X130.760 Y107.165 E0.00765
G1 X130.884 Y106.891 E0.00944
G1 X133.181 Y99.087 E0.25506
G1 X136.517 Y99.087 E0.10458
G1 X134.422 Y106.325 E0.23626
G1 X134.379 Y106.627 E0.00957
G1 X134.399 Y106.877 E0.00785
G1 X134.516 Y107.227 E0.01158
G1 X134.653 Y107.444 E0.00804
G1 X134.937 Y107.716 E0.01234
G1 X135.309 Y107.893 E0.01290
G1 X135.635 Y107.939 E0.01033
G1 X136.991 Y107.939 E0.04253
G1 X136.134 Y108.345 E0.02973
G1 X135.209 Y108.741 E0.03157
G1 X134.269 Y109.102 E0.03157
G1 X133.316 Y109.428 E0.03157
G1 X132.355 Y109.716 E0.03147
G1 X130.962 Y110.061 E0.04499
G1 X130.394 Y110.186 E0.01824
G1 X129.403 Y110.365 E0.03157
G1 X128.406 Y110.507 E0.03157
G1 X127.405 Y110.611 E0.03157
G1 X126.400 Y110.677 E0.03157
G1 X125.394 Y110.705 E0.03157
G1 X124.387 Y110.696 E0.03157
G1 X123.381 Y110.649 E0.03157
G1 X122.381 Y110.564 E0.03147
G1 X120.959 Y110.373 E0.04499
G1 X120.385 Y110.280 E0.01824
G1 X119.398 Y110.083 E0.03157
G1 X118.419 Y109.848 E0.03157
G1 X117.449 Y109.577 E0.03157
G1 X116.490 Y109.269 E0.03157
G1 X115.544 Y108.926 E0.03157
G1 X114.611 Y108.547 E0.03157
G1 X113.693 Y108.134 E0.03157
G1 X113.037 Y107.808 E0.02298
G1 F8640
G1 X116.328 Y107.802 E-0.76000
G1 E-0.04000 F2100.00000
G1 Z0.800 F10800.000
G1 X111.776 Y107.564
G1 Z0.200
G1 E0.80000 F2100.00000
G1 F1200
G1 X111.731 Y107.507 E0.00226
G1 X111.730 Y107.472 E0.00110
G1 X111.805 Y107.404 E0.00317
G1 X129.673 Y107.403 E0.56023
G1 X129.975 Y107.348 E0.00961
G1 X130.162 Y107.249 E0.00664
G1 X130.337 Y107.100 E0.00721
G1 X130.434 Y106.972 E0.00503
G1 X130.530 Y106.759 E0.00732
G1 X132.899 Y98.710 E0.26309
G1 X137.018 Y98.710 E0.12916
G1 X134.791 Y106.404 E0.25116
G1 X134.758 Y106.639 E0.00742
G1 X134.771 Y106.801 E0.00510
G1 X134.859 Y107.064 E0.00871
G1 X134.947 Y107.203 E0.00517
G1 X135.154 Y107.402 E0.00898
G1 X135.418 Y107.527 E0.00918
G1 X135.661 Y107.562 E0.00770
G1 X138.194 Y107.562 E0.07941
G1 X138.258 Y107.605 E0.00241
G1 X138.269 Y107.666 E0.00194
G1 X138.223 Y107.723 E0.00229
G1 X137.212 Y108.252 E0.03580
G1 X136.289 Y108.689 E0.03201
G1 X135.351 Y109.091 E0.03201
G1 X134.398 Y109.457 E0.03201
G1 X133.431 Y109.787 E0.03201
G1 X132.455 Y110.080 E0.03198
G1 X131.048 Y110.429 E0.04544
G1 X130.468 Y110.556 E0.01862
G1 X129.463 Y110.738 E0.03201
G1 X128.452 Y110.881 E0.03201
G1 X127.437 Y110.987 E0.03201
G1 X126.418 Y111.054 E0.03201
G1 X125.397 Y111.083 E0.03201
G1 X124.376 Y111.073 E0.03201
G1 X123.357 Y111.025 E0.03201
G1 X122.340 Y110.939 E0.03198
G1 X120.318 Y110.652 E0.06405
G1 X119.317 Y110.451 E0.03201
G1 X118.324 Y110.213 E0.03201
G1 X117.341 Y109.938 E0.03201
G1 X116.368 Y109.626 E0.03201
G1 X115.408 Y109.278 E0.03201
G1 X114.462 Y108.894 E0.03201
G1 X113.532 Y108.475 E0.03201
G1 X112.617 Y108.021 E0.03202
G1 X111.828 Y107.592 E0.02814
G1 X111.793 Y107.494 F10800.000
G1 F8640
G1 X111.731 Y107.507 E-0.02988
G1 X111.730 Y107.472 E-0.00810
G1 X111.805 Y107.404 E-0.02334
G1 X114.831 Y107.404 E-0.69868
G1 E-0.04000 F2100.00000
G1 Z0.800 F10800.000
G1 X114.387 Y107.894
G1 Z0.200
G1 E0.80000 F2100.00000
G1 F1200
G1 X114.820 Y108.327 E0.01922
G1 X115.714 Y108.687 E0.03028
G1 X115.091 Y108.064 E0.02768
G1 X115.625 Y108.064 E0.01678
G1 X116.552 Y108.991 E0.04119
G1 X117.341 Y109.245 E0.02602
G1 X116.159 Y108.064 E0.05248
G1 X116.693 Y108.064 E0.01678
G1 X118.093 Y109.464 E0.06218
G1 X118.817 Y109.653 E0.02349
G1 X117.227 Y108.064 E0.07059
G1 X117.762 Y108.064 E0.01678
G1 X119.516 Y109.818 E0.07793
G1 X120.184 Y109.952 E0.02139
G1 X118.296 Y108.064 E0.08387
G1 X118.830 Y108.064 E0.01678
G1 X120.833 Y110.066 E0.08895
G1 X121.455 Y110.154 E0.01974
G1 X119.364 Y108.064 E0.09286
G1 X119.898 Y108.064 E0.01678
G1 X122.072 Y110.237 E0.09654
G1 X122.674 Y110.305 E0.01903
G1 X120.433 Y108.064 E0.09956
G1 X120.967 Y108.064 E0.01678
G1 X123.258 Y110.354 E0.10176
G1 X123.824 Y110.386 E0.01781
G1 X121.501 Y108.063 E0.10318
G1 X122.035 Y108.063 E0.01678
G1 X124.384 Y110.413 E0.10436
G1 X124.924 Y110.418 E0.01695
G1 X122.569 Y108.063 E0.10460
G1 X123.104 Y108.063 E0.01678
G1 X125.461 Y110.421 E0.10471
G1 X125.980 Y110.406 E0.01633
G1 X123.638 Y108.063 E0.10406
G1 X124.172 Y108.063 E0.01678
G1 X126.496 Y110.387 E0.10323
G1 X126.997 Y110.354 E0.01578
G1 X124.706 Y108.063 E0.10177
G1 X125.240 Y108.063 E0.01678
G1 X127.494 Y110.317 E0.10012
G1 X127.978 Y110.267 E0.01528
G1 X125.774 Y108.063 E0.09789
G1 X126.309 Y108.063 E0.01678
G1 X128.459 Y110.214 E0.09552
G1 X128.927 Y110.147 E0.01484
G1 X126.843 Y108.063 E0.09258
G1 X127.377 Y108.063 E0.01678
G1 X129.393 Y110.080 E0.08957
G1 X129.846 Y109.998 E0.01444
G1 X127.911 Y108.063 E0.08594
G1 X128.445 Y108.063 E0.01678
G1 X130.298 Y109.916 E0.08231
G1 X130.738 Y109.821 E0.01412
G1 X128.980 Y108.063 E0.07810
G1 X129.514 Y108.063 E0.01678
G1 X131.169 Y109.719 E0.07354
G1 X131.598 Y109.613 E0.01385
G1 X129.999 Y108.014 E0.07100
G1 X130.194 Y107.979 E0.00621
G1 X130.392 Y107.873 E0.00706
G1 X132.026 Y109.506 E0.07255
G1 X132.447 Y109.393 E0.01370
G1 X130.706 Y107.653 E0.07733
G1 X130.820 Y107.555 E0.00472
G1 X130.959 Y107.371 E0.00723
G1 X132.858 Y109.270 E0.08435
G1 X133.267 Y109.146 E0.01345
G1 X131.138 Y107.016 E0.09459
G1 X131.263 Y106.607 E0.01345
G1 X133.666 Y109.010 E0.10674
G1 X134.064 Y108.874 E0.01322
G1 X131.384 Y106.194 E0.11903
G1 X131.506 Y105.781 E0.01351
G1 X134.453 Y108.729 E0.13093
G1 X134.839 Y108.580 E0.01299
G1 X131.627 Y105.368 E0.14267
G1 X131.748 Y104.956 E0.01351
G1 X135.221 Y108.428 E0.15425
G1 X135.595 Y108.268 E0.01278
G1 X135.538 Y108.211 E0.00254
G1 F8640
G1 X135.595 Y108.268 E-0.01870
G1 X135.221 Y108.428 E-0.09396
G1 X133.239 Y106.446 E-0.64734
G1 E-0.04000 F2100.00000
G1 Z0.800 F10800.000
G1 X134.108 Y106.780
G1 Z0.200
G1 E0.80000 F2100.00000
G1 F1200
G1 X131.870 Y104.543 E0.09940
G1 X131.991 Y104.130 E0.01351
G1 X134.142 Y106.281 E0.09554
G1 X134.260 Y105.865 E0.01359
G1 X132.113 Y103.717 E0.09540
G1 X132.234 Y103.305 E0.01351
G1 X134.380 Y105.451 E0.09533
G1 X134.500 Y105.036 E0.01355
G1 X132.356 Y102.892 E0.09526
G1 X132.477 Y102.479 E0.01351
G1 X134.620 Y104.622 E0.09519
G1 X134.740 Y104.208 E0.01355
G1 X132.599 Y102.066 E0.09512
G1 X132.720 Y101.654 E0.01351
G1 X134.860 Y103.793 E0.09505
G1 X134.980 Y103.379 E0.01355
G1 X132.842 Y101.241 E0.09498
G1 X132.963 Y100.828 E0.01351
G1 X135.100 Y102.965 E0.09491
G1 X135.220 Y102.550 E0.01355
G1 X133.085 Y100.415 E0.09484
G1 X133.206 Y100.003 E0.01351
G1 X135.340 Y102.136 E0.09477
G1 X135.460 Y101.722 E0.01355
G1 X133.328 Y99.590 E0.09470
G1 X133.393 Y99.370 E0.00722
G1 X133.641 Y99.370 E0.00782
G1 X135.579 Y101.308 E0.08609
G1 X135.699 Y100.893 E0.01355
G1 X134.176 Y99.370 E0.06768
G1 X134.710 Y99.370 E0.01678
G1 X135.819 Y100.479 E0.04928
G1 X135.939 Y100.065 E0.01355
G1 X135.244 Y99.370 E0.03088
G1 X135.778 Y99.370 E0.01678
G1 X136.196 Y99.787 E0.01856
G1 F8640
G1 X135.778 Y99.370 E-0.13642
G1 X135.244 Y99.370 E-0.12335
G1 X135.939 Y100.065 E-0.22697
G1 X135.819 Y100.479 E-0.09959
G1 X135.287 Y99.947 E-0.17367
G1 E-0.04000 F2100.00000
G1 Z0.800 F10800.000
G1 X143.278 Y105.133
G1 Z0.200
G1 E0.80000 F2100.00000
G1 F1200
G1 X146.613 Y105.133 E0.10458
G1 X144.518 Y112.371 E0.23626
G1 X144.475 Y112.673 E0.00957
G1 X144.496 Y112.923 E0.00785
G1 X144.613 Y113.273 E0.01158
G1 X144.750 Y113.490 E0.00804
G1 X145.033 Y113.762 E0.01234
G1 X145.405 Y113.939 E0.01290
G1 X145.731 Y113.985 E0.01033
G1 X147.088 Y113.985 E0.04253
G1 X146.231 Y114.391 E0.02973
G1 X145.305 Y114.787 E0.03157
G1 X144.365 Y115.148 E0.03157
G1 X143.413 Y115.474 E0.03157
G1 X142.451 Y115.762 E0.03147
G1 X140.490 Y116.232 E0.06323
G1 X139.500 Y116.411 E0.03157
G1 X138.503 Y116.553 E0.03157
G1 X137.501 Y116.657 E0.03157
G1 X136.497 Y116.723 E0.03157
G1 X135.490 Y116.751 E0.03157
G1 X134.484 Y116.742 E0.03157
G1 X133.478 Y116.695 E0.03157
G1 X132.478 Y116.610 E0.03147
G1 X131.056 Y116.419 E0.04499
G1 X130.481 Y116.326 E0.01824
G1 X129.494 Y116.129 E0.03157
G1 X128.515 Y115.894 E0.03157
G1 X127.545 Y115.623 E0.03157
G1 X126.587 Y115.315 E0.03157
G1 X125.640 Y114.972 E0.03157
G1 X124.707 Y114.593 E0.03157
G1 X123.789 Y114.180 E0.03157
G1 X123.079 Y113.827 E0.02486
G1 X139.804 Y113.826 E0.52440
G1 X140.196 Y113.754 E0.01250
G1 X140.471 Y113.609 E0.00975
G1 X140.710 Y113.406 E0.00982
G1 X140.857 Y113.211 E0.00765
G1 X140.981 Y112.937 E0.00944
G1 X143.261 Y105.190 E0.25318
G1 X142.995 Y104.756 F10800.000
G1 F1200
G1 X147.115 Y104.756 E0.12916
G1 X144.888 Y112.450 E0.25116
G1 X144.855 Y112.685 E0.00742
G1 X144.868 Y112.847 E0.00510
G1 X144.956 Y113.110 E0.00871
G1 X145.044 Y113.249 E0.00517
G1 X145.250 Y113.448 E0.00898
G1 X145.515 Y113.573 E0.00918
G1 X145.758 Y113.608 E0.00770
G1 X148.291 Y113.608 E0.07941
G1 X148.355 Y113.651 E0.00241
G1 X148.365 Y113.712 E0.00194
G1 X148.320 Y113.769 E0.00229
G1 X147.308 Y114.298 E0.03580
G1 X146.386 Y114.735 E0.03201
G1 X145.447 Y115.137 E0.03201
G1 X144.494 Y115.503 E0.03201
G1 X143.528 Y115.833 E0.03201
G1 X142.551 Y116.126 E0.03198
G1 X141.144 Y116.475 E0.04544
G1 X140.564 Y116.602 E0.01862
G1 X139.560 Y116.784 E0.03201
G1 X138.549 Y116.927 E0.03201
G1 X137.533 Y117.033 E0.03201
G1 X136.515 Y117.100 E0.03201
G1 X135.494 Y117.129 E0.03201
G1 X134.473 Y117.119 E0.03201
G1 X133.453 Y117.071 E0.03201
G1 X132.437 Y116.985 E0.03198
G1 X130.414 Y116.698 E0.06405
G1 X129.413 Y116.497 E0.03201
G1 X128.420 Y116.259 E0.03201
G1 X127.437 Y115.984 E0.03201
G1 X126.465 Y115.672 E0.03201
G1 X125.505 Y115.324 E0.03201
G1 X124.559 Y114.940 E0.03201
G1 X123.628 Y114.521 E0.03201
G1 X122.714 Y114.067 E0.03202
G1 X121.872 Y113.610 E0.03002
G1 X121.828 Y113.553 E0.00226
G1 X121.839 Y113.491 E0.00197
G1 X121.902 Y113.450 E0.00236
G1 X139.770 Y113.449 E0.56023
G1 X140.071 Y113.394 E0.00961
G1 X140.258 Y113.295 E0.00664
G1 X140.434 Y113.146 E0.00721
G1 X140.530 Y113.018 E0.00503
G1 X140.626 Y112.805 E0.00732
G1 X142.979 Y104.813 E0.26120
G1 X143.321 Y104.988 F10800.000
G1 F8640
G1 X146.270 Y104.767 E-0.76000
G1 E-0.04000 F2100.00000
G1 Z0.800 F10800.000
G1 X146.293 Y105.833
G1 Z0.200
G1 E0.80000 F2100.00000
G1 F1200
G1 X145.875 Y105.416 E0.01856
G1 X145.341 Y105.416 E0.01678
G1 X146.036 Y106.111 E0.03088
G1 X145.916 Y106.525 E0.01355
G1 X144.806 Y105.416 E0.04928
G1 X144.272 Y105.416 E0.01678
G1 X145.796 Y106.939 E0.06768
G1 X145.676 Y107.354 E0.01355
G1 X143.738 Y105.416 E0.08609
G1 X143.489 Y105.416 E0.00782
G1 X143.424 Y105.636 E0.00722
G1 X145.556 Y107.768 E0.09470
G1 X145.436 Y108.182 E0.01355
G1 X143.303 Y106.049 E0.09477
G1 X143.181 Y106.461 E0.01351
G1 X145.316 Y108.597 E0.09484
G1 X145.196 Y109.011 E0.01355
G1 X143.060 Y106.874 E0.09491
G1 X142.938 Y107.287 E0.01351
G1 X145.076 Y109.425 E0.09498
G1 X144.957 Y109.839 E0.01355
G1 X142.817 Y107.700 E0.09505
G1 X142.695 Y108.112 E0.01351
G1 X144.837 Y110.254 E0.09512
G1 X144.717 Y110.668 E0.01355
G1 X142.574 Y108.525 E0.09519
G1 X142.452 Y108.938 E0.01351
G1 X144.597 Y111.082 E0.09526
G1 X144.477 Y111.497 E0.01355
G1 X142.331 Y109.351 E0.09533
G1 X142.209 Y109.763 E0.01351
G1 X144.357 Y111.911 E0.09540
G1 X144.239 Y112.327 E0.01359
G1 X142.088 Y110.176 E0.09554
G1 X141.967 Y110.589 E0.01351
G1 X144.204 Y112.826 E0.09940
G1 F8640
G1 X141.967 Y110.589 E-0.73068
G1 X142.002 Y110.467 E-0.02932
G1 E-0.04000 F2100.00000
G1 Z0.800 F10800.000
G1 X145.634 Y114.257
G1 Z0.200
G1 E0.80000 F2100.00000
G1 F1200
G1 X145.692 Y114.314 E0.00254
G1 X145.318 Y114.474 E0.01278
G1 X141.845 Y111.002 E0.15425
G1 X141.724 Y111.414 E0.01351
G1 X144.935 Y114.626 E0.14267
G1 X144.550 Y114.775 E0.01299
G1 X141.602 Y111.827 E0.13093
G1 X141.481 Y112.240 E0.01351
G1 X144.160 Y114.920 E0.11903
G1 X143.762 Y115.056 E0.01322
G1 X141.359 Y112.653 E0.10674
G1 X141.234 Y113.062 E0.01345
G1 X143.364 Y115.192 E0.09459
G1 X142.954 Y115.316 E0.01345
G1 X141.055 Y113.417 E0.08435
G1 X140.917 Y113.601 E0.00723
