; generated by PrusaSlicer 2.0.0+win64 on 2019-11-13 at 16:35:07

; 

; external perimeters extrusion width = 0.45mm
; perimeters extrusion width = 0.45mm
; infill extrusion width = 0.45mm
; solid infill extrusion width = 0.45mm
; top infill extrusion width = 0.40mm
; first layer extrusion width = 0.42mm

M73 P0 R12
M73 Q0 S12
M201 X1000 Y1000 Z1000 E5000 ; sets maximum accelerations, mm/sec^2
M203 X200 Y200 Z12 E120 ; sets maximum feedrates, mm/sec
M204 P1250 R1250 T1250 ; sets acceleration (P, T) and retract acceleration (R), mm/sec^2
M205 X8.00 Y8.00 Z0.40 E1.50 ; sets the jerk limits, mm/sec
M205 S0 T0 ; sets the minimum extruding and travel feed rate, mm/sec
M107
M115 U3.8.1 ; tell printer latest fw version
G90 ; use absolute coordinates
M83 ; extruder relative mode
M104 S215 ; set extruder temp
M140 S60 ; set bed temp
M190 S60 ; wait for bed temp
M109 S215 ; wait for extruder temp
G28 W ; home all without mesh bed level
G80 ; mesh bed leveling
G1 Y-3.0 F1000.0 ; go outside print area
G92 E0.0
G1 X60.0 E9.0 F1000.0 ; intro line
M73 Q0 S12
M73 P0 R12
G1 X100.0 E12.5 F1000.0 ; intro line
G92 E0.0
M221 S95
M900 K30 ; Filament gcode
G21 ; set units to millimeters
G90 ; use absolute coordinates
M83 ; use relative distances for extrusion
;BEFORE_LAYER_CHANGE
G92 E0.0
;0.2


G1 E-0.80000 F2100.00000
G1 Z0.600 F10800.000
;AFTER_LAYER_CHANGE
;0.2
G1 X121.182 Y95.087
G1 Z0.200
G1 E0.80000 F2100.00000
M204 S1000
G1 F1200
G1 X121.613 Y94.353 E0.02668
G1 X121.989 Y93.987 E0.01647
G1 X122.436 Y93.703 E0.01660
G1 X122.932 Y93.517 E0.01660
G1 X123.455 Y93.437 E0.01660
G1 X140.797 Y93.434 E0.54374
G1 X141.725 Y93.610 E0.02961
G1 X142.527 Y94.109 E0.02961
G1 X143.094 Y94.864 E0.02961
G1 X143.349 Y95.773 E0.02961
G1 X143.358 Y114.075 E0.57385
G1 X143.192 Y114.910 E0.02668
G1 X142.760 Y115.647 E0.02680
G1 X142.365 Y116.028 E0.01721
G1 X141.897 Y116.316 E0.01721
G1 X141.379 Y116.498 E0.01721
G1 X140.834 Y116.565 E0.01721
G1 X123.496 Y116.564 E0.54362
G1 X122.666 Y116.398 E0.02655
G1 X121.932 Y115.967 E0.02668
G1 X121.552 Y115.571 E0.01721
G1 X121.264 Y115.104 E0.01721
G1 X121.081 Y114.582 E0.01734
G1 X121.014 Y114.037 E0.01721
G1 X121.015 Y95.921 E0.56803
G1 X121.170 Y95.145 E0.02480
G1 F8640
G1 X121.613 Y94.353 E-0.20959
G1 X121.989 Y93.987 E-0.12131
G1 X122.436 Y93.703 E-0.12222
G1 X122.932 Y93.517 E-0.12222
G1 X123.455 Y93.437 E-0.12222
G1 X123.726 Y93.437 E-0.06243
G1 E-0.04000 F2100.00000
G1 Z0.800 F10800.000
G1 X122.624 Y94.031
G1 Z0.200
G1 E0.80000 F2100.00000
G1 F1200
G1 X123.490 Y93.813 E0.02799
G1 X140.797 Y93.811 E0.54265
G1 X141.596 Y93.964 E0.02552
G1 X142.282 Y94.396 E0.02541
G1 X142.765 Y95.051 E0.02552
G1 X142.975 Y95.833 E0.02541
G1 X142.981 Y114.058 E0.57143
G1 X142.836 Y114.786 E0.02326
G1 X142.458 Y115.421 E0.02315
G1 X141.722 Y115.981 E0.02900
G1 X140.821 Y116.188 E0.02900
G1 X123.517 Y116.188 E0.54254
G1 X122.793 Y116.042 E0.02315
G1 X122.159 Y115.665 E0.02315
G1 X121.598 Y114.929 E0.02900
G1 X121.391 Y114.024 E0.02911
G1 X121.392 Y95.942 E0.56697
G1 X121.537 Y95.214 E0.02326
G1 X121.915 Y94.579 E0.02315
G1 X122.576 Y94.068 E0.02622
G1 F8640
G1 X123.490 Y93.813 E-0.21891
G1 X125.833 Y93.813 E-0.54109
G1 E-0.04000 F2100.00000
G1 Z0.800 F10800.000
G1 X136.793 Y112.975
G1 Z0.200
G1 E0.80000 F2100.00000
G1 F1200
G1 X137.022 Y113.217 E0.01044
G1 X137.327 Y113.413 E0.01137
G1 X136.259 Y113.413 E0.03347
G1 X136.565 Y113.217 E0.01137
G1 X136.758 Y113.024 E0.00858
G1 F8640
G1 X137.022 Y113.217 E-0.07545
G1 X137.327 Y113.413 E-0.08370
G1 X136.259 Y113.413 E-0.24646
G1 X136.565 Y113.217 E-0.08370
G1 X136.758 Y113.024 E-0.06320
G1 E-0.24750 F2100.00000
G1 Z0.800 F10800.000
G1 X136.793 Y97.025
G1 Z0.200
G1 E0.80000 F2100.00000
G1 F1200
G1 X136.565 Y96.783 E0.01044
G1 X136.259 Y96.587 E0.01137
G1 X137.327 Y96.587 E0.03347
G1 X137.022 Y96.783 E0.01137
G1 X136.828 Y96.976 E0.00858
G1 F8640
G1 X136.565 Y96.783 E-0.07545
G1 X136.259 Y96.587 E-0.08370
G1 X137.327 Y96.587 E-0.24646
G1 X137.022 Y96.783 E-0.08370
G1 X136.828 Y96.976 E-0.06320
G1 E-0.24750 F2100.00000
G1 Z0.800 F10800.000
G1 X140.583 Y96.790
G1 Z0.200
G1 E0.80000 F2100.00000
G1 F1200
G1 X138.034 Y96.790 E0.07993
G1 X137.833 Y96.808 E0.00633
G1 X137.629 Y96.862 E0.00662
G1 X137.438 Y96.951 E0.00662
G1 X137.265 Y97.072 E0.00662
G1 X137.116 Y97.222 E0.00662
G1 X136.995 Y97.395 E0.00662
G1 X136.905 Y97.586 E0.00662
G1 X136.851 Y97.790 E0.00662
G1 X136.833 Y97.991 E0.00633
G1 X136.833 Y112.009 E0.43954
G1 X136.851 Y112.210 E0.00633
G1 X136.905 Y112.414 E0.00662
G1 X136.995 Y112.605 E0.00662
G1 X137.116 Y112.778 E0.00662
G1 X137.265 Y112.928 E0.00662
G1 X137.438 Y113.049 E0.00662
G1 X137.629 Y113.138 E0.00662
G1 X137.833 Y113.192 E0.00662
G1 X138.034 Y113.210 E0.00633
G1 X140.583 Y113.210 E0.07993
G1 X140.583 Y113.790 E0.01819
G1 X133.003 Y113.790 E0.23767
G1 X133.003 Y113.210 E0.01819
G1 X135.552 Y113.210 E0.07993
G1 X135.753 Y113.192 E0.00633
G1 X135.957 Y113.138 E0.00662
G1 X136.149 Y113.049 E0.00662
G1 X136.321 Y112.928 E0.00662
G1 X136.471 Y112.778 E0.00662
G1 X136.592 Y112.605 E0.00662
G1 X136.681 Y112.414 E0.00662
G1 X136.736 Y112.210 E0.00662
G1 X136.753 Y112.009 E0.00633
G1 X136.753 Y97.991 E0.43954
G1 X136.736 Y97.790 E0.00633
G1 X136.681 Y97.586 E0.00662
G1 X136.592 Y97.395 E0.00662
G1 X136.471 Y97.222 E0.00662
G1 X136.321 Y97.072 E0.00662
G1 X136.149 Y96.951 E0.00662
G1 X135.975 Y96.870 E0.00602
G1 X135.755 Y96.808 E0.00716
G1 X135.552 Y96.790 E0.00638
G1 X133.003 Y96.790 E0.07993
G1 X133.003 Y96.210 E0.01819
G1 X140.583 Y96.210 E0.23767
G1 X140.583 Y96.730 E0.01630
G1 X140.183 Y96.780 F10800.000
G1 X140.395 Y96.500
G1 F1200
G1 X138.026 Y96.500 E0.03997
G1 X137.511 Y96.546 E0.00872
G1 F8640
G1 X138.026 Y96.500 E-0.11936
G1 X140.395 Y96.500 E-0.54698
G1 E-0.13366 F2100.00000
G1 Z0.800 F10800.000
G1 X136.075 Y96.548
G1 Z0.200
G1 E0.80000 F2100.00000
G1 F1200
G1 X135.821 Y96.512 E0.00560
G1 X135.569 Y96.500 E0.00475
G1 X133.192 Y96.500 E0.04020
G1 F8640
G1 X135.569 Y96.500 E-0.54902
G1 E-0.25098 F2100.00000
G1 Z0.800 F10800.000
G1 X133.192 Y113.500
G1 Z0.200
G1 E0.80000 F2100.00000
G1 F1200
G1 X135.569 Y113.500 E0.04020
G1 X135.816 Y113.488 E0.00464
G1 X136.075 Y113.454 E0.00568
G1 F8640
G1 X135.816 Y113.488 E-0.06052
G1 E-0.73948 F2100.00000
G1 Z0.800 F10800.000
G1 X137.511 Y113.454
G1 Z0.200
G1 E0.80000 F2100.00000
G1 F1200
G1 X138.026 Y113.500 E0.00872
G1 X140.395 Y113.500 E0.03997
G1 F8640
G1 X138.026 Y113.500 E-0.54698
G1 X137.511 Y113.454 E-0.11937
G1 E-0.13366 F2100.00000
G1 Z0.800 F10800.000
G1 X128.363 Y113.413
G1 Z0.200
G1 E0.80000 F2100.00000
G1 F1200
G1 X126.796 Y113.413 E0.04914
G1 X127.101 Y113.217 E0.01137
G1 X127.297 Y113.022 E0.00869
G1 X127.456 Y112.795 E0.00869
G1 X127.580 Y112.519 E0.00947
G1 X127.703 Y112.795 E0.00947
G1 X127.862 Y113.022 E0.00869
G1 X128.058 Y113.217 E0.00869
G1 X128.309 Y113.388 E0.00950
G1 F8640
G1 X126.796 Y113.413 E-0.34940
G1 X127.101 Y113.217 E-0.08370
G1 X127.297 Y113.022 E-0.06397
G1 X127.456 Y112.795 E-0.06397
G1 X127.580 Y112.519 E-0.06971
G1 X127.703 Y112.795 E-0.06971
G1 X127.851 Y113.006 E-0.05955
G1 E-0.04000 F2100.00000
G1 Z0.800 F10800.000
G1 X127.580 Y97.481
G1 Z0.200
G1 E0.80000 F2100.00000
G1 F1200
G1 X127.456 Y97.205 E0.00947
G1 X127.297 Y96.978 E0.00869
G1 X127.101 Y96.783 E0.00869
G1 X126.796 Y96.587 E0.01137
G1 X128.363 Y96.587 E0.04914
G1 X128.058 Y96.783 E0.01137
G1 X127.862 Y96.978 E0.00869
G1 X127.716 Y97.187 E0.00799
G1 X127.600 Y97.425 E0.00828
G1 F8640
G1 X127.456 Y97.205 E-0.06068
G1 X127.297 Y96.978 E-0.06397
G1 X127.101 Y96.783 E-0.06397
G1 X126.796 Y96.587 E-0.08370
G1 X128.363 Y96.587 E-0.36191
G1 X128.058 Y96.783 E-0.08370
G1 X127.929 Y96.911 E-0.04209
G1 E-0.04000 F2100.00000
G1 Z0.800 F10800.000
G1 X131.370 Y96.790
G1 Z0.200
G1 E0.80000 F2100.00000
G1 F1200
G1 X129.070 Y96.790 E0.07209
G1 X128.869 Y96.808 E0.00633
G1 X128.665 Y96.862 E0.00662
G1 X128.474 Y96.951 E0.00662
G1 X128.301 Y97.072 E0.00662
G1 X128.152 Y97.222 E0.00662
G1 X128.042 Y97.379 E0.00602
G1 X127.942 Y97.584 E0.00716
G1 X127.887 Y97.790 E0.00667
G1 X127.870 Y97.991 E0.00633
G1 X127.870 Y112.009 E0.43954
G1 X127.887 Y112.210 E0.00633
G1 X127.942 Y112.414 E0.00662
G1 X128.031 Y112.605 E0.00662
G1 X128.152 Y112.778 E0.00662
G1 X128.301 Y112.928 E0.00662
G1 X128.474 Y113.049 E0.00662
G1 X128.665 Y113.138 E0.00662
G1 X128.869 Y113.192 E0.00662
G1 X129.070 Y113.210 E0.00633
G1 X131.370 Y113.210 E0.07209
G1 X131.370 Y113.790 E0.01819
G1 X123.790 Y113.790 E0.23767
G1 X123.790 Y113.210 E0.01819
G1 X126.089 Y113.210 E0.07209
G1 X126.290 Y113.192 E0.00633
G1 X126.494 Y113.138 E0.00662
G1 X126.685 Y113.049 E0.00662
G1 X126.858 Y112.928 E0.00662
G1 X127.007 Y112.778 E0.00662
G1 X127.128 Y112.605 E0.00662
G1 X127.217 Y112.414 E0.00662
G1 X127.272 Y112.210 E0.00662
G1 X127.290 Y112.009 E0.00633
G1 X127.290 Y97.991 E0.43954
G1 X127.272 Y97.790 E0.00633
G1 X127.217 Y97.586 E0.00662
G1 X127.128 Y97.395 E0.00662
G1 X127.007 Y97.222 E0.00662
G1 X126.858 Y97.072 E0.00662
G1 X126.685 Y96.951 E0.00662
G1 X126.511 Y96.870 E0.00602
G1 X126.291 Y96.808 E0.00716
G1 X126.089 Y96.790 E0.00638
G1 X123.790 Y96.790 E0.07209
G1 X123.790 Y96.210 E0.01819
G1 X131.370 Y96.210 E0.23767
G1 X131.370 Y96.730 E0.01630
G1 X130.970 Y96.780 F10800.000
G1 X131.181 Y96.500
G1 F1200
G1 X129.062 Y96.500 E0.03575
G1 X128.547 Y96.546 E0.00872
G1 X127.785 Y96.776 F10800.000
G1 F1200
G1 X127.484 Y96.916 E0.00285
G1 X127.374 Y96.776 F10800.000
G1 F1200
G1 X127.675 Y96.916 E0.00285
G1 X127.580 Y97.669 F10800.000
G1 F1200
G1 X127.580 Y97.974 E0.00598
G1 X127.580 Y97.974 F10800.000
G1 F1200
G1 X127.580 Y112.331 E0.24317
G1 X127.675 Y113.084 F10800.000
G1 F1200
G1 X127.374 Y113.224 E0.00285
G1 X127.484 Y113.084 F10800.000
G1 F1200
G1 X127.785 Y113.224 E0.00285
G1 X128.547 Y113.454 F10800.000
G1 F1200
G1 X129.062 Y113.500 E0.00872
G1 X131.181 Y113.500 E0.03575
G1 F8640
G1 X129.062 Y113.500 E-0.48925
G1 X128.547 Y113.454 E-0.11937
G1 E-0.19138 F2100.00000
G1 Z0.800 F10800.000
G1 X126.612 Y113.454
G1 Z0.200
G1 E0.80000 F2100.00000
G1 F1200
G1 X126.352 Y113.488 E0.00568
G1 X126.106 Y113.500 E0.00464
G1 X123.978 Y113.500 E0.03597
G1 F8640
G1 X126.106 Y113.500 E-0.49130
G1 E-0.30870 F2100.00000
G1 Z0.800 F10800.000
G1 X123.978 Y96.500
G1 Z0.200
G1 E0.80000 F2100.00000
G1 F1200
G1 X126.106 Y96.500 E0.03597
G1 X126.357 Y96.512 E0.00475
G1 X126.611 Y96.548 E0.00560
M106 S255
;BEFORE_LAYER_CHANGE
G92 E0.0
;0.4


G1 F8640
G1 X126.357 Y96.512 E-0.05933
G1 E-0.74067 F2100.00000
G1 Z0.800 F10800.000
;AFTER_LAYER_CHANGE
;0.4
G1 X121.182 Y95.087
G1 Z0.400
G1 E0.80000 F2100.00000
G1 F900
G1 X121.613 Y94.353 E0.02668
G1 X121.989 Y93.987 E0.01647
G1 X122.436 Y93.703 E0.01660
G1 X122.932 Y93.517 E0.01660
G1 X123.455 Y93.437 E0.01660
G1 X140.797 Y93.434 E0.54374
G1 X141.725 Y93.610 E0.02961
G1 X142.527 Y94.109 E0.02961
G1 X143.094 Y94.864 E0.02961
G1 X143.349 Y95.773 E0.02961
G1 X143.358 Y114.075 E0.57385
G1 X143.192 Y114.910 E0.02668
G1 X142.760 Y115.647 E0.02680
G1 X142.365 Y116.028 E0.01721
G1 X141.897 Y116.316 E0.01721
G1 X141.379 Y116.498 E0.01721
G1 X140.834 Y116.565 E0.01721
G1 X123.496 Y116.564 E0.54362
G1 X122.666 Y116.398 E0.02655
G1 X121.932 Y115.967 E0.02668
G1 X121.552 Y115.571 E0.01721
G1 X121.264 Y115.104 E0.01721
G1 X121.081 Y114.582 E0.01734
G1 X121.014 Y114.037 E0.01721
G1 X121.015 Y95.921 E0.56803
G1 X121.170 Y95.145 E0.02480
G1 F8640
G1 X121.613 Y94.353 E-0.20959
G1 X121.989 Y93.987 E-0.12131
G1 X122.436 Y93.703 E-0.12222
G1 X122.932 Y93.517 E-0.12222
G1 X123.455 Y93.437 E-0.12222
G1 X123.726 Y93.437 E-0.06243
G1 E-0.04000 F2100.00000
G1 Z1.000 F10800.000
G1 X136.793 Y113.053
G1 Z0.400
G1 E0.80000 F2100.00000
M204 S800
G1 F900
G1 X136.993 Y113.252 E0.00954
G1 X137.158 Y113.368 E0.00684
G1 X136.428 Y113.368 E0.02470
G1 X136.594 Y113.252 E0.00684
G1 X136.751 Y113.095 E0.00751
M204 S1000
G1 F8640
G1 X136.993 Y113.252 E-0.06656
G1 X137.158 Y113.368 E-0.04663
G1 X136.428 Y113.368 E-0.16846
G1 X136.594 Y113.252 E-0.04663
G1 X136.751 Y113.095 E-0.05125
G1 E-0.42047 F2100.00000
G1 Z1.000 F10800.000
G1 X136.793 Y96.947
G1 Z0.400
G1 E0.80000 F2100.00000
M204 S800
G1 F900
G1 X136.594 Y96.748 E0.00954
G1 X136.428 Y96.632 E0.00684
G1 X137.158 Y96.632 E0.02470
G1 X136.993 Y96.748 E0.00684
G1 X136.836 Y96.905 E0.00751
M204 S1000
G1 F8640
G1 X136.594 Y96.748 E-0.06656
G1 X136.428 Y96.632 E-0.04663
G1 X137.158 Y96.632 E-0.16846
G1 X136.993 Y96.748 E-0.04663
G1 X136.836 Y96.905 E-0.05125
G1 E-0.42047 F2100.00000
G1 Z1.000 F10800.000
G1 X140.568 Y96.775
G1 Z0.400
G1 E0.80000 F2100.00000
M204 S800
G1 F900
G1 X138.033 Y96.775 E0.08580
G1 X137.830 Y96.793 E0.00690
G1 X137.624 Y96.848 E0.00723
G1 X137.430 Y96.938 E0.00723
G1 X137.255 Y97.061 E0.00723
G1 X137.104 Y97.212 E0.00723
G1 X136.982 Y97.387 E0.00723
G1 X136.891 Y97.581 E0.00723
G1 X136.836 Y97.787 E0.00723
G1 X136.818 Y97.990 E0.00690
G1 X136.818 Y112.010 E0.47455
G1 X136.836 Y112.213 E0.00690
G1 X136.891 Y112.419 E0.00723
G1 X136.982 Y112.613 E0.00723
G1 X137.104 Y112.788 E0.00723
G1 X137.255 Y112.939 E0.00723
G1 X137.430 Y113.062 E0.00723
G1 X137.572 Y113.128 E0.00531
G1 X137.826 Y113.207 E0.00898
G1 X138.033 Y113.225 E0.00705
G1 X140.568 Y113.225 E0.08580
G1 X140.568 Y113.775 E0.01862
G1 X133.018 Y113.775 E0.25556
G1 X133.018 Y113.225 E0.01862
G1 X135.553 Y113.225 E0.08580
G1 X135.756 Y113.207 E0.00690
G1 X135.962 Y113.152 E0.00723
G1 X136.156 Y113.062 E0.00723
G1 X136.331 Y112.939 E0.00723
G1 X136.482 Y112.788 E0.00723
G1 X136.605 Y112.613 E0.00723
G1 X136.695 Y112.419 E0.00723
G1 X136.750 Y112.213 E0.00723
G1 X136.768 Y112.010 E0.00690
G1 X136.768 Y97.990 E0.47455
G1 X136.750 Y97.787 E0.00690
G1 X136.695 Y97.581 E0.00723
G1 X136.605 Y97.387 E0.00723
G1 X136.482 Y97.212 E0.00723
G1 X136.331 Y97.061 E0.00723
G1 X136.156 Y96.938 E0.00723
G1 X136.014 Y96.872 E0.00531
G1 X135.761 Y96.793 E0.00898
G1 X135.553 Y96.775 E0.00705
G1 X133.018 Y96.775 E0.08580
G1 X133.018 Y96.225 E0.01862
G1 X140.568 Y96.225 E0.25556
G1 X140.568 Y96.715 E0.01659
M204 S1000
G1 X140.168 Y96.765 F10800.000
G1 X140.365 Y96.500
G1 F900
G1 X138.024 Y96.500 E0.02781
G1 X137.524 Y96.544 E0.00597
G1
G1 X137.355 Y96.581 E0.00343
G1 F8640
G1 X137.524 Y96.544 E-0.03989
G1 E-0.76011 F2100.00000
G1 Z1.000 F10800.000
G1 X136.187 Y96.720
G1 Z0.400
G1 E0.80000 F2100.00000
G1 F900
G1 X136.106 Y96.555 E0.00327
G1 X135.825 Y96.512 E0.00506
G1
G1 X135.568 Y96.500 E0.00358
G1
G1 X133.222 Y96.500 E0.02794
G1 F8640
G1 X135.568 Y96.500 E-0.54179
G1 E-0.25821 F2100.00000
G1 Z1.000 F10800.000
G1 X133.222 Y113.500
G1 Z0.400
G1 E0.80000 F2100.00000
G1 F900
G1 X135.568 Y113.500 E0.02794
G1
G1 X135.813 Y113.489 E0.00338
G1
G1 X135.938 Y113.472 E0.00208
G1
G1 X136.062 Y113.456 E0.00242
G1
G1 X136.083 Y113.452 E0.00041
G1
G1 X136.231 Y113.419 E0.00316
G1 F8640
G1 X136.083 Y113.452 E-0.03509
G1 E-0.76491 F2100.00000
G1 Z1.000 F10800.000
G1 X137.399 Y113.280
G1 Z0.400
G1 E0.80000 F2100.00000
G1 F900
G1 X137.467 Y113.420 E0.00277
G1
G1 X137.480 Y113.445 E0.00059
G1 X137.621 Y113.466 E0.00300
G1
G1 X138.024 Y113.500 E0.00482
G1 X140.365 Y113.500 E0.02781
G1 F8640
G1 X138.024 Y113.500 E-0.54035
G1 X137.621 Y113.466 E-0.09359
G1 E-0.16606 F2100.00000
G1 Z1.000 F10800.000
G1 X128.194 Y113.368
G1 Z0.400
G1 E0.80000 F2100.00000
M204 S800
G1 F900
G1 X126.965 Y113.368 E0.04162
G1 X127.130 Y113.252 E0.00684
G1 X127.332 Y113.051 E0.00964
G1 X127.495 Y112.817 E0.00964
G1 X127.580 Y112.636 E0.00677
G1 X127.664 Y112.817 E0.00677
G1 X127.827 Y113.051 E0.00964
G1 X128.029 Y113.252 E0.00964
G1 X128.145 Y113.334 E0.00480
M204 S1000
G1 F8640
G1 X126.965 Y113.368 E-0.27268
G1 X127.130 Y113.252 E-0.04663
G1 X127.332 Y113.051 E-0.06579
G1 X127.495 Y112.817 E-0.06579
G1 X127.580 Y112.636 E-0.04616
G1 X127.664 Y112.817 E-0.04616
G1 X127.827 Y113.051 E-0.06579
G1 X128.029 Y113.252 E-0.06579
G1 X128.145 Y113.334 E-0.03277
G1 E-0.09245 F2100.00000
G1 Z1.000 F10800.000
G1 X127.580 Y97.365
G1 Z0.400
G1 E0.80000 F2100.00000
M204 S800
G1 F900
G1 X127.495 Y97.183 E0.00680
G1 X127.332 Y96.949 E0.00964
G1 X127.130 Y96.748 E0.00964
G1 X126.965 Y96.632 E0.00684
G1 X128.194 Y96.632 E0.04162
