; generated by PrusaSlicer 2.0.0+win64 on 2019-11-11 at 15:49:28

; 

; external perimeters extrusion width = 0.45mm
; perimeters extrusion width = 0.45mm
; infill extrusion width = 0.45mm
; solid infill extrusion width = 0.45mm
; top infill extrusion width = 0.40mm
; first layer extrusion width = 0.42mm

M73 P0 R5
M73 Q0 S5
M201 X1000 Y1000 Z1000 E5000 ; sets maximum accelerations, mm/sec^2
M203 X200 Y200 Z12 E120 ; sets maximum feedrates, mm/sec
M204 P1250 R1250 T1250 ; sets acceleration (P, T) and retract acceleration (R), mm/sec^2
M205 X8.00 Y8.00 Z0.40 E1.50 ; sets the jerk limits, mm/sec
M205 S0 T0 ; sets the minimum extruding and travel feed rate, mm/sec
M107
M115 U3.8.1 ; tell printer latest fw version
G90 ; use absolute coordinates
M83 ; extruder relative mode
M104 S215 ; set extruder temp
M140 S60 ; set bed temp
M190 S60 ; wait for bed temp
M109 S215 ; wait for extruder temp
G28 W ; home all without mesh bed level
G80 ; mesh bed leveling
G1 Y-3.0 F1000.0 ; go outside print area
G92 E0.0
G1 X60.0 E9.0 F1000.0 ; intro line
M73 Q1 S5
M73 P1 R5
G1 X100.0 E12.5 F1000.0 ; intro line
G92 E0.0
M221 S95
M900 K30 ; Filament gcode
G21 ; set units to millimeters
G90 ; use absolute coordinates
M83 ; use relative distances for extrusion
;BEFORE_LAYER_CHANGE
G92 E0.0
;0.2


G1 E-0.80000 F2100.00000
G1 Z0.600 F10800.000
;AFTER_LAYER_CHANGE
;0.2
G1 X119.710 Y98.063
G1 Z0.200
G1 E0.80000 F2100.00000
M204 S1000
G1 F900
G1 X120.028 Y97.404 E0.02293
G1 X120.494 Y96.847 E0.02280
G1 X121.087 Y96.419 E0.02293
G1 X121.767 Y96.150 E0.02293
G1 X122.450 Y96.058 E0.02161
G1 X127.504 Y96.057 E0.15846
G1 X128.513 Y96.237 E0.03213
G1 X129.396 Y96.749 E0.03199
G1 X130.050 Y97.532 E0.03199
G1 X130.398 Y98.491 E0.03199
G1 X130.443 Y111.025 E0.39301
G1 X130.290 Y111.937 E0.02898
G1 X129.956 Y112.621 E0.02385
G1 X129.459 Y113.196 E0.02385
G1 X128.830 Y113.625 E0.02385
G1 X128.113 Y113.878 E0.02385
G1 X127.533 Y113.943 E0.01831
G1 X122.462 Y113.942 E0.15899
G1 X121.563 Y113.790 E0.02859
G1 X120.823 Y113.418 E0.02596
G1 X120.216 Y112.855 E0.02596
G1 X119.790 Y112.146 E0.02596
G1 X119.578 Y111.345 E0.02596
G1 X119.557 Y98.970 E0.38801
G1 X119.700 Y98.122 E0.02697
G1 X120.070 Y98.186 F10800.000
G1 F900
G1 X120.358 Y97.587 E0.02081
G1 X120.780 Y97.096 E0.02029
G1 X121.311 Y96.727 E0.02029
G1 X121.918 Y96.501 E0.02029
G1 X122.471 Y96.435 E0.01746
G1 X127.504 Y96.434 E0.15782
G1 X128.391 Y96.594 E0.02827
G1 X129.168 Y97.051 E0.02827
G1 X129.740 Y97.748 E0.02827
G1 X130.034 Y98.600 E0.02827
G1 X130.066 Y111.020 E0.38941
G1 X129.927 Y111.832 E0.02582
G1 X129.629 Y112.432 E0.02103
G1 X129.182 Y112.938 E0.02116
G1 X128.622 Y113.307 E0.02103
G1 X127.985 Y113.519 E0.02103
G1 X122.464 Y113.565 E0.17311
G1 X121.668 Y113.427 E0.02533
G1 X121.019 Y113.095 E0.02288
G1 X120.492 Y112.596 E0.02275
G1 X120.125 Y111.970 E0.02275
G1 X119.948 Y111.266 E0.02275
G1 X119.934 Y98.976 E0.38535
G1 X120.060 Y98.245 E0.02327
G1 X120.436 Y98.272 F10800.000
G1 F900
G1 X120.689 Y97.771 E0.01760
G1 X121.061 Y97.351 E0.01760
G1 X121.528 Y97.039 E0.01760
G1 X122.059 Y96.856 E0.01760
G1 X127.504 Y96.811 E0.17073
G1 X128.269 Y96.951 E0.02439
G1 X128.940 Y97.352 E0.02451
G1 X129.426 Y97.960 E0.02439
G1 X129.668 Y98.699 E0.02439
G1 X129.688 Y111.018 E0.38626
G1 X129.564 Y111.728 E0.02259
G1 X129.301 Y112.244 E0.01817
G1 X128.911 Y112.673 E0.01817
G1 X128.423 Y112.985 E0.01817
G1 X127.870 Y113.157 E0.01817
G1 X122.467 Y113.188 E0.16939
G1 X121.772 Y113.064 E0.02213
G1 X121.220 Y112.775 E0.01953
G1 X120.772 Y112.343 E0.01953
G1 X120.464 Y111.802 E0.01953
G1 X120.320 Y111.196 E0.01953
G1 X120.312 Y98.982 E0.38296
G1 X120.426 Y98.331 E0.02071
G1 F8640
G1 X120.689 Y97.771 E-0.14292
G1 X121.061 Y97.351 E-0.12960
G1 X121.528 Y97.039 E-0.12960
G1 X122.059 Y96.856 E-0.12960
G1 X123.047 Y96.848 E-0.22827
G1 E-0.04000 F2100.00000
G1 Z0.800 F10800.000
G1 X125.007 Y109.503
G1 Z0.200
G1 E0.80000 F2100.00000
G1 F900
G1 X125.064 Y109.682 E0.00590
G1 X125.224 Y109.951 E0.00980
G1 X125.546 Y110.273 E0.01430
G1 X125.774 Y110.413 E0.00838
G1 X124.228 Y110.413 E0.04847
G1 X124.626 Y110.128 E0.01535
G1 X124.896 Y109.761 E0.01428
G1 X124.983 Y109.558 E0.00693
G1 F8640
G1 X125.064 Y109.682 E-0.03421
G1 X125.224 Y109.951 E-0.07219
G1 X125.546 Y110.273 E-0.10531
G1 X125.774 Y110.413 E-0.06171
G1 X124.228 Y110.413 E-0.35698
G1 X124.626 Y110.128 E-0.11306
G1 X124.669 Y110.070 E-0.01653
G1 E-0.04000 F2100.00000
G1 Z0.800 F10800.000
G1 X125.001 Y100.478
G1 Z0.200
G1 E0.80000 F2100.00000
G1 F900
G1 X124.801 Y100.084 E0.01387
G1 X124.608 Y99.859 E0.00928
G1 X124.228 Y99.587 E0.01465
G1 X125.770 Y99.587 E0.04834
G1 X125.374 Y99.872 E0.01530
G1 X125.104 Y100.239 E0.01428
G1 X125.025 Y100.423 E0.00627
G1 F8640
G1 X124.801 Y100.084 E-0.09393
G1 X124.608 Y99.859 E-0.06832
G1 X124.228 Y99.587 E-0.10792
G1 X125.770 Y99.587 E-0.35596
G1 X125.374 Y99.872 E-0.11264
G1 X125.319 Y99.946 E-0.02122
G1 E-0.04000 F2100.00000
G1 Z0.800 F10800.000
G1 X127.290 Y99.790
G1 Z0.200
G1 E0.80000 F2100.00000
G1 F900
G1 X126.484 Y99.790 E0.02527
G1 X126.151 Y99.841 E0.01057
G1 X125.944 Y99.924 E0.00698
G1 X125.643 Y100.142 E0.01167
G1 X125.434 Y100.428 E0.01109
G1 X125.346 Y100.632 E0.00698
G1 X125.290 Y100.984 E0.01116
G1 X125.302 Y109.189 E0.25729
G1 X125.410 Y109.526 E0.01109
G1 X125.524 Y109.718 E0.00698
G1 X125.781 Y109.975 E0.01142
G1 X125.957 Y110.083 E0.00646
G1 X126.285 Y110.191 E0.01083
G1 X126.490 Y110.210 E0.00646
G1 X127.290 Y110.210 E0.02508
G1 X127.290 Y110.790 E0.01819
G1 X122.710 Y110.790 E0.14360
G1 X122.710 Y110.210 E0.01819
G1 X123.517 Y110.210 E0.02529
G1 X123.866 Y110.155 E0.01111
G1 X124.057 Y110.076 E0.00648
G1 X124.357 Y109.858 E0.01162
G1 X124.566 Y109.572 E0.01109
G1 X124.654 Y109.368 E0.00698
G1 X124.710 Y109.016 E0.01116
G1 X124.698 Y100.819 E0.25704
G1 X124.649 Y100.618 E0.00647
G1 X124.485 Y100.295 E0.01137
G1 X124.351 Y100.138 E0.00648
G1 X124.057 Y99.924 E0.01137
G1 X123.866 Y99.845 E0.00648
G1 X123.517 Y99.790 E0.01111
G1 X122.710 Y99.790 E0.02529
G1 X122.710 Y99.210 E0.01819
G1 X127.290 Y99.210 E0.14360
G1 X127.290 Y99.730 E0.01630
G1 X126.890 Y99.773 F10800.000
G1 X127.101 Y99.500
G1 F900
G1 X126.469 Y99.500 E0.01066
G1 X126.083 Y99.529 E0.00653
G1 X125.982 Y99.691 E0.00323
G1 X125.013 Y99.776 F10800.000
G1 F900
G1 X125.008 Y100.052 E0.00312
G1 X124.893 Y100.730 F10800.000
G1 F900
G1 X125.102 Y101.406 E0.00365
G1 X124.994 Y101.027 F10800.000
G1 F900
G1 X125.006 Y108.862 E0.14007
G1 X124.886 Y109.251 F10800.000
G1 F900
G1 X125.113 Y108.370 E0.00769
G1 F8640
G1 X124.886 Y109.251 E-0.20989
G1 E-0.59011 F2100.00000
G1 Z0.800 F10800.000
G1 X124.996 Y109.943
G1 Z0.200
G1 E0.80000 F2100.00000
G1 F900
G1 X124.989 Y110.123 E0.00303
G1 X125.202 Y110.224 E0.00396
G1 X125.961 Y110.446 F10800.000
G1 F900
G1 X126.236 Y110.489 E0.00470
G1 X127.101 Y110.500 E0.01460
G1 F8640
G1 X126.236 Y110.489 E-0.19985
G1 X125.961 Y110.446 E-0.06434
G1 E-0.53581 F2100.00000
G1 Z0.800 F10800.000
G1 X124.015 Y110.310
G1 Z0.200
G1 E0.80000 F2100.00000
G1 F900
G1 X123.914 Y110.471 E0.00332
G1 X123.531 Y110.500 E0.00670
G1 X122.899 Y110.500 E0.01105
G1 F8640
G1 X123.531 Y110.500 E-0.14612
G1 X123.914 Y110.471 E-0.08857
G1 X124.015 Y110.310 E-0.04389
G1 E-0.52142 F2100.00000
G1 Z0.800 F10800.000
G1 X124.015 Y99.690
G1 Z0.200
G1 E0.80000 F2100.00000
G1 F900
G1 X123.914 Y99.529 E0.00332
G1 X123.531 Y99.500 E0.00670
G1 X122.899 Y99.500 E0.01105
M106 S255
;BEFORE_LAYER_CHANGE
G92 E0.0
;0.4


G1 F8640
G1 X123.531 Y99.500 E-0.14612
G1 X123.914 Y99.529 E-0.08857
G1 X124.015 Y99.690 E-0.04389
G1 E-0.52142 F2100.00000
G1 Z0.800 F10800.000
;AFTER_LAYER_CHANGE
;0.4
G1 X128.513 Y96.237
G1 Z0.400
G1 E0.80000 F2100.00000
G1 F900
G1 X129.396 Y96.749 E0.03199
G1 X130.050 Y97.532 E0.03199
G1 X130.398 Y98.491 E0.03199
G1 X130.443 Y111.025 E0.39301
G1 X130.290 Y111.937 E0.02898
G1 X129.956 Y112.621 E0.02385
G1 X129.459 Y113.196 E0.02385
G1 X128.830 Y113.625 E0.02385
G1 X128.113 Y113.878 E0.02385
G1 X127.533 Y113.943 E0.01831
G1 X122.462 Y113.942 E0.15899
G1 X121.563 Y113.790 E0.02859
G1 X120.823 Y113.418 E0.02596
G1 X120.216 Y112.855 E0.02596
G1 X119.790 Y112.146 E0.02596
G1 X119.578 Y111.345 E0.02596
G1 X119.557 Y98.970 E0.38801
G1 X119.710 Y98.063 E0.02885
G1 X120.028 Y97.404 E0.02293
G1 X120.494 Y96.847 E0.02280
G1 X121.087 Y96.419 E0.02293
G1 X121.767 Y96.150 E0.02293
G1 X122.450 Y96.058 E0.02161
G1 X127.504 Y96.057 E0.15846
G1 X128.454 Y96.227 E0.03024
G1 F8640
G1 X129.396 Y96.749 E-0.24868
G1 X130.050 Y97.532 E-0.23562
G1 X130.398 Y98.491 E-0.23562
G1 X130.399 Y98.665 E-0.04009
G1 E-0.04000 F2100.00000
G1 Z1.000 F10800.000
G1 X124.998 Y109.633
G1 Z0.400
G1 E0.80000 F2100.00000
M204 S800
G1 F900
G1 X125.183 Y109.974 E0.01313
G1 X125.518 Y110.309 E0.01605
G1 X125.615 Y110.368 E0.00383
G1 X124.373 Y110.368 E0.04203
G1 X124.656 Y110.162 E0.01184
G1 X124.913 Y109.819 E0.01453
G1 X124.973 Y109.687 E0.00489
M204 S1000
G1 F8640
G1 X125.183 Y109.974 E-0.08197
G1 X125.518 Y110.309 E-0.10947
G1 X125.615 Y110.368 E-0.02610
G1 X124.373 Y110.368 E-0.28669
G1 X124.656 Y110.162 E-0.08079
G1 X124.913 Y109.819 E-0.09912
G1 X124.973 Y109.687 E-0.03334
G1 E-0.08252 F2100.00000
G1 Z1.000 F10800.000
G1 X124.999 Y100.374
G1 Z0.400
G1 E0.80000 F2100.00000
M204 S800
G1 F900
G1 X124.838 Y100.059 E0.01198
G1 X124.639 Y99.826 E0.01038
G1 X124.373 Y99.632 E0.01114
G1 X125.627 Y99.632 E0.04245
G1 X125.344 Y99.838 E0.01184
G1 X125.087 Y100.181 E0.01453
G1 X125.024 Y100.319 E0.00513
M204 S1000
G1 F8640
G1 X124.838 Y100.059 E-0.07390
G1 X124.639 Y99.826 E-0.07078
G1 X124.373 Y99.632 E-0.07598
G1 X125.627 Y99.632 E-0.28959
G1 X125.344 Y99.838 E-0.08079
G1 X125.087 Y100.181 E-0.09912
G1 X125.024 Y100.319 E-0.03501
G1 E-0.07483 F2100.00000
G1 Z1.000 F10800.000
G1 X127.275 Y99.775
G1 Z0.400
G1 E0.80000 F2100.00000
M204 S800
G1 F900
G1 X126.484 Y99.775 E0.02678
G1 X126.181 Y99.819 E0.01036
G1 X125.939 Y99.909 E0.00875
G1 X125.633 Y100.131 E0.01278
G1 X125.439 Y100.390 E0.01097
G1 X125.332 Y100.625 E0.00875
G1 X125.275 Y100.982 E0.01224
G1 X125.287 Y109.191 E0.27784
G1 X125.383 Y109.500 E0.01096
G1 X125.510 Y109.725 E0.00875
G1 X125.772 Y109.987 E0.01253
G1 X125.951 Y110.097 E0.00711
G1 X126.299 Y110.210 E0.01239
G1 X127.275 Y110.225 E0.03303
G1 X127.275 Y110.775 E0.01862
G1 X122.725 Y110.775 E0.15401
G1 X122.725 Y110.225 E0.01862
G1 X123.516 Y110.225 E0.02678
G1 X123.819 Y110.181 E0.01036
G1 X124.061 Y110.091 E0.00875
G1 X124.367 Y109.869 E0.01278
G1 X124.561 Y109.610 E0.01097
G1 X124.668 Y109.375 E0.00875
G1 X124.725 Y109.018 E0.01224
G1 X124.713 Y100.817 E0.27759
G1 X124.664 Y100.613 E0.00711
G1 X124.497 Y100.286 E0.01239
G1 X124.361 Y100.127 E0.00711
G1 X124.059 Y99.907 E0.01264
G1 X123.752 Y99.803 E0.01097
G1 X123.513 Y99.775 E0.00814
G1 X122.725 Y99.775 E0.02667
G1 X122.725 Y99.225 E0.01862
G1 X127.275 Y99.225 E0.15401
G1 X127.275 Y99.715 E0.01659
M204 S1000
G1 X126.875 Y99.759 F10800.000
G1 X127.071 Y99.500
G1 F900
G1 X126.459 Y99.500 E0.00728
G1 X125.959 Y99.552 E0.00597
G1
G1 X125.823 Y99.577 E0.00289
G1 F8640
G1 X125.959 Y99.552 E-0.03197
G1 E-0.76803 F2100.00000
G1 Z1.000 F10800.000
G1 X124.926 Y100.732
G1 Z0.400
G1 E0.80000 F2100.00000
G1 F900
G1 X125.072 Y101.201 E0.00260
G1 X124.997 Y100.921 F10800.000
G1 F900
G1 X125.006 Y108.991 E0.10817
G1 F8640
G1 X125.002 Y105.700 E-0.76000
G1 E-0.04000 F2100.00000
G1 Z1.000 F10800.000
G1 X124.990 Y110.056
G1 Z0.400
G1 E0.80000 F2100.00000
G1 F900
G1 X124.989 Y110.124 E0.00046
G1 X125.081 Y110.164 E0.00067
G1 X125.811 Y110.422 F10800.000
G1 F900
G1 X126.022 Y110.456 E0.00460
G1
G1 X126.253 Y110.491 E0.00277
G1 X127.071 Y110.500 E0.00973
G1 F8640
G1 X126.253 Y110.491 E-0.18898
G1 X126.022 Y110.456 E-0.05390
G1 E-0.55712 F2100.00000
G1 Z1.000 F10800.000
G1 X124.177 Y110.423
G1 Z0.400
G1 E0.80000 F2100.00000
G1 F900
G1 X124.041 Y110.448 E0.00289
G1
G1 X123.904 Y110.472 E0.00259
G1
G1 X123.541 Y110.500 E0.00600
G1
G1 X122.929 Y110.500 E0.00732
G1 F8640
G1 X123.541 Y110.500 E-0.14142
G1 E-0.65858 F2100.00000
G1 Z1.000 F10800.000
G1 X124.177 Y99.576
G1 Z0.400
G1 E0.80000 F2100.00000
G1 F900
G1 X124.001 Y99.547 E0.00375
G1
G1 X123.826 Y99.518 E0.00320
G1
G1 X123.533 Y99.500 E0.00437
G1
G1 X122.929 Y99.500 E0.00721
;BEFORE_LAYER_CHANGE
G92 E0.0
;0.6


G1 F8640
G1 X123.533 Y99.500 E-0.13953
G1 E-0.66047 F2100.00000
G1 Z1.000 F10800.000
;AFTER_LAYER_CHANGE
;0.6
G1 X128.513 Y96.237
G1 Z0.600
G1 E0.80000 F2100.00000
G1 F900
G1 X129.396 Y96.749 E0.03199
G1 X130.050 Y97.532 E0.03199
G1 X130.398 Y98.491 E0.03199
G1 X130.443 Y111.025 E0.39301
G1 X130.290 Y111.937 E0.02898
G1 X129.956 Y112.621 E0.02385
G1 X129.459 Y113.196 E0.02385
G1 X128.830 Y113.625 E0.02385
G1 X128.113 Y113.878 E0.02385
G1 X127.533 Y113.943 E0.01831
G1 X122.462 Y113.942 E0.15899
G1 X121.563 Y113.790 E0.02859
G1 X120.823 Y113.418 E0.02596
G1 X120.216 Y112.855 E0.02596
G1 X119.790 Y112.146 E0.02596
G1 X119.578 Y111.345 E0.02596
G1 X119.557 Y98.970 E0.38801
G1 X119.710 Y98.063 E0.02885
G1 X120.028 Y97.404 E0.02293
G1 X120.494 Y96.847 E0.02280
G1 X121.087 Y96.419 E0.02293
G1 X121.767 Y96.150 E0.02293
G1 X122.450 Y96.058 E0.02161
G1 X127.504 Y96.057 E0.15846
G1 X128.454 Y96.227 E0.03024
G1 F8640
G1 X129.396 Y96.749 E-0.24868
G1 X130.050 Y97.532 E-0.23562
G1 X130.398 Y98.491 E-0.23562
G1 X130.399 Y98.665 E-0.04009
G1 E-0.04000 F2100.00000
G1 Z1.200 F10800.000
G1 X125.000 Y109.626
G1 Z0.600
G1 E0.80000 F2100.00000
M204 S800
G1 F900
G1 X125.031 Y109.720 E0.00337
G1 X125.191 Y109.982 E0.01038
G1 X125.518 Y110.309 E0.01565
G1 X125.615 Y110.368 E0.00383
G1 X124.373 Y110.368 E0.04203
G1 X124.653 Y110.165 E0.01171
G1 X124.892 Y109.853 E0.01330
G1 X124.974 Y109.680 E0.00649
M204 S1000
G1 F8640
G1 X125.031 Y109.720 E-0.01606
G1 X125.191 Y109.982 E-0.07078
G1 X125.518 Y110.309 E-0.10679
G1 X125.615 Y110.368 E-0.02610
G1 X124.373 Y110.368 E-0.28669
G1 X124.653 Y110.165 E-0.07987
G1 X124.892 Y109.853 E-0.09071
G1 X124.974 Y109.680 E-0.04424
G1 E-0.07876 F2100.00000
G1 Z1.200 F10800.000
G1 X125.003 Y100.366
G1 Z0.600
G1 E0.80000 F2100.00000
M204 S800
G1 F900
G1 X124.833 Y100.052 E0.01210
G1 X124.639 Y99.826 E0.01009
G1 X124.373 Y99.632 E0.01114
G1 X125.627 Y99.632 E0.04245
G1 X125.347 Y99.835 E0.01171
G1 X125.108 Y100.147 E0.01330
G1 X125.029 Y100.312 E0.00620
M204 S1000
G1 F8640
G1 X124.833 Y100.052 E-0.07526
G1 X124.639 Y99.826 E-0.06884
G1 X124.373 Y99.632 E-0.07599
G1 X125.627 Y99.632 E-0.28959
G1 X125.347 Y99.835 E-0.07987
G1 X125.108 Y100.147 E-0.09071
G1 X125.029 Y100.312 E-0.04228
G1 E-0.07747 F2100.00000
G1 Z1.200 F10800.000
G1 X127.275 Y99.775
G1 Z0.600
G1 E0.80000 F2100.00000
M204 S800
G1 F900
G1 X126.299 Y99.790 E0.03303
G1 X125.943 Y99.906 E0.01270
G1 X125.634 Y100.130 E0.01290
G1 X125.457 Y100.361 E0.00985
G1 X125.332 Y100.624 E0.00985
G1 X125.275 Y100.982 E0.01230
G1 X125.287 Y109.192 E0.27789
G1 X125.403 Y109.549 E0.01269
G1 X125.513 Y109.728 E0.00711
G1 X125.772 Y109.987 E0.01239
G1 X125.951 Y110.097 E0.00711
G1 X126.299 Y110.210 E0.01239
G1 X127.275 Y110.225 E0.03303
G1 X127.275 Y110.775 E0.01862
G1 X122.725 Y110.775 E0.15401
G1 X122.725 Y110.225 E0.01862
G1 X123.515 Y110.225 E0.02673
G1 X123.786 Y110.189 E0.00925
G1 X124.060 Y110.092 E0.00985
G1 X124.366 Y109.870 E0.01280
G1 X124.543 Y109.639 E0.00985
G1 X124.668 Y109.376 E0.00985
G1 X124.725 Y109.018 E0.01230
G1 X124.713 Y100.811 E0.27779
G1 X124.630 Y100.532 E0.00984
G1 X124.495 Y100.284 E0.00955
G1 X124.361 Y100.127 E0.00701
G1 X124.060 Y99.908 E0.01260
G1 X123.786 Y99.811 E0.00985
G1 X123.515 Y99.775 E0.00925
G1 X122.725 Y99.775 E0.02673
G1 X122.725 Y99.225 E0.01862
G1 X127.275 Y99.225 E0.15401
G1 X127.275 Y99.715 E0.01659
M204 S1000
G1 X126.875 Y99.763 F10800.000
G1 X127.071 Y99.500
G1 F900
G1 X126.253 Y99.509 E0.00973
G1 X126.028 Y99.543 E0.00270
G1
G1 X125.823 Y99.576 E0.00440
G1 F8640
G1 X126.028 Y99.543 E-0.04805
G1 E-0.75195 F2100.00000
G1 Z1.200 F10800.000
G1 X124.908 Y100.667
G1 Z0.600
G1 E0.80000 F2100.00000
G1 F900
G1 X125.072 Y101.136 E0.00312
G1 X124.994 Y100.954 F10800.000
G1 F900
G1 X125.006 Y109.006 E0.10443
G1 F8640
G1 X125.001 Y105.715 E-0.76000
G1 E-0.04000 F2100.00000
G1 Z1.200 F10800.000
