; generated by PrusaSlicer 2.0.0+win64 on 2019-09-09 at 15:21:58

; 

; external perimeters extrusion width = 0.45mm
; perimeters extrusion width = 0.45mm
; infill extrusion width = 0.45mm
; solid infill extrusion width = 0.45mm
; top infill extrusion width = 0.40mm
; support material extrusion width = 0.35mm
; first layer extrusion width = 0.42mm

M73 P0 R65
M73 Q0 S66
M201 X1000 Y1000 Z1000 E5000 ; sets maximum accelerations, mm/sec^2
M203 X200 Y200 Z12 E120 ; sets maximum feedrates, mm/sec
M204 P1250 R1250 T1250 ; sets acceleration (P, T) and retract acceleration (R), mm/sec^2
M205 X8.00 Y8.00 Z0.40 E1.50 ; sets the jerk limits, mm/sec
M205 S0 T0 ; sets the minimum extruding and travel feed rate, mm/sec
M107
M115 U3.7.2 ; tell printer latest fw version
G90 ; use absolute coordinates
M83 ; extruder relative mode
M104 S215 ; set extruder temp
M140 S60 ; set bed temp
M190 S60 ; wait for bed temp
M109 S215 ; wait for extruder temp
G28 W ; home all without mesh bed level
G80 ; mesh bed leveling
G1 Y-3.0 F1000.0 ; go outside print area
G92 E0.0
G1 X60.0 E9.0 F1000.0 ; intro line
M73 Q0 S66
M73 P0 R65
G1 X100.0 E12.5 F1000.0 ; intro line
G92 E0.0
M221 S95
M900 K30 ; Filament gcode
G21 ; set units to millimeters
G90 ; use absolute coordinates
M83 ; use relative distances for extrusion
;BEFORE_LAYER_CHANGE
G92 E0.0
;0.2


G1 E-0.80000 F2100.00000
G1 Z0.600 F10800.000
;AFTER_LAYER_CHANGE
;0.2
G1 X118.082 Y58.493
G1 Z0.200
G1 E0.80000 F2100.00000
M204 S1000
G1 F1200
G1 X118.546 Y58.318 E0.01555
G1 X119.042 Y58.252 E0.01567
G1 X131.591 Y58.251 E0.39348
G1 X132.319 Y58.377 E0.02315
G1 X132.960 Y58.735 E0.02304
G1 X147.145 Y70.784 E0.58354
G1 X147.739 Y71.387 E0.02654
G1 X148.247 Y72.114 E0.02779
G1 X148.624 Y72.919 E0.02790
G1 X148.846 Y73.717 E0.02596
G1 X148.944 Y74.712 E0.03135
G1 X148.944 Y135.292 E1.89944
G1 X148.877 Y136.112 E0.02580
G1 X148.634 Y137.055 E0.03054
G1 X148.227 Y137.919 E0.02995
G1 X144.276 Y143.896 E0.22463
G1 X143.935 Y144.290 E0.01635
G1 X132.139 Y151.376 E0.43147
G1 X131.674 Y151.549 E0.01555
G1 X131.182 Y151.613 E0.01555
G1 X118.430 Y151.592 E0.39983
G1 X117.590 Y151.289 E0.02799
G1 X106.318 Y144.142 E0.41849
G1 X106.004 Y143.796 E0.01464
G1 X101.817 Y137.989 E0.22448
G1 X101.386 Y137.108 E0.03075
G1 X101.154 Y136.283 E0.02687
G1 X101.056 Y135.288 E0.03135
G1 X101.056 Y74.708 E1.89944
G1 X101.123 Y73.884 E0.02593
G1 X101.361 Y72.959 E0.02995
G1 X101.734 Y72.147 E0.02801
G1 X102.255 Y71.394 E0.02870
G1 X102.845 Y70.793 E0.02641
G1 X118.036 Y58.531 E0.61210
G1 F8640
G1 X118.546 Y58.318 E-0.12776
G1 X119.042 Y58.252 E-0.11536
G1 X121.280 Y58.252 E-0.51688
G1 E-0.04000 F2100.00000
G1 Z0.800 F10800.000
G1 X116.819 Y62.577
G1 Z0.200
G1 E0.80000 F2100.00000
G1 F1200
G1 X116.819 Y71.298 E0.27344
G1 X117.574 Y71.298 E0.02365
G1 X117.574 Y62.747 E0.26812
G1 X118.328 Y62.747 E0.02365
G1 X118.328 Y71.298 E0.26812
G1 X119.082 Y71.298 E0.02365
G1 X119.082 Y60.440 E0.34046
G1 X119.836 Y60.440 E0.02365
G1 X119.836 Y71.298 E0.34046
G1 X120.590 Y71.298 E0.02365
G1 X120.590 Y60.440 E0.34046
G1 X121.344 Y60.440 E0.02365
G1 X121.344 Y71.298 E0.34046
G1 X122.098 Y71.298 E0.02365
G1 X122.098 Y60.440 E0.34046
G1 X122.853 Y60.440 E0.02365
G1 X122.853 Y71.298 E0.34046
G1 X123.607 Y71.298 E0.02365
G1 X123.607 Y60.440 E0.34046
G1 X124.361 Y60.440 E0.02365
G1 X124.361 Y71.298 E0.34046
G1 X125.115 Y71.298 E0.02365
G1 X125.115 Y60.440 E0.34046
G1 X125.869 Y60.440 E0.02365
G1 X125.869 Y71.298 E0.34046
G1 X126.623 Y71.298 E0.02365
G1 X126.623 Y60.440 E0.34046
G1 X127.378 Y60.440 E0.02365
G1 X127.378 Y71.298 E0.34046
G1 X128.132 Y71.298 E0.02365
G1 X128.132 Y60.440 E0.34046
G1 X128.886 Y60.440 E0.02365
G1 X128.886 Y71.298 E0.34046
G1 X129.640 Y71.298 E0.02365
G1 X129.640 Y60.440 E0.34046
G1 X130.394 Y60.440 E0.02365
G1 X130.394 Y71.298 E0.34046
G1 X131.148 Y71.298 E0.02365
G1 X131.148 Y60.440 E0.34046
G1 X131.587 Y60.440 E0.01376
G1 X131.587 Y67.361 E0.21701
G1 X131.903 Y67.361 E0.00988
G1 X131.903 Y71.298 E0.12345
G1 X132.657 Y71.298 E0.02365
G1 X132.657 Y67.361 E0.12345
G1 X133.411 Y67.361 E0.02365
G1 X133.411 Y71.468 E0.12877
G1 F8640
G1 X133.411 Y68.177 E-0.76000
G1 E-0.04000 F2100.00000
G1 Z0.800 F10800.000
G1 X142.461 Y142.673
G1 Z0.200
G1 E0.80000 F2100.00000
G1 F1200
G1 X142.461 Y138.702 E0.12452
G1 X141.707 Y138.702 E0.02365
G1 X141.707 Y142.503 E0.11920
G1 X140.952 Y142.503 E0.02365
G1 X140.952 Y138.702 E0.11920
G1 X140.198 Y138.702 E0.02365
G1 X140.198 Y142.503 E0.11920
G1 X139.444 Y142.503 E0.02365
G1 X139.444 Y138.702 E0.11920
G1 X138.690 Y138.702 E0.02365
G1 X138.690 Y142.503 E0.11920
G1 X137.936 Y142.503 E0.02365
G1 X137.936 Y138.702 E0.11920
G1 X137.182 Y138.702 E0.02365
G1 X137.182 Y142.503 E0.11920
G1 X136.427 Y142.503 E0.02365
G1 X136.427 Y138.702 E0.11920
G1 X135.673 Y138.702 E0.02365
G1 X135.673 Y142.503 E0.11920
G1 X134.919 Y142.503 E0.02365
G1 X134.919 Y138.702 E0.11920
G1 X134.165 Y138.702 E0.02365
G1 X134.165 Y142.503 E0.11920
G1 X133.411 Y142.503 E0.02365
G1 X133.411 Y138.702 E0.11920
G1 X132.657 Y138.702 E0.02365
G1 X132.657 Y142.503 E0.11920
G1 X131.903 Y142.503 E0.02365
G1 X131.903 Y138.702 E0.11920
G1 X131.148 Y138.702 E0.02365
G1 X131.148 Y149.425 E0.33621
G1 X130.394 Y149.425 E0.02365
G1 X130.394 Y138.702 E0.33621
G1 X129.640 Y138.702 E0.02365
G1 X129.640 Y149.425 E0.33621
G1 X128.886 Y149.425 E0.02365
G1 X128.886 Y138.702 E0.33621
G1 X128.132 Y138.702 E0.02365
G1 X128.132 Y149.425 E0.33621
G1 X127.378 Y149.425 E0.02365
G1 X127.378 Y138.702 E0.33621
G1 X126.623 Y138.702 E0.02365
G1 X126.623 Y149.425 E0.33621
G1 X125.869 Y149.425 E0.02365
G1 X125.869 Y138.702 E0.33621
G1 X125.115 Y138.702 E0.02365
G1 X125.115 Y149.425 E0.33621
G1 X124.361 Y149.425 E0.02365
G1 X124.361 Y138.702 E0.33621
G1 X123.607 Y138.702 E0.02365
G1 X123.607 Y149.425 E0.33621
G1 X122.853 Y149.425 E0.02365
G1 X122.853 Y138.702 E0.33621
G1 X122.098 Y138.702 E0.02365
G1 X122.098 Y149.425 E0.33621
G1 X121.344 Y149.425 E0.02365
G1 X121.344 Y138.702 E0.33621
G1 X120.590 Y138.702 E0.02365
G1 X120.590 Y149.425 E0.33621
G1 X119.836 Y149.425 E0.02365
G1 X119.836 Y138.702 E0.33621
G1 X119.082 Y138.702 E0.02365
G1 X119.082 Y149.425 E0.33621
G1 X118.736 Y149.425 E0.01084
G1 X118.736 Y147.118 E0.07234
G1 X118.328 Y147.118 E0.01281
G1 X118.328 Y138.702 E0.26388
G1 X117.574 Y138.702 E0.02365
G1 X117.574 Y147.118 E0.26388
G1 X116.819 Y147.118 E0.02365
G1 X116.819 Y138.702 E0.26388
G1 X116.065 Y138.702 E0.02365
G1 X116.065 Y142.503 E0.11920
G1 X115.311 Y142.503 E0.02365
G1 X115.311 Y138.702 E0.11920
G1 X114.557 Y138.702 E0.02365
G1 X114.557 Y142.503 E0.11920
G1 X113.803 Y142.503 E0.02365
G1 X113.803 Y138.702 E0.11920
G1 X113.049 Y138.702 E0.02365
G1 X113.049 Y142.503 E0.11920
G1 X112.294 Y142.503 E0.02365
G1 X112.294 Y138.702 E0.11920
G1 X111.540 Y138.702 E0.02365
G1 X111.540 Y142.503 E0.11920
G1 X110.786 Y142.503 E0.02365
G1 X110.786 Y138.702 E0.11920
G1 X110.032 Y138.702 E0.02365
G1 X110.032 Y142.503 E0.11920
G1 X109.278 Y142.503 E0.02365
G1 X109.278 Y138.702 E0.11920
G1 X108.524 Y138.702 E0.02365
G1 X108.524 Y142.503 E0.11920
G1 X107.769 Y142.503 E0.02365
G1 X107.769 Y138.532 E0.12452
G1 F8640
G1 X107.769 Y141.823 E-0.76000
G1 E-0.04000 F2100.00000
G1 Z0.800 F10800.000
G1 X105.826 Y137.662
G1 Z0.200
G1 E0.80000 F2100.00000
G1 F1200
G1 X105.424 Y137.554 E0.01306
G1 X105.039 Y137.376 E0.01330
G1 X104.695 Y137.135 E0.01316
G1 X104.400 Y136.840 E0.01306
G1 X104.157 Y136.493 E0.01330
G1 X103.979 Y136.113 E0.01316
G1 X103.870 Y135.707 E0.01318
G1 X103.832 Y135.262 E0.01398
G1 X103.832 Y74.738 E1.89772
G1 X103.870 Y74.293 E0.01398
G1 X103.979 Y73.887 E0.01318
G1 X104.157 Y73.507 E0.01318
G1 X104.398 Y73.162 E0.01318
G1 X104.695 Y72.865 E0.01318
G1 X105.039 Y72.624 E0.01318
G1 X105.420 Y72.447 E0.01318
G1 X105.826 Y72.338 E0.01318
G1 X106.270 Y72.299 E0.01398
G1 X143.730 Y72.299 E1.17452
G1 X144.171 Y72.338 E0.01387
G1 X144.580 Y72.447 E0.01330
G1 X144.961 Y72.624 E0.01316
G1 X145.305 Y72.865 E0.01318
G1 X145.602 Y73.162 E0.01318
G1 X145.843 Y73.507 E0.01318
G1 X146.021 Y73.887 E0.01318
G1 X146.130 Y74.293 E0.01318
G1 X146.168 Y74.738 E0.01398
G1 X146.168 Y135.262 E1.89772
G1 X146.130 Y135.707 E0.01398
G1 X146.021 Y136.113 E0.01318
G1 X145.843 Y136.493 E0.01318
G1 X145.602 Y136.838 E0.01318
G1 X145.305 Y137.135 E0.01318
G1 X144.961 Y137.376 E0.01318
G1 X144.580 Y137.553 E0.01318
G1 X144.174 Y137.662 E0.01318
G1 X143.730 Y137.701 E0.01398
G1 X106.270 Y137.701 E1.17452
G1 X105.886 Y137.667 E0.01210
G1 F8640
G1 X105.424 Y137.554 E-0.10986
G1 X105.039 Y137.376 E-0.09794
G1 X104.695 Y137.135 E-0.09694
G1 X104.400 Y136.840 E-0.09619
G1 X104.157 Y136.493 E-0.09794
G1 X103.979 Y136.113 E-0.09694
G1 X103.870 Y135.707 E-0.09703
G1 X103.845 Y135.417 E-0.06717
G1 E-0.04000 F2100.00000
G1 Z0.800 F10800.000
G1 X104.850 Y137.704
G1 Z0.200
G1 E0.80000 F2100.00000
G1 F1200
G1 X104.452 Y137.425 E0.01524
G1 X104.111 Y137.084 E0.01512
G1 X103.829 Y136.683 E0.01537
G1 X103.624 Y136.242 E0.01524
G1 X103.498 Y135.772 E0.01524
G1 X103.455 Y135.279 E0.01553
G1 X103.455 Y74.721 E1.89875
M73 Q1 S65
M73 P1 R64
G1 X103.498 Y74.228 E0.01553
G1 X103.624 Y73.758 E0.01524
G1 X103.829 Y73.317 E0.01524
G1 X104.108 Y72.919 E0.01524
G1 X104.452 Y72.575 E0.01524
G1 X104.850 Y72.296 E0.01524
G1 X105.291 Y72.091 E0.01524
G1 X105.760 Y71.965 E0.01524
G1 X106.254 Y71.922 E0.01553
G1 X143.746 Y71.922 E1.17556
G1 X144.236 Y71.965 E0.01541
G1 X144.710 Y72.091 E0.01537
G1 X145.150 Y72.296 E0.01524
G1 X145.548 Y72.575 E0.01524
G1 X145.892 Y72.919 E0.01524
G1 X146.171 Y73.317 E0.01524
G1 X146.376 Y73.758 E0.01524
G1 X146.502 Y74.228 E0.01524
G1 X146.546 Y74.721 E0.01553
G1 X146.546 Y135.279 E1.89875
G1 X146.502 Y135.772 E0.01553
G1 X146.376 Y136.242 E0.01524
G1 X146.171 Y136.683 E0.01524
G1 X145.892 Y137.081 E0.01524
G1 X145.548 Y137.425 E0.01524
G1 X145.150 Y137.704 E0.01524
G1 X144.709 Y137.909 E0.01524
G1 X144.240 Y138.035 E0.01524
G1 X143.746 Y138.078 E0.01553
G1 X106.254 Y138.078 E1.17556
G1 X105.760 Y138.035 E0.01553
G1 X105.294 Y137.910 E0.01512
G1 X104.904 Y137.729 E0.01349
G1 X104.850 Y137.304 F10800.000
G1 X105.361 Y137.400
G1 F1200
G1 X104.617 Y136.657 E0.03300
G1 X104.402 Y136.351 E0.01173
G1 X104.246 Y136.015 E0.01162
G1 X104.150 Y135.656 E0.01168
G1 X105.877 Y137.383 E0.07664
G1 X106.446 Y137.418 E0.01790
G1 X104.114 Y135.087 E0.10348
G1 X104.114 Y134.553 E0.01675
G1 X106.980 Y137.418 E0.12717
G1 X107.513 Y137.418 E0.01675
G1 X104.114 Y134.019 E0.15086
G1 X104.114 Y133.485 E0.01675
G1 X108.047 Y137.418 E0.17454
G1 X108.581 Y137.418 E0.01675
G1 X104.114 Y132.952 E0.19823
G1 X104.114 Y132.418 E0.01675
G1 X109.115 Y137.418 E0.22192
G1 X109.648 Y137.418 E0.01675
G1 X104.114 Y131.884 E0.24561
G1 X104.114 Y131.350 E0.01675
G1 X110.182 Y137.418 E0.26929
G1 X110.716 Y137.418 E0.01675
G1 X104.114 Y130.817 E0.29298
G1 X104.114 Y130.283 E0.01675
G1 X111.250 Y137.418 E0.31667
G1 X111.783 Y137.418 E0.01675
G1 X104.114 Y129.749 E0.34036
G1 X104.114 Y129.215 E0.01675
G1 X112.317 Y137.418 E0.36405
G1 X112.851 Y137.418 E0.01675
G1 X104.114 Y128.682 E0.38773
G1 X104.114 Y128.148 E0.01675
G1 X113.385 Y137.418 E0.41142
G1 X113.918 Y137.418 E0.01675
G1 X104.114 Y127.614 E0.43511
G1 X104.114 Y127.080 E0.01675
G1 X114.452 Y137.418 E0.45880
G1 X114.986 Y137.418 E0.01675
G1 X104.114 Y126.547 E0.48248
G1 X104.114 Y126.013 E0.01675
G1 X115.520 Y137.418 E0.50617
G1 X116.053 Y137.418 E0.01675
G1 X104.114 Y125.479 E0.52986
G1 X104.114 Y124.945 E0.01675
G1 X116.587 Y137.418 E0.55355
G1 X117.121 Y137.418 E0.01675
G1 X104.114 Y124.412 E0.57723
G1 X104.114 Y123.878 E0.01675
G1 X117.655 Y137.418 E0.60092
G1 X118.188 Y137.418 E0.01675
G1 X104.114 Y123.344 E0.62461
G1 X104.114 Y122.811 E0.01675
G1 X118.722 Y137.418 E0.64830
G1 X119.256 Y137.418 E0.01675
G1 X104.114 Y122.277 E0.67199
G1 X104.114 Y121.743 E0.01675
G1 X119.790 Y137.418 E0.69567
G1 X120.323 Y137.418 E0.01675
G1 X104.114 Y121.209 E0.71936
G1 X104.114 Y120.676 E0.01675
G1 X120.857 Y137.418 E0.74305
G1 X121.391 Y137.418 E0.01675
G1 X104.114 Y120.142 E0.76674
G1 X104.114 Y119.608 E0.01675
G1 X121.924 Y137.418 E0.79042
G1 X122.458 Y137.418 E0.01675
G1 X104.114 Y119.074 E0.81411
G1 X104.114 Y118.541 E0.01675
G1 X122.992 Y137.418 E0.83780
G1 X123.526 Y137.418 E0.01675
G1 X104.114 Y118.007 E0.86149
G1 X104.114 Y117.473 E0.01675
G1 X124.059 Y137.418 E0.88517
G1 X124.593 Y137.418 E0.01675
G1 X104.114 Y116.939 E0.90886
G1 X104.114 Y116.406 E0.01675
G1 X125.127 Y137.418 E0.93255
G1 X125.661 Y137.418 E0.01675
G1 X104.114 Y115.872 E0.95624
G1 X104.114 Y115.338 E0.01675
G1 X126.194 Y137.418 E0.97993
G1 X126.728 Y137.418 E0.01675
G1 X104.114 Y114.804 E1.00361
G1 X104.114 Y114.271 E0.01675
G1 X127.262 Y137.418 E1.02730
G1 X127.796 Y137.418 E0.01675
G1 X104.114 Y113.737 E1.05099
G1 X104.114 Y113.203 E0.01675
G1 X128.329 Y137.418 E1.07468
G1 X128.863 Y137.418 E0.01675
G1 X104.114 Y112.669 E1.09836
G1 X104.114 Y112.136 E0.01675
G1 X129.397 Y137.418 E1.12205
G1 X129.931 Y137.418 E0.01675
G1 X104.114 Y111.602 E1.14574
G1 X104.114 Y111.068 E0.01675
G1 X130.464 Y137.418 E1.16943
G1 X130.998 Y137.418 E0.01675
G1 X104.114 Y110.535 E1.19312
G1 X104.114 Y110.001 E0.01675
G1 X131.532 Y137.418 E1.21680
M73 Q3 S64
M73 P3 R63
G1 X132.066 Y137.418 E0.01675
G1 X104.114 Y109.467 E1.24049
G1 X104.114 Y108.933 E0.01675
G1 X132.599 Y137.418 E1.26418
G1 X133.133 Y137.418 E0.01675
G1 X104.114 Y108.400 E1.28787
G1 X104.114 Y107.866 E0.01675
G1 X133.667 Y137.418 E1.31155
G1 X134.200 Y137.418 E0.01675
G1 X104.114 Y107.332 E1.33524
G1 X104.114 Y106.798 E0.01675
G1 X134.734 Y137.418 E1.35893
G1 X135.268 Y137.418 E0.01675
G1 X104.114 Y106.265 E1.38262
G1 X104.114 Y105.731 E0.01675
G1 X135.802 Y137.418 E1.40630
G1 X136.335 Y137.418 E0.01675
G1 X104.114 Y105.197 E1.42999
G1 X104.114 Y104.663 E0.01675
G1 X136.869 Y137.418 E1.45368
G1 X137.403 Y137.418 E0.01675
G1 X104.114 Y104.130 E1.47737
G1 X104.114 Y103.596 E0.01675
G1 X137.937 Y137.418 E1.50106
G1 X138.470 Y137.418 E0.01675
G1 X104.114 Y103.062 E1.52474
G1 X104.114 Y102.528 E0.01675
G1 X139.004 Y137.418 E1.54843
G1 X139.538 Y137.418 E0.01675
G1 X104.114 Y101.995 E1.57212
G1 X104.114 Y101.461 E0.01675
G1 X140.072 Y137.418 E1.59581
G1 X140.605 Y137.418 E0.01675
G1 X104.114 Y100.927 E1.61949
G1 X104.114 Y100.393 E0.01675
G1 X141.139 Y137.418 E1.64318
G1 X141.673 Y137.418 E0.01675
G1 X104.114 Y99.860 E1.66687
G1 X104.114 Y99.326 E0.01675
G1 X142.207 Y137.418 E1.69056
G1 X142.740 Y137.418 E0.01675
G1 X104.114 Y98.792 E1.71424
G1 X104.114 Y98.259 E0.01675
G1 X143.274 Y137.418 E1.73793
G1 X143.801 Y137.411 E0.01652
G1 X104.114 Y97.725 E1.76130
G1 X104.114 Y97.191 E0.01675
G1 X144.268 Y137.344 E1.78203
G1 X144.483 Y137.287 E0.00699
G1 X144.661 Y137.204 E0.00616
G1 X104.114 Y96.657 E1.79948
M73 Q4 S63
M73 P4 R62
G1 X104.114 Y96.124 E0.01675
G1 X144.996 Y137.006 E1.81437
G1 X145.123 Y136.917 E0.00483
G1 X145.282 Y136.758 E0.00708
G1 X104.114 Y95.590 E1.82706
G1 X104.114 Y95.056 E0.01675
G1 X145.520 Y136.462 E1.83761
G1 X145.597 Y136.351 E0.00423
G1 X145.707 Y136.115 E0.00817
G1 X104.114 Y94.522 E1.84593
G1 X104.114 Y93.989 E0.01675
G1 X145.836 Y135.710 E1.85163
G1 X145.886 Y135.226 E0.01527
G1 X104.114 Y93.455 E1.85384
G1 X104.114 Y92.921 E0.01675
G1 X145.886 Y134.692 E1.85384
G1 X145.886 Y134.159 E0.01675
G1 X104.114 Y92.387 E1.85384
G1 X104.114 Y91.854 E0.01675
G1 X145.886 Y133.625 E1.85384
G1 X145.886 Y133.091 E0.01675
G1 X104.114 Y91.320 E1.85384
G1 X104.114 Y90.786 E0.01675
G1 X145.886 Y132.557 E1.85384
G1 X145.886 Y132.024 E0.01675
G1 X104.114 Y90.252 E1.85384
G1 X104.114 Y89.719 E0.01675
G1 X145.886 Y131.490 E1.85384
G1 X145.886 Y130.956 E0.01675
G1 X104.114 Y89.185 E1.85384
G1 X104.114 Y88.651 E0.01675
G1 X145.886 Y130.422 E1.85384
G1 X145.886 Y129.889 E0.01675
G1 X104.114 Y88.117 E1.85384
G1 X104.114 Y87.584 E0.01675
G1 X145.886 Y129.355 E1.85384
G1 X145.886 Y128.821 E0.01675
G1 X104.114 Y87.050 E1.85384
G1 X104.114 Y86.516 E0.01675
G1 X145.886 Y128.288 E1.85384
G1 X145.886 Y127.754 E0.01675
G1 X104.114 Y85.982 E1.85384
G1 X104.114 Y85.449 E0.01675
G1 X145.886 Y127.220 E1.85384
M73 Q6 S62
M73 P6 R61
G1 X145.886 Y126.686 E0.01675
