; generated by PrusaSlicer 2.0.0+win64 on 2019-06-12 at 14:38:27

; 

; external perimeters extrusion width = 0.45mm
; perimeters extrusion width = 0.45mm
; infill extrusion width = 0.45mm
; solid infill extrusion width = 0.45mm
; top infill extrusion width = 0.40mm
; first layer extrusion width = 0.42mm

M73 P0 R17
M73 Q0 S17
M201 X1000 Y1000 Z1000 E5000 ; sets maximum accelerations, mm/sec^2
M203 X200 Y200 Z12 E120 ; sets maximum feedrates, mm/sec
M204 P1250 R1250 T1250 ; sets acceleration (P, T) and retract acceleration (R), mm/sec^2
M205 X8.00 Y8.00 Z0.40 E1.50 ; sets the jerk limits, mm/sec
M205 S0 T0 ; sets the minimum extruding and travel feed rate, mm/sec
M107
M115 U3.7.1 ; tell printer latest fw version
G90 ; use absolute coordinates
M83 ; extruder relative mode
M104 S230 ; set extruder temp
M140 S85 ; set bed temp
M190 S85 ; wait for bed temp
M109 S230 ; wait for extruder temp
G28 W ; home all without mesh bed level
G80 ; mesh bed leveling
G1 Y-3.0 F1000.0 ; go outside print area
G92 E0.0
G1 X60.0 E9.0 F1000.0 ; intro line
M73 Q0 S17
M73 P0 R17
G1 X100.0 E12.5 F1000.0 ; intro line
G92 E0.0
M221 S95
M900 K45 ; Filament gcode
G21 ; set units to millimeters
G90 ; use absolute coordinates
M83 ; use relative distances for extrusion
;BEFORE_LAYER_CHANGE
G92 E0.0
;0.2


G1 E-0.80000 F2100.00000
G1 Z0.600 F10800.000
;AFTER_LAYER_CHANGE
;0.2
G1 X102.783 Y82.557
G1 Z0.200
G1 E0.80000 F2100.00000
M204 S1000
G1 F1200
G1 X103.499 Y82.428 E0.02281
G1 X143.514 Y82.428 E1.25464
G1 X144.330 Y82.587 E0.02608
G1 X145.028 Y83.040 E0.02608
G1 X145.505 Y83.717 E0.02597
G1 X145.697 Y84.526 E0.02608
G1 X145.698 Y114.673 E0.94524
G1 X145.634 Y115.143 E0.01487
G1 X145.471 Y115.589 E0.01487
G1 X145.215 Y115.988 E0.01487
G1 X144.883 Y116.321 E0.01475
G1 X144.248 Y116.677 E0.02281
G1 X143.536 Y116.805 E0.02270
G1 X103.506 Y116.805 E1.25510
G1 X103.028 Y116.748 E0.01510
G1 X102.571 Y116.586 E0.01521
G1 X102.163 Y116.330 E0.01510
G1 X101.819 Y115.988 E0.01521
G1 X101.466 Y115.360 E0.02259
G1 X101.336 Y114.651 E0.02259
G1 X101.336 Y84.596 E0.94237
G1 X101.393 Y84.118 E0.01510
G1 X101.555 Y83.661 E0.01521
G1 X101.812 Y83.253 E0.01510
G1 X102.152 Y82.912 E0.01510
G1 X102.730 Y82.587 E0.02082
G1 F8640
G1 X103.499 Y82.428 E-0.18115
G1 X106.006 Y82.428 E-0.57885
G1 E-0.04000 F2100.00000
G1 Z0.800 F10800.000
G1 X111.598 Y105.739
G1 Z0.200
G1 E0.80000 F2100.00000
G1 F1200
G1 X112.005 Y105.591 E0.01357
G1 X112.411 Y105.529 E0.01288
G1 X112.834 Y105.550 E0.01326
G1 X113.243 Y105.656 E0.01326
G1 X113.623 Y105.843 E0.01326
G1 X113.957 Y106.101 E0.01326
G1 X114.233 Y106.422 E0.01326
G1 X114.438 Y106.792 E0.01326
G1 X114.564 Y107.196 E0.01326
G1 X114.607 Y107.616 E0.01326
G1 X114.564 Y108.037 E0.01326
G1 X114.438 Y108.441 E0.01326
G1 X114.233 Y108.810 E0.01326
G1 X113.957 Y109.131 E0.01326
G1 X113.623 Y109.390 E0.01326
G1 X113.243 Y109.576 E0.01326
G1 X112.834 Y109.682 E0.01326
G1 X112.411 Y109.704 E0.01326
G1 X111.993 Y109.640 E0.01326
G1 X111.597 Y109.493 E0.01326
G1 X111.238 Y109.269 E0.01326
G1 X110.931 Y108.978 E0.01326
G1 X110.690 Y108.631 E0.01326
G1 X110.523 Y108.242 E0.01326
G1 X110.438 Y107.828 E0.01326
G1 X110.438 Y107.405 E0.01326
G1 X110.523 Y106.991 E0.01326
G1 X110.690 Y106.602 E0.01326
G1 X110.931 Y106.255 E0.01326
G1 X111.238 Y105.964 E0.01326
G1 X111.547 Y105.771 E0.01144
G1 X111.747 Y106.091 F10800.000
G1 F1200
G1 X112.099 Y105.958 E0.01179
G1 X112.430 Y105.907 E0.01052
G1 X112.776 Y105.925 E0.01086
G1 X113.111 Y106.012 E0.01086
G1 X113.422 Y106.164 E0.01086
G1 X113.696 Y106.376 E0.01086
G1 X113.921 Y106.639 E0.01086
G1 X114.090 Y106.942 E0.01086
G1 X114.193 Y107.272 E0.01086
G1 X114.228 Y107.616 E0.01086
G1 X114.193 Y107.961 E0.01086
G1 X114.090 Y108.291 E0.01086
G1 X113.921 Y108.594 E0.01086
G1 X113.696 Y108.857 E0.01086
G1 X113.422 Y109.068 E0.01086
G1 X113.111 Y109.221 E0.01086
G1 X112.776 Y109.308 E0.01086
G1 X112.430 Y109.325 E0.01086
G1 X112.088 Y109.273 E0.01086
G1 X111.764 Y109.153 E0.01086
G1 X111.470 Y108.969 E0.01086
G1 X111.219 Y108.731 E0.01086
G1 X111.021 Y108.447 E0.01086
G1 X110.884 Y108.129 E0.01086
G1 X110.815 Y107.789 E0.01086
G1 X110.815 Y107.443 E0.01086
G1 X110.884 Y107.104 E0.01086
G1 X111.021 Y106.786 E0.01086
G1 X111.219 Y106.502 E0.01086
G1 X111.470 Y106.263 E0.01086
G1 X111.696 Y106.122 E0.00836
G1 X111.771 Y105.715 F10800.000
G1 F8640
G1 X112.099 Y105.958 E-0.10047
G1 X112.430 Y105.907 E-0.07745
G1 X112.776 Y105.925 E-0.07994
G1 X113.111 Y106.012 E-0.07994
G1 X113.422 Y106.164 E-0.07994
G1 X113.696 Y106.376 E-0.07994
G1 X113.921 Y106.639 E-0.07994
G1 X114.090 Y106.942 E-0.07994
G1 X114.193 Y107.272 E-0.07994
G1 X114.203 Y107.369 E-0.02249
G1 E-0.04000 F2100.00000
G1 Z0.800 F10800.000
G1 X112.411 Y93.704
G1 Z0.200
G1 E0.80000 F2100.00000
G1 F1200
G1 X111.993 Y93.640 E0.01326
G1 X111.597 Y93.493 E0.01326
G1 X111.238 Y93.269 E0.01326
G1 X110.931 Y92.978 E0.01326
G1 X110.690 Y92.631 E0.01326
G1 X110.523 Y92.242 E0.01326
G1 X110.438 Y91.828 E0.01326
G1 X110.438 Y91.405 E0.01326
G1 X110.523 Y90.991 E0.01326
G1 X110.690 Y90.602 E0.01326
G1 X110.931 Y90.255 E0.01326
G1 X111.238 Y89.964 E0.01326
G1 X111.598 Y89.739 E0.01332
G1 X112.005 Y89.591 E0.01357
G1 X112.411 Y89.529 E0.01288
G1 X112.834 Y89.550 E0.01326
G1 X113.243 Y89.656 E0.01326
G1 X113.623 Y89.843 E0.01326
G1 X113.957 Y90.101 E0.01326
G1 X114.233 Y90.422 E0.01326
G1 X114.438 Y90.792 E0.01326
G1 X114.564 Y91.196 E0.01326
G1 X114.607 Y91.616 E0.01326
G1 X114.564 Y92.037 E0.01326
G1 X114.438 Y92.441 E0.01326
G1 X114.233 Y92.810 E0.01326
G1 X113.957 Y93.131 E0.01326
G1 X113.623 Y93.390 E0.01326
G1 X113.243 Y93.576 E0.01326
G1 X112.834 Y93.682 E0.01326
G1 X112.471 Y93.701 E0.01138
G1 X112.452 Y93.324 F10800.000
G1 F1200
G1 X112.088 Y93.273 E0.01152
G1 X111.764 Y93.153 E0.01086
G1 X111.470 Y92.969 E0.01086
G1 X111.219 Y92.731 E0.01086
G1 X111.021 Y92.447 E0.01086
G1 X110.884 Y92.129 E0.01086
G1 X110.815 Y91.789 E0.01086
G1 X110.815 Y91.443 E0.01086
G1 X110.884 Y91.104 E0.01086
G1 X111.021 Y90.786 E0.01086
G1 X111.219 Y90.502 E0.01086
G1 X111.470 Y90.263 E0.01086
G1 X111.764 Y90.080 E0.01088
G1 X112.099 Y89.958 E0.01117
G1 X112.430 Y89.907 E0.01052
G1 X112.776 Y89.925 E0.01086
G1 X113.111 Y90.012 E0.01086
G1 X113.422 Y90.164 E0.01086
G1 X113.696 Y90.376 E0.01086
G1 X113.921 Y90.639 E0.01086
G1 X114.090 Y90.942 E0.01086
G1 X114.193 Y91.272 E0.01086
G1 X114.228 Y91.616 E0.01086
G1 X114.193 Y91.961 E0.01086
G1 X114.090 Y92.291 E0.01086
G1 X113.921 Y92.594 E0.01086
G1 X113.696 Y92.857 E0.01086
G1 X113.422 Y93.068 E0.01086
G1 X113.111 Y93.221 E0.01086
G1 X112.776 Y93.308 E0.01086
G1 X112.512 Y93.321 E0.00830
G1 X112.255 Y93.634 F10800.000
G1 F8640
G1 X112.088 Y93.273 E-0.09848
G1 X111.764 Y93.153 E-0.07994
G1 X111.470 Y92.969 E-0.07994
G1 X111.219 Y92.731 E-0.07994
G1 X111.021 Y92.447 E-0.07994
G1 X110.884 Y92.129 E-0.07994
G1 X110.815 Y91.789 E-0.07994
G1 X110.815 Y91.443 E-0.07994
G1 X110.884 Y91.104 E-0.07994
G1 X110.922 Y91.017 E-0.02198
G1 E-0.04000 F2100.00000
G1 Z0.800 F10800.000
G1 X120.073 Y85.203
G1 Z0.200
G1 E0.80000 F2100.00000
G1 F1200
G1 X120.073 Y114.029 E0.90381
G1 X104.111 Y114.029 E0.50047
G1 X104.111 Y85.203 E0.90381
G1 X120.013 Y85.203 E0.49859
G1 X120.450 Y84.826 F10800.000
G1 F1200
G1 X120.450 Y114.406 E0.92746
G1 X103.734 Y114.406 E0.52411
G1 X103.734 Y84.826 E0.92746
G1 X120.390 Y84.826 E0.52223
G1 X120.382 Y85.221 F10800.000
G1 F8640
G1 X120.397 Y88.118 E-0.76000
G1 E-0.04000 F2100.00000
G1 Z0.800 F10800.000
G1 X119.960 Y86.082
G1 Z0.200
G1 E0.80000 F2100.00000
G1 F1200
G1 X119.365 Y85.486 E0.02648
G1 X118.830 Y85.486 E0.01683
G1 X119.790 Y86.447 E0.04274
G1 X119.790 Y86.982 E0.01683
G1 X118.295 Y85.486 E0.06655
G1 X117.759 Y85.486 E0.01683
G1 X119.790 Y87.517 E0.09035
G1 X119.790 Y88.052 E0.01683
G1 X117.224 Y85.486 E0.11416
G1 X116.689 Y85.486 E0.01683
G1 X119.790 Y88.587 E0.13796
G1 X119.790 Y89.122 E0.01683
G1 X116.154 Y85.486 E0.16177
G1 X115.619 Y85.486 E0.01683
G1 X119.790 Y89.657 E0.18557
G1 X119.790 Y90.192 E0.01683
G1 X115.084 Y85.486 E0.20938
G1 X114.549 Y85.486 E0.01683
G1 X119.790 Y90.727 E0.23319
G1 X119.790 Y91.263 E0.01683
G1 X114.014 Y85.486 E0.25699
G1 X113.479 Y85.486 E0.01683
G1 X119.790 Y91.798 E0.28080
G1 X119.790 Y92.333 E0.01683
G1 X112.944 Y85.486 E0.30460
G1 X112.409 Y85.486 E0.01683
G1 X119.790 Y92.868 E0.32841
G1 X119.790 Y93.403 E0.01683
G1 X111.874 Y85.486 E0.35221
G1 X111.339 Y85.486 E0.01683
G1 X119.790 Y93.938 E0.37602
G1 X119.790 Y94.473 E0.01683
G1 X110.804 Y85.486 E0.39982
G1 X110.269 Y85.486 E0.01683
G1 X119.790 Y95.008 E0.42363
G1 X119.790 Y95.543 E0.01683
G1 X109.733 Y85.486 E0.44744
G1 X109.198 Y85.486 E0.01683
G1 X113.018 Y89.306 E0.16995
G1 X112.877 Y89.269 E0.00460
G1 X112.424 Y89.246 E0.01427
G1 X108.663 Y85.486 E0.16729
G1 X108.128 Y85.486 E0.01683
G1 X111.955 Y89.313 E0.17025
G1 X111.559 Y89.452 E0.01320
G1 X107.593 Y85.486 E0.17645
G1 X107.058 Y85.486 E0.01683
G1 X111.216 Y89.644 E0.18498
G1 X111.064 Y89.739 E0.00564
G1 X110.916 Y89.879 E0.00641
G1 X106.523 Y85.486 E0.19545
G1 X105.988 Y85.486 E0.01683
G1 X110.656 Y90.155 E0.20770
G1 X110.438 Y90.471 E0.01210
G1 X105.453 Y85.486 E0.22179
G1 X104.918 Y85.486 E0.01683
G1 X110.277 Y90.846 E0.23845
G1 X110.175 Y91.278 E0.01399
G1 X104.394 Y85.498 E0.25720
G1 X104.394 Y86.033 E0.01683
G1 X110.155 Y91.793 E0.25630
G1 X110.252 Y92.327 E0.01706
G1 X110.325 Y92.499 E0.00588
G1 X104.394 Y86.568 E0.26389
G1 X104.394 Y87.103 E0.01683
G1 X119.790 Y102.499 E0.68499
G1 X119.790 Y101.964 E0.01683
G1 X111.635 Y93.809 E0.36283
G1 X111.922 Y93.915 E0.00962
G1 X112.341 Y93.979 E0.01332
G1 X119.790 Y101.429 E0.33144
G1 X119.790 Y100.894 E0.01683
G1 X112.861 Y93.964 E0.30830
G1 X113.288 Y93.857 E0.01387
G1 X119.790 Y100.359 E0.28927
G1 X119.790 Y99.824 E0.01683
G1 X113.656 Y93.689 E0.27293
G1 X113.773 Y93.631 E0.00411
G1 X113.976 Y93.474 E0.00807
G1 X119.790 Y99.288 E0.25868
G1 X119.790 Y98.753 E0.01683
G1 X114.255 Y93.218 E0.24626
G1 X114.494 Y92.922 E0.01197
G1 X119.790 Y98.218 E0.23563
G1 X119.790 Y97.683 E0.01683
G1 X114.685 Y92.578 E0.22714
G1 X114.817 Y92.175 E0.01333
G1 X119.790 Y97.148 E0.22125
G1 X119.790 Y96.613 E0.01683
G1 X114.882 Y91.705 E0.21835
G1 X114.891 Y91.616 E0.00281
G1 X114.839 Y91.127 E0.01548
G1 X119.960 Y96.248 E0.22782
G1 F8640
G1 X117.633 Y93.920 E-0.76000
G1 E-0.04000 F2100.00000
G1 Z0.800 F10800.000
G1 X119.960 Y103.204
G1 Z0.200
G1 E0.80000 F2100.00000
G1 F1200
G1 X104.394 Y87.638 E0.69254
G1 X104.394 Y88.173 E0.01683
G1 X119.790 Y103.569 E0.68499
G1 X119.790 Y104.104 E0.01683
G1 X104.394 Y88.708 E0.68499
G1 X104.394 Y89.243 E0.01683
G1 X119.790 Y104.639 E0.68499
G1 X119.790 Y105.174 E0.01683
G1 X104.394 Y89.778 E0.68499
G1 X104.394 Y90.313 E0.01683
G1 X119.790 Y105.709 E0.68499
G1 X119.790 Y106.244 E0.01683
G1 X104.394 Y90.848 E0.68499
G1 X104.394 Y91.383 E0.01683
G1 X119.790 Y106.779 E0.68499
G1 X119.790 Y107.314 E0.01683
G1 X104.394 Y91.918 E0.68499
G1 X104.394 Y92.453 E0.01683
G1 X119.790 Y107.850 E0.68499
G1 X119.790 Y108.385 E0.01683
G1 X104.394 Y92.989 E0.68499
G1 X104.394 Y93.524 E0.01683
G1 X119.790 Y108.920 E0.68499
G1 X119.790 Y109.455 E0.01683
G1 X104.394 Y94.059 E0.68499
G1 X104.394 Y94.594 E0.01683
G1 X119.790 Y109.990 E0.68499
M73 Q6 S16
G1 X119.790 Y110.525 E0.01683
G1 X104.394 Y95.129 E0.68499
M73 P6 R16
G1 X104.394 Y95.664 E0.01683
G1 X119.790 Y111.060 E0.68499
G1 X119.790 Y111.595 E0.01683
G1 X104.394 Y96.199 E0.68499
G1 X104.394 Y96.734 E0.01683
G1 X112.948 Y105.288 E0.38057
G1 X112.877 Y105.269 E0.00232
G1 X112.374 Y105.249 E0.01584
G1 X104.394 Y97.269 E0.35502
G1 X104.394 Y97.804 E0.01683
G1 X111.914 Y105.324 E0.33455
G1 X111.521 Y105.466 E0.01314
G1 X104.394 Y98.339 E0.31708
G1 X104.394 Y98.874 E0.01683
G1 X111.184 Y105.664 E0.30208
G1 X111.064 Y105.739 E0.00445
G1 X110.889 Y105.905 E0.00757
G1 X104.394 Y99.409 E0.28898
G1 X104.394 Y99.944 E0.01683
G1 X110.635 Y106.185 E0.27767
G1 X110.422 Y106.508 E0.01215
G1 X104.394 Y100.479 E0.26820
G1 X104.394 Y101.015 E0.01683
G1 X110.262 Y106.882 E0.26106
G1 X110.166 Y107.322 E0.01415
G1 X104.394 Y101.550 E0.25680
G1 X104.394 Y102.085 E0.01683
G1 X110.370 Y108.061 E0.26588
G1 F8640
G1 X108.043 Y105.733 E-0.76000
G1 E-0.04000 F2100.00000
G1 Z0.800 F10800.000
G1 X112.076 Y109.767
G1 Z0.200
G1 E0.80000 F2100.00000
G1 F1200
G1 X116.056 Y113.747 E0.17706
G1 X116.591 Y113.747 E0.01683
G1 X112.811 Y109.967 E0.16817
G1 X113.247 Y109.867 E0.01406
G1 X117.126 Y113.747 E0.17258
G1 X117.661 Y113.747 E0.01683
G1 X113.621 Y109.706 E0.17976
G1 X113.773 Y109.631 E0.00534
G1 X113.947 Y109.497 E0.00691
G1 X118.196 Y113.747 E0.18907
G1 X118.731 Y113.747 E0.01683
G1 X114.231 Y109.246 E0.20022
G1 X114.475 Y108.956 E0.01195
G1 X119.266 Y113.747 E0.21315
G1 X119.790 Y113.747 E0.01648
G1 X114.666 Y108.611 E0.22821
G1 X114.805 Y108.215 E0.01321
G1 X119.790 Y113.200 E0.22180
G1 X119.790 Y112.665 E0.01683
G1 X114.878 Y107.753 E0.21857
G1 X114.891 Y107.616 E0.00431
G1 X114.848 Y107.188 E0.01356
G1 X119.960 Y112.300 E0.22744
G1 F8640
G1 X117.633 Y109.972 E-0.76000
G1 E-0.04000 F2100.00000
G1 Z0.800 F10800.000
G1 X115.691 Y113.916
G1 Z0.200
G1 E0.80000 F2100.00000
G1 F1200
G1 X104.394 Y102.620 E0.50259
G1 X104.394 Y103.155 E0.01683
G1 X114.986 Y113.747 E0.47124
G1 X114.451 Y113.747 E0.01683
G1 X104.394 Y103.690 E0.44743
G1 X104.394 Y104.225 E0.01683
G1 X113.916 Y113.747 E0.42363
G1 X113.381 Y113.747 E0.01683
G1 X104.394 Y104.760 E0.39982
G1 X104.394 Y105.295 E0.01683
G1 X112.846 Y113.747 E0.37601
G1 X112.311 Y113.747 E0.01683
G1 X104.394 Y105.830 E0.35221
G1 X104.394 Y106.365 E0.01683
G1 X111.775 Y113.747 E0.32840
G1 X111.240 Y113.747 E0.01683
G1 X104.394 Y106.900 E0.30460
G1 X104.394 Y107.435 E0.01683
G1 X110.705 Y113.747 E0.28079
G1 X110.170 Y113.747 E0.01683
G1 X104.394 Y107.970 E0.25699
G1 X104.394 Y108.505 E0.01683
G1 X109.635 Y113.747 E0.23318
G1 X109.100 Y113.747 E0.01683
G1 X104.394 Y109.040 E0.20938
G1 X104.394 Y109.576 E0.01683
G1 X108.565 Y113.747 E0.18557
G1 X108.030 Y113.747 E0.01683
G1 X104.394 Y110.111 E0.16176
G1 X104.394 Y110.646 E0.01683
G1 X107.495 Y113.747 E0.13796
G1 X106.960 Y113.747 E0.01683
G1 X104.394 Y111.181 E0.11415
G1 X104.394 Y111.716 E0.01683
G1 X106.425 Y113.747 E0.09035
G1 X105.890 Y113.747 E0.01683
G1 X104.394 Y112.251 E0.06654
G1 X104.394 Y112.786 E0.01683
G1 X105.355 Y113.747 E0.04274
G1 X104.820 Y113.747 E0.01683
G1 X104.224 Y113.151 E0.02648
G1 F8640
G1 X104.820 Y113.747 E-0.19435
G1 X105.355 Y113.747 E-0.12355
G1 X104.394 Y112.786 E-0.31367
G1 X104.394 Y112.251 E-0.12355
G1 X104.409 Y112.266 E-0.00489
G1 E-0.04000 F2100.00000
G1 Z0.800 F10800.000
G1 X132.438 Y107.828
G1 Z0.200
G1 E0.80000 F2100.00000
G1 F1200
G1 X132.438 Y107.405 E0.01326
G1 X132.523 Y106.991 E0.01326
G1 X132.690 Y106.602 E0.01326
G1 X132.931 Y106.255 E0.01326
G1 X133.238 Y105.964 E0.01326
G1 X133.597 Y105.740 E0.01326
G1 X133.993 Y105.593 E0.01326
G1 X134.399 Y105.531 E0.01288
G1 X134.832 Y105.550 E0.01357
G1 X135.243 Y105.656 E0.01332
G1 X135.623 Y105.843 E0.01326
G1 X135.957 Y106.101 E0.01326
G1 X136.233 Y106.422 E0.01326
G1 X136.438 Y106.792 E0.01326
G1 X136.564 Y107.196 E0.01326
G1 X136.607 Y107.616 E0.01326
G1 X136.564 Y108.037 E0.01326
G1 X136.438 Y108.441 E0.01326
G1 X136.233 Y108.810 E0.01326
G1 X135.957 Y109.131 E0.01326
G1 X135.623 Y109.390 E0.01326
G1 X135.243 Y109.576 E0.01326
G1 X134.834 Y109.682 E0.01326
G1 X134.411 Y109.704 E0.01326
G1 X133.993 Y109.640 E0.01326
G1 X133.597 Y109.493 E0.01326
G1 X133.238 Y109.269 E0.01326
G1 X132.931 Y108.978 E0.01326
G1 X132.690 Y108.631 E0.01326
G1 X132.523 Y108.242 E0.01326
G1 X132.450 Y107.887 E0.01138
G1 X132.819 Y107.811 F10800.000
G1 F1200
G1 X132.815 Y107.443 E0.01152
G1 X132.884 Y107.104 E0.01086
G1 X133.021 Y106.786 E0.01086
G1 X133.219 Y106.502 E0.01086
G1 X133.470 Y106.263 E0.01086
G1 X133.764 Y106.080 E0.01086
G1 X134.088 Y105.960 E0.01086
G1 X134.420 Y105.909 E0.01052
G1 X134.776 Y105.925 E0.01117
G1 X135.111 Y106.012 E0.01088
G1 X135.422 Y106.164 E0.01086
G1 X135.696 Y106.376 E0.01086
G1 X135.921 Y106.639 E0.01086
G1 X136.090 Y106.942 E0.01086
G1 X136.193 Y107.272 E0.01086
G1 X136.228 Y107.616 E0.01086
