; generated by PrusaSlicer 2.0.0+win64 on 2019-10-03 at 15:06:15

; 

; external perimeters extrusion width = 0.45mm
; perimeters extrusion width = 0.45mm
; infill extrusion width = 0.45mm
; solid infill extrusion width = 0.45mm
; top infill extrusion width = 0.40mm
; first layer extrusion width = 0.42mm

M73 P0 R74
M73 Q0 S75
M201 X1000 Y1000 Z1000 E5000 ; sets maximum accelerations, mm/sec^2
M203 X200 Y200 Z12 E120 ; sets maximum feedrates, mm/sec
M204 P1250 R1250 T1250 ; sets acceleration (P, T) and retract acceleration (R), mm/sec^2
M205 X8.00 Y8.00 Z0.40 E1.50 ; sets the jerk limits, mm/sec
M205 S0 T0 ; sets the minimum extruding and travel feed rate, mm/sec
M107
M115 U3.8.0 ; tell printer latest fw version
G90 ; use absolute coordinates
M83 ; extruder relative mode
M104 S200 ; set extruder temp
M140 S50 ; set bed temp
M190 S50 ; wait for bed temp
M109 S200 ; wait for extruder temp
G28 W ; home all without mesh bed level
G80 ; mesh bed leveling
G1 Y-3.0 F1000.0 ; go outside print area
G92 E0.0
G1 X60.0 E9.0 F1000.0 ; intro line
M73 Q0 S75
M73 P0 R74
G1 X100.0 E12.5 F1000.0 ; intro line
G92 E0.0
M221 S95
M900 K10; Filament gcode
G21 ; set units to millimeters
G90 ; use absolute coordinates
M83 ; use relative distances for extrusion
;BEFORE_LAYER_CHANGE
G92 E0.0
;0.2


G1 E-0.80000 F2100.00000
G1 Z0.600 F10800.000
;AFTER_LAYER_CHANGE
;0.2
G1 X118.658 Y112.110
G1 Z0.200
G1 E0.80000 F2100.00000
M204 S1000
G1 F1193.38
G1 X119.145 Y111.710 E0.02371
G1 X131.686 Y104.191 E0.55019
G1 X132.212 Y103.975 E0.02139
G1 X132.776 Y103.902 E0.02139
G1 X133.427 Y104.001 E0.02480
G1 X134.241 Y104.360 E0.03346
G1 X135.164 Y105.006 E0.04239
G1 X135.778 Y105.642 E0.03325
G1 X149.942 Y125.852 E0.92854
G1 X150.545 Y126.923 E0.04625
G1 X150.874 Y128.092 E0.04569
G1 X150.933 Y129.089 E0.03759
G1 X150.721 Y129.856 E0.02995
G1 X150.379 Y130.364 E0.02303
G1 X149.907 Y130.759 E0.02316
G1 X137.367 Y138.289 E0.55036
G1 X136.770 Y138.532 E0.02425
G1 X136.259 Y138.594 E0.01934
G1 X117.231 Y138.594 E0.71595
G1 X116.608 Y138.515 E0.02363
G1 X116.045 Y138.306 E0.02258
G1 X115.524 Y137.961 E0.02353
G1 X115.169 Y137.599 E0.01907
G1 X112.025 Y133.120 E0.20589
G1 X111.635 Y132.250 E0.03588
G1 X111.567 Y131.374 E0.03306
G1 X111.716 Y130.701 E0.02594
G1 X118.306 Y112.628 E0.72378
G1 X118.624 Y112.159 E0.02131
G1 F8640
G1 X119.145 Y111.710 E-0.15882
G1 X121.378 Y110.372 E-0.60118
G1 E-0.04000 F2100.00000
G1 Z0.800 F10800.000
G1 X117.093 Y133.876
G1 Z0.200
G1 E0.80000 F2100.00000
G1 F1193.38
G1 X117.344 Y133.960 E0.00995
G1 X117.650 Y133.992 E0.01155
G1 X133.233 Y133.992 E0.58634
G1 X133.569 Y134.014 E0.01267
G1 X133.879 Y134.076 E0.01188
G1 X134.173 Y134.176 E0.01168
G1 X134.460 Y134.318 E0.01206
G1 X134.722 Y134.493 E0.01186
G1 X134.960 Y134.702 E0.01188
G1 X135.164 Y134.935 E0.01169
G1 X135.340 Y135.197 E0.01187
G1 X135.482 Y135.485 E0.01206
G1 X135.589 Y135.818 E0.01317
G1 X117.340 Y135.818 E0.68665
G1 X117.340 Y134.691 E0.04242
G1 X117.310 Y134.399 E0.01102
G1 X117.213 Y134.090 E0.01219
G1 X117.122 Y133.929 E0.00696
G1 F8640
G1 X117.344 Y133.960 E-0.05171
G1 X117.650 Y133.992 E-0.07090
G1 X120.410 Y133.992 E-0.63739
G1 E-0.04000 F2100.00000
G1 Z0.800 F10800.000
G1 X116.097 Y132.454
G1 Z0.200
G1 E0.80000 F2100.00000
G1 F1193.38
G1 X115.937 Y132.269 E0.00921
G1 X115.680 Y132.072 E0.01219
G1 X115.417 Y131.944 E0.01102
G1 X114.357 Y131.558 E0.04242
G1 X120.600 Y114.410 E0.68664
G1 X120.875 Y114.624 E0.01313
G1 X121.097 Y114.856 E0.01206
G1 X121.283 Y115.110 E0.01187
G1 X121.433 Y115.383 E0.01169
G1 X121.547 Y115.677 E0.01188
G1 X121.622 Y115.983 E0.01186
G1 X121.657 Y116.302 E0.01206
G1 X121.651 Y116.612 E0.01168
G1 X121.603 Y116.925 E0.01188
G1 X121.509 Y117.248 E0.01267
G1 X116.179 Y131.892 E0.58634
G1 X116.105 Y132.190 E0.01155
G1 X116.099 Y132.394 E0.00769
G1 F8640
G1 X115.937 Y132.269 E-0.04727
G1 X115.680 Y132.072 E-0.07479
G1 X115.417 Y131.944 E-0.06762
G1 X114.357 Y131.558 E-0.26034
G1 X114.816 Y130.297 E-0.30998
G1 E-0.04000 F2100.00000
G1 Z0.800 F10800.000
G1 X120.538 Y113.931
G1 Z0.200
G1 E0.80000 F2100.00000
G1 F1193.38
G1 X120.850 Y114.120 E0.01374
G1 X121.130 Y114.346 E0.01354
G1 X121.386 Y114.613 E0.01393
G1 X121.602 Y114.908 E0.01373
G1 X121.775 Y115.223 E0.01354
G1 X121.908 Y115.563 E0.01374
G1 X121.995 Y115.918 E0.01373
G1 X122.035 Y116.286 E0.01393
G1 X122.027 Y116.645 E0.01354
G1 X121.972 Y117.006 E0.01373
G1 X121.867 Y117.365 E0.01406
G1 X116.540 Y132.002 E0.58605
G1 X116.481 Y132.241 E0.00928
G1 X116.473 Y132.499 E0.00970
G1 X116.520 Y132.752 E0.00970
G1 X116.620 Y132.990 E0.00970
G1 X116.768 Y133.202 E0.00972
G1 X116.958 Y133.377 E0.00970
G1 X117.180 Y133.508 E0.00970
G1 X117.425 Y133.589 E0.00970
G1 X117.670 Y133.615 E0.00928
G1 X133.246 Y133.615 E0.58605
G1 X133.619 Y133.640 E0.01406
G1 X133.977 Y133.711 E0.01373
G1 X134.317 Y133.827 E0.01354
G1 X134.649 Y133.991 E0.01393
G1 X134.953 Y134.194 E0.01373
G1 X135.227 Y134.434 E0.01374
G1 X135.464 Y134.705 E0.01354
G1 X135.667 Y135.008 E0.01373
G1 X135.831 Y135.340 E0.01393
G1 X135.947 Y135.681 E0.01354
G1 X136.018 Y136.039 E0.01373
G1 X136.028 Y136.195 E0.00588
G1 X117.178 Y136.183 E0.70924
G1 X117.049 Y136.109 E0.00561
G1 X116.974 Y135.980 E0.00561
G1 X116.963 Y134.710 E0.04779
G1 X116.939 Y134.476 E0.00885
G1 X116.865 Y134.240 E0.00929
G1 X116.750 Y134.035 E0.00885
G1 X115.831 Y132.722 E0.06030
G1 X115.677 Y132.544 E0.00885
G1 X115.481 Y132.394 E0.00929
G1 X115.270 Y132.292 E0.00885
G1 X114.159 Y131.888 E0.04446
G1 X114.025 Y131.796 E0.00613
G1 X113.962 Y131.660 E0.00561
G1 X113.978 Y131.498 E0.00613
G1 X120.396 Y113.868 E0.70592
G1 X120.483 Y113.907 E0.00359
G1 X120.733 Y114.239 F10800.000
G1 F8640
G1 X120.850 Y114.120 E-0.09804
G1 X121.130 Y114.346 E-0.08307
G1 X121.386 Y114.613 E-0.08549
G1 X121.602 Y114.908 E-0.08427
G1 X121.775 Y115.223 E-0.08309
G1 X121.908 Y115.563 E-0.08430
G1 X121.995 Y115.918 E-0.08425
G1 X122.035 Y116.286 E-0.08549
G1 X122.028 Y116.597 E-0.07200
G1 E-0.04000 F2100.00000
G1 Z0.800 F10800.000
G1 X121.362 Y115.514
G1 Z0.200
G1 E0.80000 F2100.00000
G1 F1182.52
G1 X120.729 Y114.881 E0.03401
G1 X120.585 Y115.276 E0.01594
G1 X121.343 Y116.034 E0.04071
G1 X121.374 Y116.314 E0.01072
G1 X121.367 Y116.595 E0.01067
G1 X120.442 Y115.670 E0.04969
G1 X120.298 Y116.065 E0.01594
G1 X121.274 Y117.041 E0.05242
G1 X121.137 Y117.442 E0.01609
G1 X120.155 Y116.459 E0.05276
G1 X120.011 Y116.854 E0.01594
G1 X120.994 Y117.836 E0.05277
G1 X120.850 Y118.231 E0.01594
G1 X119.867 Y117.248 E0.05277
G1 X119.724 Y117.643 E0.01594
G1 X120.706 Y118.625 E0.05277
G1 X120.563 Y119.020 E0.01594
G1 X119.580 Y118.037 E0.05277
G1 X119.436 Y118.432 E0.01594
G1 X120.419 Y119.415 E0.05277
G1 X120.275 Y119.809 E0.01594
G1 X119.293 Y118.826 E0.05277
G1 X119.149 Y119.221 E0.01594
G1 X120.132 Y120.204 E0.05277
G1 X119.988 Y120.598 E0.01594
G1 X119.006 Y119.616 E0.05277
G1 X118.862 Y120.010 E0.01594
G1 X119.845 Y120.993 E0.05277
G1 X119.701 Y121.387 E0.01594
G1 X118.718 Y120.405 E0.05277
G1 X118.575 Y120.799 E0.01594
G1 X119.557 Y121.782 E0.05277
G1 X119.414 Y122.176 E0.01594
G1 X118.431 Y121.194 E0.05278
G1 X118.287 Y121.588 E0.01594
G1 X119.270 Y122.571 E0.05278
G1 X119.127 Y122.966 E0.01594
G1 X118.144 Y121.983 E0.05278
G1 X118.000 Y122.377 E0.01594
G1 X118.983 Y123.360 E0.05278
G1 X118.839 Y123.755 E0.01594
G1 X117.857 Y122.772 E0.05278
G1 X117.713 Y123.166 E0.01594
G1 X118.696 Y124.149 E0.05278
G1 X118.552 Y124.544 E0.01594
G1 X117.569 Y123.561 E0.05278
G1 X117.426 Y123.955 E0.01594
G1 X118.409 Y124.938 E0.05278
G1 X118.265 Y125.333 E0.01594
G1 X117.282 Y124.350 E0.05278
G1 X117.138 Y124.745 E0.01594
G1 X118.121 Y125.728 E0.05278
G1 X117.978 Y126.122 E0.01594
G1 X116.995 Y125.139 E0.05278
G1 X116.851 Y125.534 E0.01594
G1 X117.834 Y126.517 E0.05279
G1 X117.691 Y126.911 E0.01594
G1 X116.708 Y125.928 E0.05279
G1 X116.564 Y126.323 E0.01594
G1 X117.547 Y127.306 E0.05279
G1 X117.403 Y127.700 E0.01594
G1 X116.420 Y126.717 E0.05279
G1 X116.277 Y127.112 E0.01594
G1 X117.260 Y128.095 E0.05279
G1 X117.116 Y128.489 E0.01594
G1 X116.133 Y127.506 E0.05279
G1 X115.989 Y127.901 E0.01594
G1 X116.972 Y128.884 E0.05279
G1 X116.829 Y129.279 E0.01594
G1 X115.846 Y128.295 E0.05279
G1 X115.702 Y128.690 E0.01594
G1 X116.685 Y129.673 E0.05279
G1 X116.542 Y130.068 E0.01594
G1 X115.559 Y129.085 E0.05279
G1 X115.415 Y129.479 E0.01594
G1 X116.398 Y130.462 E0.05280
G1 X116.254 Y130.857 E0.01594
G1 X115.271 Y129.874 E0.05280
G1 X115.128 Y130.268 E0.01594
G1 X116.111 Y131.251 E0.05280
G1 X115.967 Y131.646 E0.01594
G1 X114.984 Y130.663 E0.05280
G1 X114.840 Y131.057 E0.01594
G1 X115.817 Y132.034 E0.05245
G1 X116.301 Y132.724 F10800.000
G1 F1200
G1 X116.350 Y133.135 E0.00273
G1 X116.340 Y132.996 F10800.000
G1 F1200
G1 X116.586 Y133.369 E0.00524
G1 X116.667 Y133.463 E0.00179
G1 X116.540 Y133.406 F10800.000
G1 F1200
G1 X116.909 Y133.593 E0.00264
G1 F8640
G1 X116.540 Y133.406 E-0.09554
G1 E-0.70446 F2100.00000
G1 Z0.800 F10800.000
G1 X118.227 Y135.705
G1 Z0.200
G1 E0.80000 F2100.00000
G1 F1175.04
G1 X117.623 Y135.100 E0.03269
G1 X117.609 Y134.545 E0.02121
G1 X118.599 Y135.535 E0.05351
G1 X119.141 Y135.535 E0.02070
G1 X117.881 Y134.275 E0.06811
G1 X118.422 Y134.275 E0.02070
G1 X119.683 Y135.535 E0.06811
G1 X120.224 Y135.535 E0.02070
G1 X118.964 Y134.275 E0.06811
G1 X119.506 Y134.275 E0.02070
G1 X120.766 Y135.535 E0.06811
G1 X121.307 Y135.535 E0.02070
G1 X120.047 Y134.275 E0.06811
G1 X120.589 Y134.275 E0.02070
G1 X121.849 Y135.535 E0.06811
G1 X122.391 Y135.535 E0.02070
G1 X121.130 Y134.275 E0.06811
G1 X121.672 Y134.275 E0.02070
G1 X122.932 Y135.535 E0.06811
G1 X123.474 Y135.535 E0.02070
G1 X122.213 Y134.275 E0.06811
G1 X122.755 Y134.275 E0.02070
G1 X124.015 Y135.535 E0.06811
G1 X124.557 Y135.535 E0.02070
G1 X123.297 Y134.275 E0.06811
G1 X123.838 Y134.275 E0.02070
G1 X125.099 Y135.535 E0.06811
G1 X125.640 Y135.535 E0.02070
G1 X124.380 Y134.275 E0.06811
G1 X124.921 Y134.275 E0.02070
G1 X126.182 Y135.535 E0.06811
G1 X126.723 Y135.535 E0.02070
G1 X125.463 Y134.275 E0.06811
G1 X126.005 Y134.275 E0.02070
G1 X127.265 Y135.535 E0.06811
G1 X127.807 Y135.535 E0.02070
G1 X126.546 Y134.275 E0.06811
G1 X127.088 Y134.275 E0.02070
G1 X128.348 Y135.535 E0.06811
G1 X128.890 Y135.535 E0.02070
G1 X127.629 Y134.275 E0.06811
G1 X128.171 Y134.275 E0.02070
G1 X129.431 Y135.535 E0.06811
G1 X129.973 Y135.535 E0.02070
G1 X128.713 Y134.275 E0.06811
G1 X129.254 Y134.275 E0.02070
G1 X130.514 Y135.535 E0.06811
G1 X131.056 Y135.535 E0.02070
G1 X129.796 Y134.275 E0.06811
G1 X130.337 Y134.275 E0.02070
G1 X131.598 Y135.535 E0.06811
G1 X132.139 Y135.535 E0.02070
G1 X130.879 Y134.275 E0.06811
G1 X131.421 Y134.275 E0.02070
G1 X132.681 Y135.535 E0.06811
G1 X133.222 Y135.535 E0.02070
G1 X131.962 Y134.275 E0.06811
G1 X132.504 Y134.275 E0.02070
G1 X133.764 Y135.535 E0.06811
G1 X134.306 Y135.535 E0.02070
G1 X133.045 Y134.275 E0.06811
G1 X133.532 Y134.295 E0.01861
G1 X133.626 Y134.314 E0.00367
G1 X135.017 Y135.705 E0.07516
G1 X135.372 Y135.519 F10800.000
G1 F1175.04
G1 X134.139 Y134.285 E0.06664
G1 F8640
G1 X135.372 Y135.519 E-0.40269
G1 E-0.39731 F2100.00000
G1 Z0.800 F10800.000
G1 X129.840 Y128.323
G1 Z0.200
G1 E0.80000 F2100.00000
G1 F1193.38
G1 X129.840 Y127.195 E0.04242
G1 X129.810 Y126.904 E0.01102
G1 X129.713 Y126.595 E0.01219
G1 X129.593 Y126.381 E0.00921
G1 X129.844 Y126.464 E0.00995
G1 X130.150 Y126.497 E0.01155
G1 X145.733 Y126.497 E0.58634
G1 X146.069 Y126.519 E0.01267
G1 X146.379 Y126.581 E0.01188
G1 X146.673 Y126.681 E0.01168
G1 X146.960 Y126.823 E0.01206
G1 X147.222 Y126.998 E0.01186
G1 X147.460 Y127.206 E0.01188
G1 X147.664 Y127.440 E0.01169
G1 X147.840 Y127.702 E0.01187
G1 X147.982 Y127.990 E0.01206
G1 X148.089 Y128.323 E0.01317
G1 X129.900 Y128.323 E0.68439
G1 F8640
G1 X129.840 Y127.195 E-0.26071
G1 X129.810 Y126.904 E-0.06762
G1 X129.713 Y126.595 E-0.07479
G1 X129.593 Y126.381 E-0.05655
G1 X129.844 Y126.464 E-0.06107
G1 X130.150 Y126.497 E-0.07090
G1 X130.879 Y126.497 E-0.16836
G1 E-0.04000 F2100.00000
G1 Z0.800 F10800.000
G1 X128.597 Y124.959
G1 Z0.200
G1 E0.80000 F2100.00000
G1 F1193.38
G1 X128.437 Y124.774 E0.00921
G1 X128.180 Y124.576 E0.01219
G1 X127.917 Y124.449 E0.01102
G1 X126.857 Y124.063 E0.04242
G1 X133.100 Y106.915 E0.68664
G1 X133.375 Y107.129 E0.01313
G1 X133.597 Y107.361 E0.01206
G1 X133.783 Y107.615 E0.01187
G1 X133.933 Y107.888 E0.01169
G1 X134.047 Y108.182 E0.01188
G1 X134.122 Y108.488 E0.01186
G1 X134.157 Y108.807 E0.01206
G1 X134.151 Y109.117 E0.01168
G1 X134.103 Y109.429 E0.01188
G1 X134.009 Y109.753 E0.01267
G1 X128.679 Y124.396 E0.58634
G1 X128.605 Y124.694 E0.01155
G1 X128.599 Y124.899 E0.00769
G1 F8640
G1 X128.437 Y124.774 E-0.04727
G1 X128.180 Y124.576 E-0.07479
G1 X127.917 Y124.449 E-0.06762
G1 X126.857 Y124.063 E-0.26034
G1 X127.316 Y122.802 E-0.30998
G1 E-0.04000 F2100.00000
G1 Z0.800 F10800.000
G1 X133.038 Y106.436
G1 Z0.200
G1 E0.80000 F2100.00000
G1 F1193.38
G1 X133.350 Y106.625 E0.01374
G1 X133.630 Y106.851 E0.01354
G1 X133.886 Y107.118 E0.01393
G1 X134.102 Y107.412 E0.01373
G1 X134.275 Y107.728 E0.01354
G1 X134.408 Y108.068 E0.01374
G1 X134.495 Y108.422 E0.01373
G1 X134.535 Y108.790 E0.01393
G1 X134.527 Y109.150 E0.01354
G1 X134.472 Y109.511 E0.01373
G1 X134.367 Y109.870 E0.01406
G1 X129.040 Y124.507 E0.58605
G1 X128.981 Y124.746 E0.00928
G1 X128.973 Y125.004 E0.00970
G1 X129.020 Y125.257 E0.00970
G1 X129.120 Y125.495 E0.00970
G1 X129.268 Y125.706 E0.00972
G1 X129.458 Y125.882 E0.00970
G1 X129.680 Y126.013 E0.00970
G1 X129.925 Y126.094 E0.00970
G1 X130.170 Y126.120 E0.00928
G1 X145.746 Y126.120 E0.58605
G1 X146.119 Y126.145 E0.01406
G1 X146.477 Y126.216 E0.01373
G1 X146.817 Y126.332 E0.01354
G1 X147.149 Y126.495 E0.01393
G1 X147.453 Y126.698 E0.01373
G1 X147.727 Y126.939 E0.01374
G1 X147.964 Y127.210 E0.01354
G1 X148.167 Y127.513 E0.01373
G1 X148.331 Y127.845 E0.01393
G1 X148.447 Y128.186 E0.01354
G1 X148.518 Y128.544 E0.01373
G1 X148.528 Y128.700 E0.00588
G1 X129.678 Y128.688 E0.70924
G1 X129.549 Y128.614 E0.00561
G1 X129.474 Y128.485 E0.00561
G1 X129.463 Y127.215 E0.04779
G1 X129.439 Y126.981 E0.00885
G1 X129.365 Y126.745 E0.00929
G1 X129.250 Y126.540 E0.00885
G1 X128.331 Y125.227 E0.06030
G1 X128.177 Y125.049 E0.00885
G1 X127.981 Y124.899 E0.00929
G1 X127.770 Y124.797 E0.00885
G1 X126.659 Y124.392 E0.04446
G1 X126.525 Y124.300 E0.00613
G1 X126.462 Y124.165 E0.00561
G1 X126.478 Y124.003 E0.00613
G1 X132.896 Y106.373 E0.70592
G1 X132.983 Y106.412 E0.00359
G1 X133.233 Y106.744 F10800.000
G1 F8640
G1 X133.350 Y106.625 E-0.09804
G1 X133.630 Y106.851 E-0.08307
G1 X133.886 Y107.118 E-0.08549
G1 X134.102 Y107.412 E-0.08427
G1 X134.275 Y107.728 E-0.08309
G1 X134.408 Y108.068 E-0.08430
G1 X134.495 Y108.422 E-0.08425
G1 X134.535 Y108.790 E-0.08549
G1 X134.528 Y109.102 E-0.07200
G1 E-0.04000 F2100.00000
G1 Z0.800 F10800.000
G1 X133.862 Y108.019
G1 Z0.200
G1 E0.80000 F2100.00000
G1 F1182.52
G1 X133.229 Y107.386 E0.03401
G1 X133.085 Y107.780 E0.01594
G1 X133.843 Y108.538 E0.04071
G1 X133.874 Y108.819 E0.01072
G1 X133.867 Y109.100 E0.01067
G1 X132.942 Y108.175 E0.04969
G1 X132.798 Y108.569 E0.01594
G1 X133.774 Y109.546 E0.05242
G1 X133.637 Y109.947 E0.01609
G1 X132.655 Y108.964 E0.05276
G1 X132.511 Y109.359 E0.01594
G1 X133.494 Y110.341 E0.05277
G1 X133.350 Y110.736 E0.01594
G1 X132.367 Y109.753 E0.05277
G1 X132.224 Y110.148 E0.01594
G1 X133.206 Y111.130 E0.05277
G1 X133.063 Y111.525 E0.01594
G1 X132.080 Y110.542 E0.05277
G1 X131.936 Y110.937 E0.01594
G1 X132.919 Y111.919 E0.05277
G1 X132.775 Y112.314 E0.01594
G1 X131.793 Y111.331 E0.05277
G1 X131.649 Y111.726 E0.01594
G1 X132.632 Y112.709 E0.05277
G1 X132.488 Y113.103 E0.01594
G1 X131.506 Y112.120 E0.05277
G1 X131.362 Y112.515 E0.01594
G1 X132.345 Y113.498 E0.05277
G1 X132.201 Y113.892 E0.01594
G1 X131.218 Y112.909 E0.05277
G1 X131.075 Y113.304 E0.01594
G1 X132.057 Y114.287 E0.05277
G1 X131.914 Y114.681 E0.01594
G1 X130.931 Y113.699 E0.05278
G1 X130.787 Y114.093 E0.01594
G1 X131.770 Y115.076 E0.05278
G1 X131.627 Y115.470 E0.01594
G1 X130.644 Y114.488 E0.05278
G1 X130.500 Y114.882 E0.01594
G1 X131.483 Y115.865 E0.05278
G1 X131.339 Y116.260 E0.01594
