; generated by PrusaSlicer 2.0.0+win64 on 2019-09-02 at 16:14:50

; 

; external perimeters extrusion width = 0.45mm
; perimeters extrusion width = 0.45mm
; infill extrusion width = 0.45mm
; solid infill extrusion width = 0.45mm
; top infill extrusion width = 0.40mm
; first layer extrusion width = 0.42mm

M73 P0 R48
M73 Q0 S48
M201 X1000 Y1000 Z1000 E5000 ; sets maximum accelerations, mm/sec^2
M203 X200 Y200 Z12 E120 ; sets maximum feedrates, mm/sec
M204 P1250 R1250 T1250 ; sets acceleration (P, T) and retract acceleration (R), mm/sec^2
M205 X8.00 Y8.00 Z0.40 E1.50 ; sets the jerk limits, mm/sec
M205 S0 T0 ; sets the minimum extruding and travel feed rate, mm/sec
M107
M115 U3.7.2 ; tell printer latest fw version
G90 ; use absolute coordinates
M83 ; extruder relative mode
M104 S215 ; set extruder temp
M140 S60 ; set bed temp
M190 S60 ; wait for bed temp
M109 S215 ; wait for extruder temp
G28 W ; home all without mesh bed level
G80 ; mesh bed leveling
G1 Y-3.0 F1000.0 ; go outside print area
G92 E0.0
G1 X60.0 E9.0 F1000.0 ; intro line
M73 Q0 S48
M73 P0 R48
G1 X100.0 E12.5 F1000.0 ; intro line
G92 E0.0
M221 S95
M900 K30 ; Filament gcode
G21 ; set units to millimeters
G90 ; use absolute coordinates
M83 ; use relative distances for extrusion
;BEFORE_LAYER_CHANGE
G92 E0.0
;0.2


G1 E-0.80000 F2100.00000
G1 Z0.600 F10800.000
;AFTER_LAYER_CHANGE
;0.2
G1 X111.914 Y83.444
G1 Z0.200
G1 E0.80000 F2100.00000
M204 S1000
G1 F1200
G1 X112.357 Y83.106 E0.01749
G1 X112.871 Y82.890 E0.01749
G1 X113.427 Y82.812 E0.01760
G1 X136.551 Y82.811 E0.72502
G1 X137.118 Y82.887 E0.01794
G1 X137.643 Y83.106 E0.01783
G1 X138.094 Y83.452 E0.01783
G1 X138.440 Y83.902 E0.01783
G1 X150.033 Y103.986 E0.72708
G1 X150.222 Y104.488 E0.01680
G1 X150.282 Y105.020 E0.01680
G1 X150.212 Y105.551 E0.01680
G1 X150.015 Y106.049 E0.01680
G1 X138.428 Y126.119 E0.72663
G1 X138.070 Y126.571 E0.01805
G1 X137.608 Y126.914 E0.01805
G1 X137.097 Y127.118 E0.01726
G1 X136.547 Y127.189 E0.01738
G1 X113.427 Y127.188 E0.72490
G1 X112.896 Y127.117 E0.01680
G1 X112.402 Y126.920 E0.01669
G1 X111.932 Y126.574 E0.01828
G1 X111.573 Y126.120 E0.01817
G1 X99.980 Y106.040 E0.72697
G1 X99.784 Y105.534 E0.01703
G1 X99.717 Y104.995 E0.01703
G1 X99.786 Y104.456 E0.01703
G1 X99.985 Y103.951 E0.01703
G1 X111.571 Y83.884 E0.72651
G1 X111.877 Y83.491 E0.01560
G1 F8640
G1 X112.357 Y83.106 E-0.14221
G1 X112.871 Y82.890 E-0.12877
G1 X113.427 Y82.812 E-0.12960
G1 X114.984 Y82.812 E-0.35941
G1 E-0.04000 F2100.00000
G1 Z0.800 F10800.000
G1 X119.293 Y97.792
G1 Z0.200
G1 E0.80000 F2100.00000
G1 F1200
G1 X119.682 Y97.242 E0.02111
G1 X120.304 Y96.531 E0.02961
G1 X120.775 Y96.075 E0.02055
G1 X121.259 Y95.666 E0.01988
G1 X121.761 Y95.296 E0.01954
G1 X122.279 Y94.963 E0.01932
G1 X122.811 Y94.664 E0.01913
G1 X123.258 Y94.444 E0.01563
G1 X123.826 Y94.201 E0.01937
G1 X124.404 Y93.993 E0.01926
G1 X124.900 Y93.845 E0.01621
G1 X125.498 Y93.697 E0.01932
G1 X126.107 Y93.584 E0.01942
G1 X126.933 Y93.487 E0.02608
G1 X127.597 Y93.458 E0.02084
G1 X127.961 Y93.539 E0.01167
G1 X128.895 Y93.823 E0.03063
G1 X129.808 Y94.185 E0.03078
G1 X130.921 Y94.751 E0.03916
G1 X131.718 Y95.254 E0.02954
G1 X132.317 Y95.700 E0.02342
G1 X133.191 Y96.454 E0.03620
G1 X133.861 Y97.150 E0.03029
G1 X134.540 Y97.996 E0.03400
G1 X135.016 Y98.692 E0.02645
G1 X135.498 Y99.531 E0.03032
G1 X135.910 Y100.409 E0.03042
G1 X136.279 Y101.409 E0.03341
G1 X136.535 Y102.342 E0.03035
G1 X136.714 Y103.295 E0.03039
G1 X136.817 Y104.330 E0.03261
G1 X136.835 Y105.227 E0.02814
G1 X136.777 Y106.196 E0.03043
G1 X136.639 Y107.158 E0.03048
G1 X136.406 Y108.166 E0.03242
G1 X136.108 Y109.090 E0.03045
G1 X135.735 Y109.988 E0.03049
G1 X135.263 Y110.894 E0.03204
G1 X134.776 Y111.675 E0.02886
G1 X134.195 Y112.455 E0.03049
G1 X133.552 Y113.185 E0.03051
G1 X132.850 Y113.860 E0.03053
G1 X132.059 Y114.502 E0.03193
G1 X131.255 Y115.050 E0.03052
G1 X130.408 Y115.530 E0.03051
G1 X129.562 Y115.922 E0.02923
G1 X128.611 Y116.273 E0.03180
G1 X127.671 Y116.532 E0.03057
G1 X126.714 Y116.713 E0.03056
G1 X125.709 Y116.816 E0.03167
G1 X124.735 Y116.834 E0.03054
G1 X123.797 Y116.776 E0.02948
G1 X122.799 Y116.631 E0.03160
G1 X121.849 Y116.411 E0.03057
G1 X120.921 Y116.113 E0.03056
G1 X120.021 Y115.739 E0.03057
G1 X119.154 Y115.293 E0.03057
G1 X118.327 Y114.777 E0.03058
G1 X117.545 Y114.195 E0.03054
G1 X116.881 Y113.615 E0.02765
G1 X116.396 Y113.123 E0.02166
G1 X116.222 Y112.815 E0.01109
G1 X115.880 Y112.100 E0.02487
G1 X115.616 Y111.436 E0.02238
G1 X115.303 Y110.420 E0.03336
G1 X115.152 Y109.738 E0.02187
G1 X115.050 Y109.074 E0.02109
G1 X115.007 Y108.607 E0.01470
G1 X114.976 Y107.767 E0.02636
G1 X114.992 Y107.263 E0.01580
G1 X115.051 Y106.608 E0.02063
G1 X115.154 Y105.961 E0.02053
G1 X115.300 Y105.327 E0.02040
G1 X115.490 Y104.706 E0.02037
G1 X115.733 Y104.080 E0.02104
G1 X115.889 Y103.755 E0.01129
G1 X116.062 Y102.826 E0.02966
G1 X116.284 Y102.067 E0.02478
G1 X116.377 Y101.793 E0.00908
G1 X116.668 Y101.099 E0.02360
G1 X117.023 Y100.416 E0.02415
G1 X117.441 Y99.756 E0.02446
G1 X117.990 Y99.043 E0.02824
G1 X118.518 Y98.472 E0.02438
G1 X119.002 Y98.024 E0.02066
G1 X119.246 Y97.829 E0.00980
G1 X119.570 Y98.053 F10800.000
G1 F1200
G1 X119.979 Y97.476 E0.02218
G1 X120.577 Y96.791 E0.02851
G1 X121.028 Y96.355 E0.01966
G1 X121.493 Y95.963 E0.01909
G1 X121.975 Y95.607 E0.01878
G1 X122.473 Y95.286 E0.01859
G1 X122.987 Y94.998 E0.01845
G1 X123.416 Y94.787 E0.01500
G1 X123.964 Y94.552 E0.01871
G1 X124.522 Y94.351 E0.01858
G1 X124.999 Y94.209 E0.01560
G1 X125.578 Y94.066 E0.01870
G1 X126.164 Y93.957 E0.01868
G1 X126.963 Y93.863 E0.02524
G1 X127.564 Y93.837 E0.01885
G1 X127.865 Y93.904 E0.00967
G1 X128.771 Y94.179 E0.02969
G1 X129.653 Y94.529 E0.02974
G1 X130.735 Y95.079 E0.03806
G1 X131.504 Y95.565 E0.02854
G1 X132.081 Y95.994 E0.02254
G1 X132.932 Y96.728 E0.03523
G1 X133.577 Y97.400 E0.02921
G1 X134.237 Y98.221 E0.03302
G1 X134.697 Y98.893 E0.02553
G1 X135.163 Y99.705 E0.02937
G1 X135.562 Y100.555 E0.02944
G1 X135.920 Y101.524 E0.03239
G1 X136.168 Y102.427 E0.02935
G1 X136.341 Y103.348 E0.02939
G1 X136.440 Y104.353 E0.03164
G1 X136.458 Y105.220 E0.02720
G1 X136.401 Y106.158 E0.02946
G1 X136.268 Y107.089 E0.02950
G1 X136.042 Y108.065 E0.03142
G1 X135.754 Y108.960 E0.02946
G1 X135.393 Y109.828 E0.02949
G1 X134.936 Y110.707 E0.03107
G1 X134.464 Y111.462 E0.02791
G1 X133.902 Y112.217 E0.02952
G1 X133.279 Y112.924 E0.02953
G1 X132.600 Y113.577 E0.02955
G1 X131.834 Y114.199 E0.03093
G1 X131.055 Y114.730 E0.02953
G1 X130.236 Y115.194 E0.02954
G1 X129.418 Y115.573 E0.02827
G1 X128.496 Y115.914 E0.03082
G1 X127.586 Y116.164 E0.02957
G1 X126.659 Y116.339 E0.02958
G1 X125.686 Y116.439 E0.03068
G1 X124.743 Y116.457 E0.02956
G1 X123.836 Y116.400 E0.02851
G1 X122.869 Y116.260 E0.03062
G1 X121.950 Y116.047 E0.02959
G1 X121.051 Y115.758 E0.02959
G1 X120.180 Y115.397 E0.02959
G1 X119.340 Y114.965 E0.02960
G1 X118.539 Y114.465 E0.02960
G1 X117.782 Y113.901 E0.02959
G1 X117.140 Y113.340 E0.02675
G1 X116.700 Y112.893 E0.01966
G1 X116.556 Y112.640 E0.00912
G1 X116.225 Y111.948 E0.02406
G1 X115.972 Y111.311 E0.02150
G1 X115.668 Y110.323 E0.03240
G1 X115.523 Y109.669 E0.02101
G1 X115.424 Y109.028 E0.02034
G1 X115.383 Y108.583 E0.01402
G1 X115.353 Y107.766 E0.02562
G1 X115.369 Y107.286 E0.01505
G1 X115.426 Y106.654 E0.01989
G1 X115.525 Y106.033 E0.01972
G1 X115.665 Y105.424 E0.01958
G1 X115.846 Y104.829 E0.01951
G1 X116.080 Y104.230 E0.02015
G1 X116.256 Y103.862 E0.01281
G1 X116.429 Y102.915 E0.03017
G1 X116.643 Y102.181 E0.02399
G1 X116.730 Y101.927 E0.00841
G1 X117.010 Y101.259 E0.02271
G1 X117.351 Y100.604 E0.02315
G1 X117.750 Y99.973 E0.02342
G1 X118.279 Y99.286 E0.02717
G1 X118.785 Y98.739 E0.02338
G1 X119.248 Y98.310 E0.01977
G1 X119.523 Y98.091 E0.01105
G1 X119.432 Y97.678 F10800.000
G1 F8640
G1 X119.979 Y97.476 E-0.17668
G1 X120.577 Y96.791 E-0.20996
G1 X121.028 Y96.355 E-0.14475
G1 X121.493 Y95.963 E-0.14061
G1 X121.800 Y95.736 E-0.08800
G1 E-0.04000 F2100.00000
G1 Z0.800 F10800.000
G1 X113.792 Y85.587
G1 Z0.200
G1 E0.80000 F2100.00000
G1 F1200
G1 X136.208 Y85.587 E0.70284
G1 X147.416 Y105.000 E0.70284
G1 X136.208 Y124.413 E0.70284
G1 X113.792 Y124.413 E0.70284
G1 X102.584 Y105.000 E0.70284
G1 X113.762 Y85.639 E0.70096
G1 X113.574 Y85.210 F10800.000
G1 F1200
G1 X136.426 Y85.210 E0.71649
G1 X147.835 Y104.972 E0.71547
G1 X147.852 Y105.000 E0.00103
G1 X136.426 Y124.790 E0.71649
G1 X113.574 Y124.790 E0.71649
G1 X102.148 Y105.000 E0.71649
G1 X113.544 Y85.262 E0.71461
G1 X113.921 Y85.410 F10800.000
G1 F8640
G1 X116.836 Y85.254 E-0.76000
G1 E-0.04000 F2100.00000
G1 Z0.800 F10800.000
G1 X132.852 Y96.012
G1 Z0.200
G1 E0.80000 F2100.00000
G1 F1200
G1 X122.710 Y85.870 E0.45085
G1 X122.175 Y85.870 E0.01680
G1 X130.550 Y94.245 E0.37228
G1 X129.924 Y93.927 E0.02206
G1 X129.548 Y93.777 E0.01272
G1 X121.641 Y85.870 E0.35151
G1 X121.106 Y85.870 E0.01680
G1 X128.706 Y93.470 E0.33783
G1 X127.948 Y93.247 E0.02483
G1 X120.571 Y85.870 E0.32791
G1 X120.037 Y85.870 E0.01680
G1 X127.353 Y93.186 E0.32521
G1 X126.845 Y93.212 E0.01599
G1 X119.502 Y85.870 E0.32639
G1 X118.968 Y85.870 E0.01680
G1 X126.366 Y93.268 E0.32889
G1 X125.898 Y93.335 E0.01486
G1 X118.433 Y85.870 E0.33184
G1 X117.898 Y85.870 E0.01680
G1 X125.448 Y93.419 E0.33558
G1 X125.018 Y93.524 E0.01389
G1 X117.364 Y85.870 E0.34026
G1 X116.829 Y85.870 E0.01680
G1 X124.599 Y93.640 E0.34538
G1 X124.193 Y93.768 E0.01339
G1 X116.295 Y85.870 E0.35110
G1 X115.760 Y85.870 E0.01680
G1 X123.800 Y93.910 E0.35739
G1 X123.422 Y94.066 E0.01286
G1 X115.225 Y85.870 E0.36435
G1 X114.691 Y85.870 E0.01680
G1 X123.051 Y94.231 E0.37165
G1 X122.693 Y94.407 E0.01255
G1 X114.156 Y85.870 E0.37949
G1 X113.955 Y85.870 E0.00632
G1 X113.833 Y86.081 E0.00768
G1 X122.350 Y94.598 E0.37860
G1 X122.014 Y94.797 E0.01227
G1 X113.637 Y86.420 E0.37236
G1 X113.442 Y86.759 E0.01230
G1 X121.689 Y95.006 E0.36660
G1 X121.377 Y95.229 E0.01205
G1 X113.246 Y87.098 E0.36142
G1 X113.050 Y87.437 E0.01230
G1 X121.070 Y95.456 E0.35648
G1 X120.780 Y95.701 E0.01192
G1 X112.855 Y87.776 E0.35229
G1 X112.659 Y88.115 E0.01230
G1 X120.496 Y95.952 E0.34837
G1 X120.224 Y96.215 E0.01188
G1 X112.463 Y88.454 E0.34499
G1 X112.268 Y88.793 E0.01230
G1 X119.964 Y96.490 E0.34214
G1 X119.715 Y96.775 E0.01191
G1 X112.072 Y89.132 E0.33975
G1 X111.876 Y89.471 E0.01230
G1 X119.466 Y97.060 E0.33736
G1 X119.243 Y97.372 E0.01205
G1 X111.681 Y89.810 E0.33618
G1 X111.485 Y90.148 E0.01230
G1 X119.000 Y97.664 E0.33407
G1 X118.711 Y97.909 E0.01192
G1 X111.289 Y90.487 E0.32989
G1 X111.094 Y90.826 E0.01230
G1 X118.433 Y98.165 E0.32624
G1 X118.167 Y98.435 E0.01188
G1 X110.898 Y91.165 E0.32314
G1 X110.702 Y91.504 E0.01230
G1 X117.910 Y98.712 E0.32042
G1 X117.665 Y99.002 E0.01192
G1 X110.507 Y91.843 E0.31821
G1 X110.311 Y92.182 E0.01230
G1 X117.432 Y99.304 E0.31657
G1 X117.201 Y99.607 E0.01199
G1 X110.115 Y92.521 E0.31497
G1 X109.920 Y92.860 E0.01230
G1 X116.994 Y99.934 E0.31446
G1 X116.786 Y100.261 E0.01218
G1 X109.724 Y93.199 E0.31395
G1 X109.528 Y93.538 E0.01230
G1 X116.603 Y100.612 E0.31447
G1 X116.420 Y100.964 E0.01246
G1 X109.333 Y93.877 E0.31504
G1 X109.137 Y94.216 E0.01230
G1 X116.261 Y101.339 E0.31668
G1 X116.104 Y101.718 E0.01286
G1 X108.941 Y94.554 E0.31842
G1 X108.745 Y94.893 E0.01230
G1 X115.973 Y102.121 E0.32129
G1 X115.853 Y102.535 E0.01355
G1 X108.550 Y95.232 E0.32462
G1 X108.354 Y95.571 E0.01230
G1 X115.749 Y102.966 E0.32870
G1 X115.664 Y103.416 E0.01440
G1 X108.158 Y95.910 E0.33366
M73 Q2 S47
M73 P2 R47
G1 X107.963 Y96.249 E0.01230
G1 X115.541 Y103.827 E0.33687
G1 X115.382 Y104.203 E0.01282
G1 X107.767 Y96.588 E0.33850
G1 X107.571 Y96.927 E0.01230
G1 X115.232 Y104.588 E0.34054
G1 X115.106 Y104.996 E0.01343
G1 X107.376 Y97.266 E0.34361
G1 X107.180 Y97.605 E0.01230
G1 X114.990 Y105.415 E0.34717
G1 X114.890 Y105.849 E0.01402
G1 X106.984 Y97.944 E0.35142
G1 X106.789 Y98.283 E0.01230
G1 X114.813 Y106.307 E0.35670
G1 X114.752 Y106.781 E0.01501
G1 X106.593 Y98.622 E0.36268
G1 X106.397 Y98.960 E0.01230
G1 X114.709 Y107.272 E0.36948
G1 X114.694 Y107.791 E0.01633
G1 X106.202 Y99.299 E0.37749
G1 X106.006 Y99.638 E0.01230
G1 X114.714 Y108.347 E0.38710
G1 X114.752 Y108.919 E0.01802
G1 X105.810 Y99.977 E0.39746
G1 X105.615 Y100.316 E0.01230
G1 X114.835 Y109.537 E0.40987
G1 X114.965 Y110.201 E0.02128
G1 X105.419 Y100.655 E0.42434
G1 X105.223 Y100.994 E0.01230
G1 X115.166 Y110.937 E0.44199
G1 X115.349 Y111.530 E0.01952
G1 X115.431 Y111.736 E0.00696
G1 X105.028 Y101.333 E0.46244
G1 X104.832 Y101.672 E0.01230
G1 X115.847 Y112.687 E0.48966
G1 F8640
G1 X113.520 Y110.360 E-0.76000
G1 E-0.04000 F2100.00000
G1 Z0.800 F10800.000
G1 X118.177 Y115.017
G1 Z0.200
G1 E0.80000 F2100.00000
G1 F1200
G1 X127.290 Y124.130 E0.40510
G1 X127.825 Y124.130 E0.01680
G1 X119.467 Y115.772 E0.37152
G1 X119.902 Y115.996 E0.01537
G1 X120.455 Y116.225 E0.01881
G1 X128.359 Y124.130 E0.35138
G1 X128.894 Y124.130 E0.01680
G1 X121.293 Y116.529 E0.33789
G1 X121.774 Y116.683 E0.01589
G1 X122.045 Y116.746 E0.00873
G1 X129.429 Y124.130 E0.32823
G1 X129.963 Y124.130 E0.01680
G1 X122.741 Y116.908 E0.32104
G1 X123.367 Y116.999 E0.01988
G1 X130.498 Y124.130 E0.31699
G1 X131.032 Y124.130 E0.01680
G1 X123.972 Y117.070 E0.31384
G1 X124.543 Y117.106 E0.01796
G1 X131.567 Y124.130 E0.31225
G1 X132.102 Y124.130 E0.01680
G1 X125.082 Y117.111 E0.31203
G1 X125.607 Y117.101 E0.01649
G1 X132.636 Y124.130 E0.31247
G1 X133.171 Y124.130 E0.01680
G1 X126.101 Y117.060 E0.31428
G1 X126.585 Y117.010 E0.01532
G1 X133.705 Y124.130 E0.31650
G1 X134.240 Y124.130 E0.01680
G1 X127.047 Y116.938 E0.31972
G1 X127.497 Y116.853 E0.01439
G1 X134.775 Y124.130 E0.32350
G1 X135.309 Y124.130 E0.01680
G1 X127.933 Y116.754 E0.32791
G1 X128.352 Y116.638 E0.01367
G1 X135.844 Y124.130 E0.33304
G1 X136.045 Y124.130 E0.00632
G1 X136.167 Y123.919 E0.00768
G1 X128.766 Y116.518 E0.32899
G1 X129.156 Y116.373 E0.01308
G1 X136.363 Y123.580 E0.32034
G1 X136.558 Y123.241 E0.01230
G1 X129.546 Y116.229 E0.31169
G1 X129.920 Y116.068 E0.01278
G1 X136.754 Y122.902 E0.30379
G1 X136.950 Y122.563 E0.01230
G1 X130.285 Y115.899 E0.29625
G1 X130.643 Y115.722 E0.01255
G1 X137.145 Y122.224 E0.28904
G1 X137.341 Y121.885 E0.01230
G1 X130.984 Y115.528 E0.28257
G1 X131.325 Y115.335 E0.01233
G1 X137.537 Y121.546 E0.27610
G1 X137.732 Y121.207 E0.01230
G1 X131.649 Y115.124 E0.27042
G1 X131.967 Y114.907 E0.01209
G1 X137.928 Y120.868 E0.26499
G1 X138.124 Y120.529 E0.01230
G1 X132.281 Y114.686 E0.25973
G1 X132.576 Y114.447 E0.01195
G1 X138.319 Y120.190 E0.25531
G1 X138.515 Y119.852 E0.01230
G1 X132.871 Y114.207 E0.25090
G1 X133.156 Y113.958 E0.01191
G1 X138.711 Y119.513 E0.24692
G1 X138.906 Y119.174 E0.01230
G1 X133.428 Y113.696 E0.24350
G1 X133.701 Y113.434 E0.01188
G1 X139.102 Y118.835 E0.24009
G1 X139.298 Y118.496 E0.01230
G1 X133.956 Y113.154 E0.23746
G1 X134.206 Y112.870 E0.01191
G1 X139.493 Y118.157 E0.23502
G1 X139.689 Y117.818 E0.01230
G1 X134.453 Y112.582 E0.23275
G1 X134.681 Y112.276 E0.01201
G1 X139.885 Y117.479 E0.23131
G1 X140.080 Y117.140 E0.01230
G1 X134.910 Y111.969 E0.22986
G1 X135.125 Y111.650 E0.01210
G1 X140.276 Y116.801 E0.22898
G1 X140.472 Y116.462 E0.01230
G1 X135.330 Y111.321 E0.22854
G1 X135.533 Y110.989 E0.01223
G1 X140.667 Y116.123 E0.22824
G1 X140.863 Y115.784 E0.01230
G1 X135.716 Y110.637 E0.22880
G1 X135.899 Y110.286 E0.01246
G1 X141.059 Y115.446 E0.22936
G1 X141.255 Y115.107 E0.01230
G1 X136.069 Y109.921 E0.23050
G1 X136.226 Y109.544 E0.01286
G1 X141.450 Y114.768 E0.23222
G1 X141.646 Y114.429 E0.01230
G1 X136.382 Y109.164 E0.23401
G1 X136.512 Y108.760 E0.01335
G1 X141.842 Y114.090 E0.23692
G1 X142.037 Y113.751 E0.01230
G1 X136.642 Y108.356 E0.23983
G1 X136.751 Y107.930 E0.01381
G1 X142.233 Y113.412 E0.24369
G1 X142.429 Y113.073 E0.01230
G1 X136.851 Y107.496 E0.24793
G1 X136.940 Y107.050 E0.01429
G1 X142.624 Y112.734 E0.25268
G1 X142.820 Y112.395 E0.01230
G1 X137.007 Y106.582 E0.25840
G1 X137.065 Y106.106 E0.01508
G1 X143.016 Y112.056 E0.26450
G1 X143.211 Y111.717 E0.01230
G1 X137.096 Y105.602 E0.27184
G1 X137.115 Y105.087 E0.01621
G1 X143.407 Y111.378 E0.27968
G1 X143.603 Y111.040 E0.01230
G1 X137.104 Y104.541 E0.28889
